(Exported by FreeCAD)
(Post Processor: grbl_post)
(Output Time:2021-11-26 08:20:49.767127)
(begin preamble)
G17 G90
G21
(begin operation: T2: 1/4inENDMILL)
(Path: T2: 1/4inENDMILL)
(T2: 1/4inENDMILL)
(begin toolchange)
; M6 T2
M3 S0.0000
(finish operation: T2: 1/4inENDMILL)
(begin operation: MillFace)
(Path: MillFace)
(MillFace)
G0 Z5.0000
G0 X48.9939 Y518.4424
G0 Z3.0000
G1 X48.9939 Y518.4424 Z-0.7500 F1080.00
G1 X81.1718 Y462.7087 Z-0.7500 F1080.00
G3 X67.9377 Y433.0000 Z-0.7500 I28.0085 J-30.2787 F1080.00
G1 X42.0623 Y433.0000 Z-0.7500 F1080.00
G3 X28.4965 Y463.0195 Z-0.7500 I-41.2735 J-0.5764 F1080.00
G3 X30.7926 Y471.6252 Z-0.7500 I-72.1279 J23.8531 F1080.00
G3 X32.0930 Y497.3413 Z-0.7500 I-82.4409 J17.0597 F1080.00
G3 X27.1629 Y516.3127 Z-0.7500 I-61.3000 J-5.8035 F1080.00
G3 X10.7486 Y537.0203 Z-0.7500 I-46.9433 J-20.3512 F1080.00
G1 X38.2679 Y537.0203 Z-0.7500 F1080.00
G1 X48.9939 Y518.4424 Z-0.7500 F1080.00
G0 X48.9939 Y518.4424 Z5.0000
G0 X12.8590 Y537.0203 Z5.0000
G0 X12.8590 Y537.0203 Z2.2500
G1 X12.8590 Y537.0203 Z-0.7500 F1080.00
G1 X11.9412 Y536.1025 Z-0.7500 F1080.00
G3 X10.7486 Y537.0203 Z-0.7500 I-13.0274 J-15.6949 F1080.00
G1 X12.8590 Y537.0203 Z-0.7500 F1080.00
G1 X19.2230 Y537.0203 Z-0.7500 F1080.00
G1 X15.3535 Y533.1508 Z-0.7500 F1080.00
G2 X18.4891 Y529.9225 Z-0.7500 I-33.0378 J-35.2255 F1080.00
G1 X25.5869 Y537.0203 Z-0.7500 F1080.00
G1 X31.9509 Y537.0203 Z-0.7500 F1080.00
G1 X21.3341 Y526.4035 Z-0.7500 F1080.00
G2 X23.8951 Y522.6006 Z-0.7500 I-35.1702 J-26.4482 F1080.00
G1 X38.2851 Y536.9906 Z-0.7500 F1080.00
G1 X40.6145 Y532.9560 Z-0.7500 F1080.00
G1 X26.1488 Y518.4903 Z-0.7500 F1080.00
G2 X28.0939 Y514.0714 Z-0.7500 I-50.9018 J-25.0432 F1080.00
G1 X42.9439 Y528.9214 Z-0.7500 F1080.00
G1 X45.2732 Y524.8868 Z-0.7500 F1080.00
G1 X29.7299 Y509.3435 Z-0.7500 F1080.00
G2 X31.0281 Y504.2777 Z-0.7500 I-49.0460 J-15.2681 F1080.00
G1 X47.6026 Y520.8522 Z-0.7500 F1080.00
G1 X49.9320 Y516.8176 Z-0.7500 F1080.00
G1 X31.9183 Y498.8040 Z-0.7500 F1080.00
G2 X32.4325 Y492.9542 Z-0.7500 I-70.0533 J-9.1045 F1080.00
G1 X52.2613 Y512.7830 Z-0.7500 F1080.00
G1 X54.5907 Y508.7484 Z-0.7500 F1080.00
G1 X32.5114 Y486.6691 Z-0.7500 F1080.00
G2 X32.0601 Y479.8539 Z-0.7500 I-74.1447 J1.4867 F1080.00
G1 X56.9201 Y504.7139 Z-0.7500 F1080.00
G1 X59.2495 Y500.6793 Z-0.7500 F1080.00
G1 X30.9340 Y472.3638 Z-0.7500 F1080.00
G2 X28.7488 Y463.8147 Z-0.7500 I-71.2962 J13.6693 F1080.00
G1 X61.5788 Y496.6447 Z-0.7500 F1080.00
G1 X63.9082 Y492.6101 Z-0.7500 F1080.00
G1 X31.4014 Y460.1033 Z-0.7500 F1080.00
G2 X34.2480 Y456.5860 Z-0.7500 I-26.5593 J-24.4057 F1080.00
G1 X66.2376 Y488.5755 Z-0.7500 F1080.00
G1 X68.5669 Y484.5409 Z-0.7500 F1080.00
G1 X36.7321 Y452.7060 Z-0.7500 F1080.00
G2 X38.8273 Y448.4373 Z-0.7500 I-32.5932 J-18.6460 F1080.00
G1 X70.8963 Y480.5063 Z-0.7500 F1080.00
G1 X73.2257 Y476.4717 Z-0.7500 F1080.00
G1 X40.4805 Y443.7266 Z-0.7500 F1080.00
G2 X41.6130 Y438.4951 Z-0.7500 I-35.8880 J-10.5073 F1080.00
G1 X75.5551 Y472.4371 Z-0.7500 F1080.00
G1 X77.8844 Y468.4026 Z-0.7500 F1080.00
G1 X42.4819 Y433.0000 Z-0.7500 F1080.00
G1 X48.8458 Y433.0000 Z-0.7500 F1080.00
G1 X80.2138 Y464.3680 Z-0.7500 F1080.00
G1 X81.1718 Y462.7087 Z-0.7500 F1080.00
G3 X71.5798 Y449.3700 Z-0.7500 I27.7726 J-30.0898 F1080.00
G1 X55.2098 Y433.0000 Z-0.7500 F1080.00
G1 X61.5738 Y433.0000 Z-0.7500 F1080.00
G1 X68.6569 Y440.0832 Z-0.7500 F1080.00
G3 X67.9377 Y433.0000 Z-0.7500 I38.4399 J-7.4812 F1080.00
G1 X67.9377 Y433.0000 Z-1.5000 F1080.00
G2 X68.6569 Y440.0832 Z-1.5000 I39.1591 J-0.3980 F1080.00
G1 X61.5738 Y433.0000 Z-1.5000 F1080.00
G1 X55.2098 Y433.0000 Z-1.5000 F1080.00
G1 X71.5798 Y449.3700 Z-1.5000 F1080.00
G2 X81.1718 Y462.7087 Z-1.5000 I37.3646 J-16.7511 F1080.00
G1 X80.2138 Y464.3680 Z-1.5000 F1080.00
G1 X48.8458 Y433.0000 Z-1.5000 F1080.00
G1 X42.4819 Y433.0000 Z-1.5000 F1080.00
G1 X77.8844 Y468.4026 Z-1.5000 F1080.00
G1 X75.5551 Y472.4371 Z-1.5000 F1080.00
G1 X41.6130 Y438.4951 Z-1.5000 F1080.00
G3 X40.4805 Y443.7266 Z-1.5000 I-37.0205 J-5.2759 F1080.00
G1 X73.2257 Y476.4717 Z-1.5000 F1080.00
G1 X70.8963 Y480.5063 Z-1.5000 F1080.00
G1 X38.8273 Y448.4373 Z-1.5000 F1080.00
G3 X36.7321 Y452.7060 Z-1.5000 I-34.6884 J-14.3773 F1080.00
G1 X68.5669 Y484.5409 Z-1.5000 F1080.00
G1 X66.2376 Y488.5755 Z-1.5000 F1080.00
G1 X34.2480 Y456.5860 Z-1.5000 F1080.00
G3 X31.4014 Y460.1033 Z-1.5000 I-29.4060 J-20.8884 F1080.00
G1 X63.9082 Y492.6101 Z-1.5000 F1080.00
G1 X61.5788 Y496.6447 Z-1.5000 F1080.00
G1 X28.7488 Y463.8147 Z-1.5000 F1080.00
G3 X30.9340 Y472.3638 Z-1.5000 I-69.1111 J22.2184 F1080.00
G1 X59.2495 Y500.6793 Z-1.5000 F1080.00
G1 X56.9201 Y504.7139 Z-1.5000 F1080.00
G1 X32.0601 Y479.8539 Z-1.5000 F1080.00
G3 X32.5114 Y486.6691 Z-1.5000 I-73.6934 J8.3019 F1080.00
G1 X54.5907 Y508.7484 Z-1.5000 F1080.00
G1 X52.2613 Y512.7830 Z-1.5000 F1080.00
G1 X32.4325 Y492.9542 Z-1.5000 F1080.00
G3 X31.9183 Y498.8040 Z-1.5000 I-70.5674 J-3.2546 F1080.00
G1 X49.9320 Y516.8176 Z-1.5000 F1080.00
G1 X47.6026 Y520.8522 Z-1.5000 F1080.00
G1 X31.0281 Y504.2777 Z-1.5000 F1080.00
G3 X29.7299 Y509.3435 Z-1.5000 I-50.3442 J-10.2023 F1080.00
G1 X45.2732 Y524.8868 Z-1.5000 F1080.00
G1 X42.9439 Y528.9214 Z-1.5000 F1080.00
G1 X28.0939 Y514.0714 Z-1.5000 F1080.00
G3 X26.1488 Y518.4903 Z-1.5000 I-52.8468 J-20.6244 F1080.00
G1 X40.6145 Y532.9560 Z-1.5000 F1080.00
G1 X38.2851 Y536.9906 Z-1.5000 F1080.00
G1 X23.8951 Y522.6006 Z-1.5000 F1080.00
G3 X21.3341 Y526.4035 Z-1.5000 I-37.7312 J-22.6452 F1080.00
G1 X31.9509 Y537.0203 Z-1.5000 F1080.00
G1 X25.5869 Y537.0203 Z-1.5000 F1080.00
G1 X18.4891 Y529.9225 Z-1.5000 F1080.00
G3 X15.3535 Y533.1508 Z-1.5000 I-36.1734 J-31.9971 F1080.00
G1 X19.2230 Y537.0203 Z-1.5000 F1080.00
G1 X12.8590 Y537.0203 Z-1.5000 F1080.00
G1 X10.7486 Y537.0203 Z-1.5000 F1080.00
G2 X11.9412 Y536.1025 Z-1.5000 I-11.8347 J-16.6127 F1080.00
G1 X12.8590 Y537.0203 Z-1.5000 F1080.00
G1 X12.8590 Y537.0203 Z-1.5000 F1080.00
G1 X38.2679 Y537.0203 Z-1.5000 F1080.00
G1 X81.1718 Y462.7087 Z-1.5000 F1080.00
G3 X67.9377 Y433.0000 Z-1.5000 I28.0085 J-30.2787 F1080.00
G1 X42.0623 Y433.0000 Z-1.5000 F1080.00
G3 X28.4965 Y463.0195 Z-1.5000 I-41.2735 J-0.5764 F1080.00
G3 X30.7926 Y471.6252 Z-1.5000 I-72.1279 J23.8531 F1080.00
G3 X32.0930 Y497.3413 Z-1.5000 I-82.4409 J17.0597 F1080.00
G3 X27.1629 Y516.3127 Z-1.5000 I-61.3000 J-5.8035 F1080.00
G3 X10.7486 Y537.0203 Z-1.5000 I-46.9433 J-20.3512 F1080.00
G1 X12.8590 Y537.0203 Z-1.5000 F1080.00
G1 X12.8590 Y537.0203 Z-2.2500 F1080.00
G1 X38.2679 Y537.0203 Z-2.2500 F1080.00
G1 X81.1718 Y462.7087 Z-2.2500 F1080.00
G3 X67.9377 Y433.0000 Z-2.2500 I28.0085 J-30.2787 F1080.00
G1 X42.0623 Y433.0000 Z-2.2500 F1080.00
G3 X28.4965 Y463.0195 Z-2.2500 I-41.2735 J-0.5764 F1080.00
G3 X30.7926 Y471.6252 Z-2.2500 I-72.1279 J23.8531 F1080.00
G3 X32.0930 Y497.3413 Z-2.2500 I-82.4409 J17.0597 F1080.00
G3 X27.1629 Y516.3127 Z-2.2500 I-61.3000 J-5.8035 F1080.00
G3 X10.7486 Y537.0203 Z-2.2500 I-46.9433 J-20.3512 F1080.00
G1 X12.8590 Y537.0203 Z-2.2500 F1080.00
G1 X12.8590 Y537.0203 Z-2.2500 F1080.00
G1 X11.9412 Y536.1025 Z-2.2500 F1080.00
G3 X10.7486 Y537.0203 Z-2.2500 I-13.0274 J-15.6949 F1080.00
G1 X12.8590 Y537.0203 Z-2.2500 F1080.00
G1 X19.2230 Y537.0203 Z-2.2500 F1080.00
G1 X15.3535 Y533.1508 Z-2.2500 F1080.00
G2 X18.4891 Y529.9225 Z-2.2500 I-33.0378 J-35.2255 F1080.00
G1 X25.5869 Y537.0203 Z-2.2500 F1080.00
G1 X31.9509 Y537.0203 Z-2.2500 F1080.00
G1 X21.3341 Y526.4035 Z-2.2500 F1080.00
G2 X23.8951 Y522.6006 Z-2.2500 I-35.1702 J-26.4482 F1080.00
G1 X38.2851 Y536.9906 Z-2.2500 F1080.00
G1 X40.6145 Y532.9560 Z-2.2500 F1080.00
G1 X26.1488 Y518.4903 Z-2.2500 F1080.00
G2 X28.0939 Y514.0714 Z-2.2500 I-50.9018 J-25.0432 F1080.00
G1 X42.9439 Y528.9214 Z-2.2500 F1080.00
G1 X45.2732 Y524.8868 Z-2.2500 F1080.00
G1 X29.7299 Y509.3435 Z-2.2500 F1080.00
G2 X31.0281 Y504.2777 Z-2.2500 I-49.0460 J-15.2681 F1080.00
G1 X47.6026 Y520.8522 Z-2.2500 F1080.00
G1 X49.9320 Y516.8176 Z-2.2500 F1080.00
G1 X31.9183 Y498.8040 Z-2.2500 F1080.00
G2 X32.4325 Y492.9542 Z-2.2500 I-70.0533 J-9.1045 F1080.00
G1 X52.2613 Y512.7830 Z-2.2500 F1080.00
G1 X54.5907 Y508.7484 Z-2.2500 F1080.00
G1 X32.5114 Y486.6691 Z-2.2500 F1080.00
G2 X32.0601 Y479.8539 Z-2.2500 I-74.1447 J1.4867 F1080.00
G1 X56.9201 Y504.7139 Z-2.2500 F1080.00
G1 X59.2495 Y500.6793 Z-2.2500 F1080.00
G1 X30.9340 Y472.3638 Z-2.2500 F1080.00
G2 X28.7488 Y463.8147 Z-2.2500 I-71.2962 J13.6693 F1080.00
G1 X61.5788 Y496.6447 Z-2.2500 F1080.00
G1 X63.9082 Y492.6101 Z-2.2500 F1080.00
G1 X31.4014 Y460.1033 Z-2.2500 F1080.00
G2 X34.2480 Y456.5860 Z-2.2500 I-26.5593 J-24.4057 F1080.00
G1 X66.2376 Y488.5755 Z-2.2500 F1080.00
G1 X68.5669 Y484.5409 Z-2.2500 F1080.00
G1 X36.7321 Y452.7060 Z-2.2500 F1080.00
G2 X38.8273 Y448.4373 Z-2.2500 I-32.5932 J-18.6460 F1080.00
G1 X70.8963 Y480.5063 Z-2.2500 F1080.00
G1 X73.2257 Y476.4717 Z-2.2500 F1080.00
G1 X40.4805 Y443.7266 Z-2.2500 F1080.00
G2 X41.6130 Y438.4951 Z-2.2500 I-35.8880 J-10.5073 F1080.00
G1 X75.5551 Y472.4371 Z-2.2500 F1080.00
G1 X77.8844 Y468.4026 Z-2.2500 F1080.00
G1 X42.4819 Y433.0000 Z-2.2500 F1080.00
G1 X48.8458 Y433.0000 Z-2.2500 F1080.00
G1 X80.2138 Y464.3680 Z-2.2500 F1080.00
G1 X81.1718 Y462.7087 Z-2.2500 F1080.00
G3 X71.5798 Y449.3700 Z-2.2500 I27.7726 J-30.0898 F1080.00
G1 X55.2098 Y433.0000 Z-2.2500 F1080.00
G1 X61.5738 Y433.0000 Z-2.2500 F1080.00
G1 X68.6569 Y440.0832 Z-2.2500 F1080.00
G3 X67.9377 Y433.0000 Z-2.2500 I38.4399 J-7.4812 F1080.00
G1 X67.9377 Y433.0000 Z-3.0000 F1080.00
G2 X68.6569 Y440.0832 Z-3.0000 I39.1591 J-0.3980 F1080.00
G1 X61.5738 Y433.0000 Z-3.0000 F1080.00
G1 X55.2098 Y433.0000 Z-3.0000 F1080.00
G1 X71.5798 Y449.3700 Z-3.0000 F1080.00
G2 X81.1718 Y462.7087 Z-3.0000 I37.3646 J-16.7511 F1080.00
G1 X80.2138 Y464.3680 Z-3.0000 F1080.00
G1 X48.8458 Y433.0000 Z-3.0000 F1080.00
G1 X42.4819 Y433.0000 Z-3.0000 F1080.00
G1 X77.8844 Y468.4026 Z-3.0000 F1080.00
G1 X75.5551 Y472.4371 Z-3.0000 F1080.00
G1 X41.6130 Y438.4951 Z-3.0000 F1080.00
G3 X40.4805 Y443.7266 Z-3.0000 I-37.0205 J-5.2759 F1080.00
G1 X73.2257 Y476.4717 Z-3.0000 F1080.00
G1 X70.8963 Y480.5063 Z-3.0000 F1080.00
G1 X38.8273 Y448.4373 Z-3.0000 F1080.00
G3 X36.7321 Y452.7060 Z-3.0000 I-34.6884 J-14.3773 F1080.00
G1 X68.5669 Y484.5409 Z-3.0000 F1080.00
G1 X66.2376 Y488.5755 Z-3.0000 F1080.00
G1 X34.2480 Y456.5860 Z-3.0000 F1080.00
G3 X31.4014 Y460.1033 Z-3.0000 I-29.4060 J-20.8884 F1080.00
G1 X63.9082 Y492.6101 Z-3.0000 F1080.00
G1 X61.5788 Y496.6447 Z-3.0000 F1080.00
G1 X28.7488 Y463.8147 Z-3.0000 F1080.00
G3 X30.9340 Y472.3638 Z-3.0000 I-69.1111 J22.2184 F1080.00
G1 X59.2495 Y500.6793 Z-3.0000 F1080.00
G1 X56.9201 Y504.7139 Z-3.0000 F1080.00
G1 X32.0601 Y479.8539 Z-3.0000 F1080.00
G3 X32.5114 Y486.6691 Z-3.0000 I-73.6934 J8.3019 F1080.00
G1 X54.5907 Y508.7484 Z-3.0000 F1080.00
G1 X52.2613 Y512.7830 Z-3.0000 F1080.00
G1 X32.4325 Y492.9542 Z-3.0000 F1080.00
G3 X31.9183 Y498.8040 Z-3.0000 I-70.5674 J-3.2546 F1080.00
G1 X49.9320 Y516.8176 Z-3.0000 F1080.00
G1 X47.6026 Y520.8522 Z-3.0000 F1080.00
G1 X31.0281 Y504.2777 Z-3.0000 F1080.00
G3 X29.7299 Y509.3435 Z-3.0000 I-50.3442 J-10.2023 F1080.00
G1 X45.2732 Y524.8868 Z-3.0000 F1080.00
G1 X42.9439 Y528.9214 Z-3.0000 F1080.00
G1 X28.0939 Y514.0714 Z-3.0000 F1080.00
G3 X26.1488 Y518.4903 Z-3.0000 I-52.8468 J-20.6244 F1080.00
G1 X40.6145 Y532.9560 Z-3.0000 F1080.00
G1 X38.2851 Y536.9906 Z-3.0000 F1080.00
G1 X23.8951 Y522.6006 Z-3.0000 F1080.00
G3 X21.3341 Y526.4035 Z-3.0000 I-37.7312 J-22.6452 F1080.00
G1 X31.9509 Y537.0203 Z-3.0000 F1080.00
G1 X25.5869 Y537.0203 Z-3.0000 F1080.00
G1 X18.4891 Y529.9225 Z-3.0000 F1080.00
G3 X15.3535 Y533.1508 Z-3.0000 I-36.1734 J-31.9971 F1080.00
G1 X19.2230 Y537.0203 Z-3.0000 F1080.00
G1 X12.8590 Y537.0203 Z-3.0000 F1080.00
G1 X10.7486 Y537.0203 Z-3.0000 F1080.00
G2 X11.9412 Y536.1025 Z-3.0000 I-11.8347 J-16.6127 F1080.00
G1 X12.8590 Y537.0203 Z-3.0000 F1080.00
G1 X12.8590 Y537.0203 Z-3.0000 F1080.00
G1 X38.2679 Y537.0203 Z-3.0000 F1080.00
G1 X81.1718 Y462.7087 Z-3.0000 F1080.00
G3 X67.9377 Y433.0000 Z-3.0000 I28.0085 J-30.2787 F1080.00
G1 X42.0623 Y433.0000 Z-3.0000 F1080.00
G3 X28.4965 Y463.0195 Z-3.0000 I-41.2735 J-0.5764 F1080.00
G3 X30.7926 Y471.6252 Z-3.0000 I-72.1279 J23.8531 F1080.00
G3 X32.0930 Y497.3413 Z-3.0000 I-82.4409 J17.0597 F1080.00
G3 X27.1629 Y516.3127 Z-3.0000 I-61.3000 J-5.8035 F1080.00
G3 X10.7486 Y537.0203 Z-3.0000 I-46.9433 J-20.3512 F1080.00
G1 X12.8590 Y537.0203 Z-3.0000 F1080.00
G1 X12.8590 Y537.0203 Z-3.7500 F1080.00
G1 X38.2679 Y537.0203 Z-3.7500 F1080.00
G1 X81.1718 Y462.7087 Z-3.7500 F1080.00
G3 X67.9377 Y433.0000 Z-3.7500 I28.0085 J-30.2787 F1080.00
G1 X42.0623 Y433.0000 Z-3.7500 F1080.00
G3 X28.4965 Y463.0195 Z-3.7500 I-41.2735 J-0.5764 F1080.00
G3 X30.7926 Y471.6252 Z-3.7500 I-72.1279 J23.8531 F1080.00
G3 X32.0930 Y497.3413 Z-3.7500 I-82.4409 J17.0597 F1080.00
G3 X27.1629 Y516.3127 Z-3.7500 I-61.3000 J-5.8035 F1080.00
G3 X10.7486 Y537.0203 Z-3.7500 I-46.9433 J-20.3512 F1080.00
G1 X12.8590 Y537.0203 Z-3.7500 F1080.00
G1 X12.8590 Y537.0203 Z-3.7500 F1080.00
G1 X11.9412 Y536.1025 Z-3.7500 F1080.00
G3 X10.7486 Y537.0203 Z-3.7500 I-13.0274 J-15.6949 F1080.00
G1 X12.8590 Y537.0203 Z-3.7500 F1080.00
G1 X19.2230 Y537.0203 Z-3.7500 F1080.00
G1 X15.3535 Y533.1508 Z-3.7500 F1080.00
G2 X18.4891 Y529.9225 Z-3.7500 I-33.0378 J-35.2255 F1080.00
G1 X25.5869 Y537.0203 Z-3.7500 F1080.00
G1 X31.9509 Y537.0203 Z-3.7500 F1080.00
G1 X21.3341 Y526.4035 Z-3.7500 F1080.00
G2 X23.8951 Y522.6006 Z-3.7500 I-35.1702 J-26.4482 F1080.00
G1 X38.2851 Y536.9906 Z-3.7500 F1080.00
G1 X40.6145 Y532.9560 Z-3.7500 F1080.00
G1 X26.1488 Y518.4903 Z-3.7500 F1080.00
G2 X28.0939 Y514.0714 Z-3.7500 I-50.9018 J-25.0432 F1080.00
G1 X42.9439 Y528.9214 Z-3.7500 F1080.00
G1 X45.2732 Y524.8868 Z-3.7500 F1080.00
G1 X29.7299 Y509.3435 Z-3.7500 F1080.00
G2 X31.0281 Y504.2777 Z-3.7500 I-49.0460 J-15.2681 F1080.00
G1 X47.6026 Y520.8522 Z-3.7500 F1080.00
G1 X49.9320 Y516.8176 Z-3.7500 F1080.00
G1 X31.9183 Y498.8040 Z-3.7500 F1080.00
G2 X32.4325 Y492.9542 Z-3.7500 I-70.0533 J-9.1045 F1080.00
G1 X52.2613 Y512.7830 Z-3.7500 F1080.00
G1 X54.5907 Y508.7484 Z-3.7500 F1080.00
G1 X32.5114 Y486.6691 Z-3.7500 F1080.00
G2 X32.0601 Y479.8539 Z-3.7500 I-74.1447 J1.4867 F1080.00
G1 X56.9201 Y504.7139 Z-3.7500 F1080.00
G1 X59.2495 Y500.6793 Z-3.7500 F1080.00
G1 X30.9340 Y472.3638 Z-3.7500 F1080.00
G2 X28.7488 Y463.8147 Z-3.7500 I-71.2962 J13.6693 F1080.00
G1 X61.5788 Y496.6447 Z-3.7500 F1080.00
G1 X63.9082 Y492.6101 Z-3.7500 F1080.00
G1 X31.4014 Y460.1033 Z-3.7500 F1080.00
G2 X34.2480 Y456.5860 Z-3.7500 I-26.5593 J-24.4057 F1080.00
G1 X66.2376 Y488.5755 Z-3.7500 F1080.00
G1 X68.5669 Y484.5409 Z-3.7500 F1080.00
G1 X36.7321 Y452.7060 Z-3.7500 F1080.00
G2 X38.8273 Y448.4373 Z-3.7500 I-32.5932 J-18.6460 F1080.00
G1 X70.8963 Y480.5063 Z-3.7500 F1080.00
G1 X73.2257 Y476.4717 Z-3.7500 F1080.00
G1 X40.4805 Y443.7266 Z-3.7500 F1080.00
G2 X41.6130 Y438.4951 Z-3.7500 I-35.8880 J-10.5073 F1080.00
G1 X75.5551 Y472.4371 Z-3.7500 F1080.00
G1 X77.8844 Y468.4026 Z-3.7500 F1080.00
G1 X42.4819 Y433.0000 Z-3.7500 F1080.00
G1 X48.8458 Y433.0000 Z-3.7500 F1080.00
G1 X80.2138 Y464.3680 Z-3.7500 F1080.00
G1 X81.1718 Y462.7087 Z-3.7500 F1080.00
G3 X71.5798 Y449.3700 Z-3.7500 I27.7726 J-30.0898 F1080.00
G1 X55.2098 Y433.0000 Z-3.7500 F1080.00
G1 X61.5738 Y433.0000 Z-3.7500 F1080.00
G1 X68.6569 Y440.0832 Z-3.7500 F1080.00
G3 X67.9377 Y433.0000 Z-3.7500 I38.4399 J-7.4812 F1080.00
G1 X67.9377 Y433.0000 Z-4.5000 F1080.00
G2 X68.6569 Y440.0832 Z-4.5000 I39.1591 J-0.3980 F1080.00
G1 X61.5738 Y433.0000 Z-4.5000 F1080.00
G1 X55.2098 Y433.0000 Z-4.5000 F1080.00
G1 X71.5798 Y449.3700 Z-4.5000 F1080.00
G2 X81.1718 Y462.7087 Z-4.5000 I37.3646 J-16.7511 F1080.00
G1 X80.2138 Y464.3680 Z-4.5000 F1080.00
G1 X48.8458 Y433.0000 Z-4.5000 F1080.00
G1 X42.4819 Y433.0000 Z-4.5000 F1080.00
G1 X77.8844 Y468.4026 Z-4.5000 F1080.00
G1 X75.5551 Y472.4371 Z-4.5000 F1080.00
G1 X41.6130 Y438.4951 Z-4.5000 F1080.00
G3 X40.4805 Y443.7266 Z-4.5000 I-37.0205 J-5.2759 F1080.00
G1 X73.2257 Y476.4717 Z-4.5000 F1080.00
G1 X70.8963 Y480.5063 Z-4.5000 F1080.00
G1 X38.8273 Y448.4373 Z-4.5000 F1080.00
G3 X36.7321 Y452.7060 Z-4.5000 I-34.6884 J-14.3773 F1080.00
G1 X68.5669 Y484.5409 Z-4.5000 F1080.00
G1 X66.2376 Y488.5755 Z-4.5000 F1080.00
G1 X34.2480 Y456.5860 Z-4.5000 F1080.00
G3 X31.4014 Y460.1033 Z-4.5000 I-29.4060 J-20.8884 F1080.00
G1 X63.9082 Y492.6101 Z-4.5000 F1080.00
G1 X61.5788 Y496.6447 Z-4.5000 F1080.00
G1 X28.7488 Y463.8147 Z-4.5000 F1080.00
G3 X30.9340 Y472.3638 Z-4.5000 I-69.1111 J22.2184 F1080.00
G1 X59.2495 Y500.6793 Z-4.5000 F1080.00
G1 X56.9201 Y504.7139 Z-4.5000 F1080.00
G1 X32.0601 Y479.8539 Z-4.5000 F1080.00
G3 X32.5114 Y486.6691 Z-4.5000 I-73.6934 J8.3019 F1080.00
G1 X54.5907 Y508.7484 Z-4.5000 F1080.00
G1 X52.2613 Y512.7830 Z-4.5000 F1080.00
G1 X32.4325 Y492.9542 Z-4.5000 F1080.00
G3 X31.9183 Y498.8040 Z-4.5000 I-70.5674 J-3.2546 F1080.00
G1 X49.9320 Y516.8176 Z-4.5000 F1080.00
G1 X47.6026 Y520.8522 Z-4.5000 F1080.00
G1 X31.0281 Y504.2777 Z-4.5000 F1080.00
G3 X29.7299 Y509.3435 Z-4.5000 I-50.3442 J-10.2023 F1080.00
G1 X45.2732 Y524.8868 Z-4.5000 F1080.00
G1 X42.9439 Y528.9214 Z-4.5000 F1080.00
G1 X28.0939 Y514.0714 Z-4.5000 F1080.00
G3 X26.1488 Y518.4903 Z-4.5000 I-52.8468 J-20.6244 F1080.00
G1 X40.6145 Y532.9560 Z-4.5000 F1080.00
G1 X38.2851 Y536.9906 Z-4.5000 F1080.00
G1 X23.8951 Y522.6006 Z-4.5000 F1080.00
G3 X21.3341 Y526.4035 Z-4.5000 I-37.7312 J-22.6452 F1080.00
G1 X31.9509 Y537.0203 Z-4.5000 F1080.00
G1 X25.5869 Y537.0203 Z-4.5000 F1080.00
G1 X18.4891 Y529.9225 Z-4.5000 F1080.00
G3 X15.3535 Y533.1508 Z-4.5000 I-36.1734 J-31.9971 F1080.00
G1 X19.2230 Y537.0203 Z-4.5000 F1080.00
G1 X12.8590 Y537.0203 Z-4.5000 F1080.00
G1 X10.7486 Y537.0203 Z-4.5000 F1080.00
G2 X11.9412 Y536.1025 Z-4.5000 I-11.8347 J-16.6127 F1080.00
G1 X12.8590 Y537.0203 Z-4.5000 F1080.00
G1 X12.8590 Y537.0203 Z-4.5000 F1080.00
G1 X38.2679 Y537.0203 Z-4.5000 F1080.00
G1 X81.1718 Y462.7087 Z-4.5000 F1080.00
G3 X67.9377 Y433.0000 Z-4.5000 I28.0085 J-30.2787 F1080.00
G1 X42.0623 Y433.0000 Z-4.5000 F1080.00
G3 X28.4965 Y463.0195 Z-4.5000 I-41.2735 J-0.5764 F1080.00
G3 X30.7926 Y471.6252 Z-4.5000 I-72.1279 J23.8531 F1080.00
G3 X32.0930 Y497.3413 Z-4.5000 I-82.4409 J17.0597 F1080.00
G3 X27.1629 Y516.3127 Z-4.5000 I-61.3000 J-5.8035 F1080.00
G3 X10.7486 Y537.0203 Z-4.5000 I-46.9433 J-20.3512 F1080.00
G1 X12.8590 Y537.0203 Z-4.5000 F1080.00
G0 Z5.0000
(finish operation: MillFace)
(begin operation: Helix)
(Path: Helix)
(Helix)
(helix cut operation)
G0 Z5.0000
G0 X54.2586 Y496.5755
G0 Z3.0000
G1 Z0.0000 F1080.00
G2 X48.3461 Y496.5755 Z-0.3654 I-2.9563 J0.0000 F1080.00
G2 X54.2586 Y496.5755 Z-0.7308 I2.9563 J0.0000 F1080.00
G2 X48.3461 Y496.5755 Z-1.0962 I-2.9563 J0.0000 F1080.00
G2 X54.2586 Y496.5755 Z-1.4615 I2.9563 J0.0000 F1080.00
G2 X48.3461 Y496.5755 Z-1.8269 I-2.9563 J0.0000 F1080.00
G2 X54.2586 Y496.5755 Z-2.1923 I2.9563 J0.0000 F1080.00
G2 X48.3461 Y496.5755 Z-2.5577 I-2.9563 J0.0000 F1080.00
G2 X54.2586 Y496.5755 Z-2.9231 I2.9563 J0.0000 F1080.00
G2 X48.3461 Y496.5755 Z-3.2885 I-2.9563 J0.0000 F1080.00
G2 X54.2586 Y496.5755 Z-3.6538 I2.9563 J0.0000 F1080.00
G2 X48.3461 Y496.5755 Z-4.0192 I-2.9563 J0.0000 F1080.00
G2 X54.2586 Y496.5755 Z-4.3846 I2.9563 J0.0000 F1080.00
G2 X48.3461 Y496.5755 Z-4.7500 I-2.9563 J0.0000 F1080.00
G2 X54.2586 Y496.5755 Z-5.1154 I2.9563 J0.0000 F1080.00
G2 X48.3461 Y496.5755 Z-5.4808 I-2.9563 J0.0000 F1080.00
G2 X54.2586 Y496.5755 Z-5.8462 I2.9563 J0.0000 F1080.00
G2 X48.3461 Y496.5755 Z-6.2115 I-2.9563 J0.0000 F1080.00
G2 X54.2586 Y496.5755 Z-6.5769 I2.9563 J0.0000 F1080.00
G2 X48.3461 Y496.5755 Z-6.9423 I-2.9563 J0.0000 F1080.00
G2 X54.2586 Y496.5755 Z-7.3077 I2.9563 J0.0000 F1080.00
G2 X48.3461 Y496.5755 Z-7.6731 I-2.9563 J0.0000 F1080.00
G2 X54.2586 Y496.5755 Z-8.0385 I2.9563 J0.0000 F1080.00
G2 X48.3461 Y496.5755 Z-8.4038 I-2.9563 J0.0000 F1080.00
G2 X54.2586 Y496.5755 Z-8.7692 I2.9563 J0.0000 F1080.00
G2 X48.3461 Y496.5755 Z-9.1346 I-2.9563 J0.0000 F1080.00
G2 X54.2586 Y496.5755 Z-9.5000 I2.9563 J0.0000 F1080.00
G2 X48.3461 Y496.5755 Z-9.8654 I-2.9563 J0.0000 F1080.00
G2 X54.2586 Y496.5755 Z-10.2308 I2.9563 J0.0000 F1080.00
G2 X48.3461 Y496.5755 Z-10.5962 I-2.9563 J0.0000 F1080.00
G2 X54.2586 Y496.5755 Z-10.9615 I2.9563 J0.0000 F1080.00
G2 X48.3461 Y496.5755 Z-11.3269 I-2.9563 J0.0000 F1080.00
G2 X54.2586 Y496.5755 Z-11.6923 I2.9563 J0.0000 F1080.00
G2 X48.3461 Y496.5755 Z-12.0577 I-2.9563 J0.0000 F1080.00
G2 X54.2586 Y496.5755 Z-12.4231 I2.9563 J0.0000 F1080.00
G2 X48.3461 Y496.5755 Z-12.7885 I-2.9563 J0.0000 F1080.00
G2 X54.2586 Y496.5755 Z-13.1538 I2.9563 J0.0000 F1080.00
G2 X48.3461 Y496.5755 Z-13.5192 I-2.9563 J0.0000 F1080.00
G2 X54.2586 Y496.5755 Z-13.8846 I2.9563 J0.0000 F1080.00
G2 X48.3461 Y496.5755 Z-14.2500 I-2.9563 J0.0000 F1080.00
G2 X54.2586 Y496.5755 Z-14.6154 I2.9563 J0.0000 F1080.00
G2 X48.3461 Y496.5755 Z-14.9808 I-2.9563 J0.0000 F1080.00
G2 X54.2586 Y496.5755 Z-15.3462 I2.9563 J0.0000 F1080.00
G2 X48.3461 Y496.5755 Z-15.7115 I-2.9563 J0.0000 F1080.00
G2 X54.2586 Y496.5755 Z-16.0769 I2.9563 J0.0000 F1080.00
G2 X48.3461 Y496.5755 Z-16.4423 I-2.9563 J0.0000 F1080.00
G2 X54.2586 Y496.5755 Z-16.8077 I2.9563 J0.0000 F1080.00
G2 X48.3461 Y496.5755 Z-17.1731 I-2.9563 J0.0000 F1080.00
G2 X54.2586 Y496.5755 Z-17.5385 I2.9563 J0.0000 F1080.00
G2 X48.3461 Y496.5755 Z-17.9038 I-2.9563 J0.0000 F1080.00
G2 X54.2586 Y496.5755 Z-18.2692 I2.9563 J0.0000 F1080.00
G2 X48.3461 Y496.5755 Z-18.6346 I-2.9563 J0.0000 F1080.00
G2 X54.2586 Y496.5755 Z-19.0000 I2.9563 J0.0000 F1080.00
G2 X48.3461 Y496.5755 Z-19.0000 I-2.9563 J0.0000 F1080.00
G2 X54.2586 Y496.5755 Z-19.0000 I2.9563 J0.0000 F1080.00
G0 Z3.0000
G0 X68.9167 Y470.4003
G0 Z3.0000
G1 Z0.0000 F1080.00
G2 X63.0042 Y470.4003 Z-0.3654 I-2.9563 J0.0000 F1080.00
G2 X68.9167 Y470.4003 Z-0.7308 I2.9563 J0.0000 F1080.00
G2 X63.0042 Y470.4003 Z-1.0962 I-2.9563 J0.0000 F1080.00
G2 X68.9167 Y470.4003 Z-1.4615 I2.9563 J0.0000 F1080.00
G2 X63.0042 Y470.4003 Z-1.8269 I-2.9563 J0.0000 F1080.00
G2 X68.9167 Y470.4003 Z-2.1923 I2.9563 J0.0000 F1080.00
G2 X63.0042 Y470.4003 Z-2.5577 I-2.9563 J0.0000 F1080.00
G2 X68.9167 Y470.4003 Z-2.9231 I2.9563 J0.0000 F1080.00
G2 X63.0042 Y470.4003 Z-3.2885 I-2.9563 J0.0000 F1080.00
G2 X68.9167 Y470.4003 Z-3.6538 I2.9563 J0.0000 F1080.00
G2 X63.0042 Y470.4003 Z-4.0192 I-2.9563 J0.0000 F1080.00
G2 X68.9167 Y470.4003 Z-4.3846 I2.9563 J0.0000 F1080.00
G2 X63.0042 Y470.4003 Z-4.7500 I-2.9563 J0.0000 F1080.00
G2 X68.9167 Y470.4003 Z-5.1154 I2.9563 J0.0000 F1080.00
G2 X63.0042 Y470.4003 Z-5.4808 I-2.9563 J0.0000 F1080.00
G2 X68.9167 Y470.4003 Z-5.8462 I2.9563 J0.0000 F1080.00
G2 X63.0042 Y470.4003 Z-6.2115 I-2.9563 J0.0000 F1080.00
G2 X68.9167 Y470.4003 Z-6.5769 I2.9563 J0.0000 F1080.00
G2 X63.0042 Y470.4003 Z-6.9423 I-2.9563 J0.0000 F1080.00
G2 X68.9167 Y470.4003 Z-7.3077 I2.9563 J0.0000 F1080.00
G2 X63.0042 Y470.4003 Z-7.6731 I-2.9563 J0.0000 F1080.00
G2 X68.9167 Y470.4003 Z-8.0385 I2.9563 J0.0000 F1080.00
G2 X63.0042 Y470.4003 Z-8.4038 I-2.9563 J0.0000 F1080.00
G2 X68.9167 Y470.4003 Z-8.7692 I2.9563 J0.0000 F1080.00
G2 X63.0042 Y470.4003 Z-9.1346 I-2.9563 J0.0000 F1080.00
G2 X68.9167 Y470.4003 Z-9.5000 I2.9563 J0.0000 F1080.00
G2 X63.0042 Y470.4003 Z-9.8654 I-2.9563 J0.0000 F1080.00
G2 X68.9167 Y470.4003 Z-10.2308 I2.9563 J0.0000 F1080.00
G2 X63.0042 Y470.4003 Z-10.5962 I-2.9563 J0.0000 F1080.00
G2 X68.9167 Y470.4003 Z-10.9615 I2.9563 J0.0000 F1080.00
G2 X63.0042 Y470.4003 Z-11.3269 I-2.9563 J0.0000 F1080.00
G2 X68.9167 Y470.4003 Z-11.6923 I2.9563 J0.0000 F1080.00
G2 X63.0042 Y470.4003 Z-12.0577 I-2.9563 J0.0000 F1080.00
G2 X68.9167 Y470.4003 Z-12.4231 I2.9563 J0.0000 F1080.00
G2 X63.0042 Y470.4003 Z-12.7885 I-2.9563 J0.0000 F1080.00
G2 X68.9167 Y470.4003 Z-13.1538 I2.9563 J0.0000 F1080.00
G2 X63.0042 Y470.4003 Z-13.5192 I-2.9563 J0.0000 F1080.00
G2 X68.9167 Y470.4003 Z-13.8846 I2.9563 J0.0000 F1080.00
G2 X63.0042 Y470.4003 Z-14.2500 I-2.9563 J0.0000 F1080.00
G2 X68.9167 Y470.4003 Z-14.6154 I2.9563 J0.0000 F1080.00
G2 X63.0042 Y470.4003 Z-14.9808 I-2.9563 J0.0000 F1080.00
G2 X68.9167 Y470.4003 Z-15.3462 I2.9563 J0.0000 F1080.00
G2 X63.0042 Y470.4003 Z-15.7115 I-2.9563 J0.0000 F1080.00
G2 X68.9167 Y470.4003 Z-16.0769 I2.9563 J0.0000 F1080.00
G2 X63.0042 Y470.4003 Z-16.4423 I-2.9563 J0.0000 F1080.00
G2 X68.9167 Y470.4003 Z-16.8077 I2.9563 J0.0000 F1080.00
G2 X63.0042 Y470.4003 Z-17.1731 I-2.9563 J0.0000 F1080.00
G2 X68.9167 Y470.4003 Z-17.5385 I2.9563 J0.0000 F1080.00
G2 X63.0042 Y470.4003 Z-17.9038 I-2.9563 J0.0000 F1080.00
G2 X68.9167 Y470.4003 Z-18.2692 I2.9563 J0.0000 F1080.00
G2 X63.0042 Y470.4003 Z-18.6346 I-2.9563 J0.0000 F1080.00
G2 X68.9167 Y470.4003 Z-19.0000 I2.9563 J0.0000 F1080.00
G2 X63.0042 Y470.4003 Z-19.0000 I-2.9563 J0.0000 F1080.00
G2 X68.9167 Y470.4003 Z-19.0000 I2.9563 J0.0000 F1080.00
G0 Z3.0000
G0 X39.2586 Y522.5563
G0 Z3.0000
G1 Z0.0000 F1080.00
G2 X33.3461 Y522.5563 Z-0.3654 I-2.9563 J0.0000 F1080.00
G2 X39.2586 Y522.5563 Z-0.7308 I2.9563 J0.0000 F1080.00
G2 X33.3461 Y522.5563 Z-1.0962 I-2.9563 J0.0000 F1080.00
G2 X39.2586 Y522.5563 Z-1.4615 I2.9563 J0.0000 F1080.00
G2 X33.3461 Y522.5563 Z-1.8269 I-2.9563 J0.0000 F1080.00
G2 X39.2586 Y522.5563 Z-2.1923 I2.9563 J0.0000 F1080.00
G2 X33.3461 Y522.5563 Z-2.5577 I-2.9563 J0.0000 F1080.00
G2 X39.2586 Y522.5563 Z-2.9231 I2.9563 J0.0000 F1080.00
G2 X33.3461 Y522.5563 Z-3.2885 I-2.9563 J0.0000 F1080.00
G2 X39.2586 Y522.5563 Z-3.6538 I2.9563 J0.0000 F1080.00
G2 X33.3461 Y522.5563 Z-4.0192 I-2.9563 J0.0000 F1080.00
G2 X39.2586 Y522.5563 Z-4.3846 I2.9563 J0.0000 F1080.00
G2 X33.3461 Y522.5563 Z-4.7500 I-2.9563 J0.0000 F1080.00
G2 X39.2586 Y522.5563 Z-5.1154 I2.9563 J0.0000 F1080.00
G2 X33.3461 Y522.5563 Z-5.4808 I-2.9563 J0.0000 F1080.00
G2 X39.2586 Y522.5563 Z-5.8462 I2.9563 J0.0000 F1080.00
G2 X33.3461 Y522.5563 Z-6.2115 I-2.9563 J0.0000 F1080.00
G2 X39.2586 Y522.5563 Z-6.5769 I2.9563 J0.0000 F1080.00
G2 X33.3461 Y522.5563 Z-6.9423 I-2.9563 J0.0000 F1080.00
G2 X39.2586 Y522.5563 Z-7.3077 I2.9563 J0.0000 F1080.00
G2 X33.3461 Y522.5563 Z-7.6731 I-2.9563 J0.0000 F1080.00
G2 X39.2586 Y522.5563 Z-8.0385 I2.9563 J0.0000 F1080.00
G2 X33.3461 Y522.5563 Z-8.4038 I-2.9563 J0.0000 F1080.00
G2 X39.2586 Y522.5563 Z-8.7692 I2.9563 J0.0000 F1080.00
G2 X33.3461 Y522.5563 Z-9.1346 I-2.9563 J0.0000 F1080.00
G2 X39.2586 Y522.5563 Z-9.5000 I2.9563 J0.0000 F1080.00
G2 X33.3461 Y522.5563 Z-9.8654 I-2.9563 J0.0000 F1080.00
G2 X39.2586 Y522.5563 Z-10.2308 I2.9563 J0.0000 F1080.00
G2 X33.3461 Y522.5563 Z-10.5962 I-2.9563 J0.0000 F1080.00
G2 X39.2586 Y522.5563 Z-10.9615 I2.9563 J0.0000 F1080.00
G2 X33.3461 Y522.5563 Z-11.3269 I-2.9563 J0.0000 F1080.00
G2 X39.2586 Y522.5563 Z-11.6923 I2.9563 J0.0000 F1080.00
G2 X33.3461 Y522.5563 Z-12.0577 I-2.9563 J0.0000 F1080.00
G2 X39.2586 Y522.5563 Z-12.4231 I2.9563 J0.0000 F1080.00
G2 X33.3461 Y522.5563 Z-12.7885 I-2.9563 J0.0000 F1080.00
G2 X39.2586 Y522.5563 Z-13.1538 I2.9563 J0.0000 F1080.00
G2 X33.3461 Y522.5563 Z-13.5192 I-2.9563 J0.0000 F1080.00
G2 X39.2586 Y522.5563 Z-13.8846 I2.9563 J0.0000 F1080.00
G2 X33.3461 Y522.5563 Z-14.2500 I-2.9563 J0.0000 F1080.00
G2 X39.2586 Y522.5563 Z-14.6154 I2.9563 J0.0000 F1080.00
G2 X33.3461 Y522.5563 Z-14.9808 I-2.9563 J0.0000 F1080.00
G2 X39.2586 Y522.5563 Z-15.3462 I2.9563 J0.0000 F1080.00
G2 X33.3461 Y522.5563 Z-15.7115 I-2.9563 J0.0000 F1080.00
G2 X39.2586 Y522.5563 Z-16.0769 I2.9563 J0.0000 F1080.00
G2 X33.3461 Y522.5563 Z-16.4423 I-2.9563 J0.0000 F1080.00
G2 X39.2586 Y522.5563 Z-16.8077 I2.9563 J0.0000 F1080.00
G2 X33.3461 Y522.5563 Z-17.1731 I-2.9563 J0.0000 F1080.00
G2 X39.2586 Y522.5563 Z-17.5385 I2.9563 J0.0000 F1080.00
G2 X33.3461 Y522.5563 Z-17.9038 I-2.9563 J0.0000 F1080.00
G2 X39.2586 Y522.5563 Z-18.2692 I2.9563 J0.0000 F1080.00
G2 X33.3461 Y522.5563 Z-18.6346 I-2.9563 J0.0000 F1080.00
G2 X39.2586 Y522.5563 Z-19.0000 I2.9563 J0.0000 F1080.00
G2 X33.3461 Y522.5563 Z-19.0000 I-2.9563 J0.0000 F1080.00
G2 X39.2586 Y522.5563 Z-19.0000 I2.9563 J0.0000 F1080.00
G0 Z3.0000
G0 Z5.0000
(finish operation: Helix)
(begin operation: MillFace001)
(Path: MillFace001)
(MillFace001)
G0 Z5.0000
G0 X68.3100 Y427.0000
G0 Z3.0000
G1 X68.3100 Y427.0000 Z0.0000 F1080.00
G1 X68.3100 Y3.0000 Z0.0000 F1080.00
G1 X42.3100 Y3.0000 Z0.0000 F1080.00
G1 X42.3100 Y427.0000 Z0.0000 F1080.00
G1 X68.3100 Y427.0000 Z0.0000 F1080.00
G0 X68.3100 Y427.0000 Z5.0000
G0 X42.3100 Y426.7199 Z5.0000
G0 X42.3100 Y426.7199 Z3.0000
G1 X42.3100 Y426.7199 Z0.0000 F1080.00
G1 X42.3100 Y427.0000 Z0.0000 F1080.00
G1 X42.5901 Y427.0000 Z0.0000 F1080.00
G1 X42.3100 Y426.7199 Z0.0000 F1080.00
G1 X42.3100 Y422.4773 Z0.0000 F1080.00
G1 X46.8327 Y427.0000 Z0.0000 F1080.00
G1 X51.0754 Y427.0000 Z0.0000 F1080.00
G1 X42.3100 Y418.2346 Z0.0000 F1080.00
G1 X42.3100 Y413.9920 Z0.0000 F1080.00
G1 X55.3180 Y427.0000 Z0.0000 F1080.00
G1 X59.5606 Y427.0000 Z0.0000 F1080.00
G1 X42.3100 Y409.7494 Z0.0000 F1080.00
G1 X42.3100 Y405.5067 Z0.0000 F1080.00
G1 X63.8033 Y427.0000 Z0.0000 F1080.00
G1 X68.0459 Y427.0000 Z0.0000 F1080.00
G1 X42.3100 Y401.2641 Z0.0000 F1080.00
G1 X42.3100 Y397.0214 Z0.0000 F1080.00
G1 X68.3100 Y423.0214 Z0.0000 F1080.00
G1 X68.3100 Y418.7788 Z0.0000 F1080.00
G1 X42.3100 Y392.7788 Z0.0000 F1080.00
G1 X42.3100 Y388.5361 Z0.0000 F1080.00
G1 X68.3100 Y414.5361 Z0.0000 F1080.00
G1 X68.3100 Y410.2935 Z0.0000 F1080.00
G1 X42.3100 Y384.2935 Z0.0000 F1080.00
G1 X42.3100 Y380.0509 Z0.0000 F1080.00
G1 X68.3100 Y406.0509 Z0.0000 F1080.00
G1 X68.3100 Y401.8082 Z0.0000 F1080.00
G1 X42.3100 Y375.8082 Z0.0000 F1080.00
G1 X42.3100 Y371.5656 Z0.0000 F1080.00
G1 X68.3100 Y397.5656 Z0.0000 F1080.00
G1 X68.3100 Y393.3229 Z0.0000 F1080.00
G1 X42.3100 Y367.3229 Z0.0000 F1080.00
G1 X42.3100 Y363.0803 Z0.0000 F1080.00
G1 X68.3100 Y389.0803 Z0.0000 F1080.00
G1 X68.3100 Y384.8377 Z0.0000 F1080.00
G1 X42.3100 Y358.8377 Z0.0000 F1080.00
G1 X42.3100 Y354.5950 Z0.0000 F1080.00
G1 X68.3100 Y380.5950 Z0.0000 F1080.00
G1 X68.3100 Y376.3524 Z0.0000 F1080.00
G1 X42.3100 Y350.3524 Z0.0000 F1080.00
G1 X42.3100 Y346.1097 Z0.0000 F1080.00
G1 X68.3100 Y372.1097 Z0.0000 F1080.00
G1 X68.3100 Y367.8671 Z0.0000 F1080.00
G1 X42.3100 Y341.8671 Z0.0000 F1080.00
G1 X42.3100 Y337.6245 Z0.0000 F1080.00
G1 X68.3100 Y363.6245 Z0.0000 F1080.00
G1 X68.3100 Y359.3818 Z0.0000 F1080.00
G1 X42.3100 Y333.3818 Z0.0000 F1080.00
G1 X42.3100 Y329.1392 Z0.0000 F1080.00
G1 X68.3100 Y355.1392 Z0.0000 F1080.00
G1 X68.3100 Y350.8965 Z0.0000 F1080.00
G1 X42.3100 Y324.8965 Z0.0000 F1080.00
G1 X42.3100 Y320.6539 Z0.0000 F1080.00
G1 X68.3100 Y346.6539 Z0.0000 F1080.00
G1 X68.3100 Y342.4113 Z0.0000 F1080.00
G1 X42.3100 Y316.4113 Z0.0000 F1080.00
G1 X42.3100 Y312.1686 Z0.0000 F1080.00
G1 X68.3100 Y338.1686 Z0.0000 F1080.00
G1 X68.3100 Y333.9260 Z0.0000 F1080.00
G1 X42.3100 Y307.9260 Z0.0000 F1080.00
G1 X42.3100 Y303.6833 Z0.0000 F1080.00
G1 X68.3100 Y329.6833 Z0.0000 F1080.00
G1 X68.3100 Y325.4407 Z0.0000 F1080.00
G1 X42.3100 Y299.4407 Z0.0000 F1080.00
G1 X42.3100 Y295.1981 Z0.0000 F1080.00
G1 X68.3100 Y321.1981 Z0.0000 F1080.00
G1 X68.3100 Y316.9554 Z0.0000 F1080.00
G1 X42.3100 Y290.9554 Z0.0000 F1080.00
G1 X42.3100 Y286.7128 Z0.0000 F1080.00
G1 X68.3100 Y312.7128 Z0.0000 F1080.00
G1 X68.3100 Y308.4701 Z0.0000 F1080.00
G1 X42.3100 Y282.4701 Z0.0000 F1080.00
G1 X42.3100 Y278.2275 Z0.0000 F1080.00
G1 X68.3100 Y304.2275 Z0.0000 F1080.00
G1 X68.3100 Y299.9848 Z0.0000 F1080.00
G1 X42.3100 Y273.9848 Z0.0000 F1080.00
G1 X42.3100 Y269.7422 Z0.0000 F1080.00
G1 X68.3100 Y295.7422 Z0.0000 F1080.00
G1 X68.3100 Y291.4996 Z0.0000 F1080.00
G1 X42.3100 Y265.4996 Z0.0000 F1080.00
G1 X42.3100 Y261.2569 Z0.0000 F1080.00
G1 X68.3100 Y287.2569 Z0.0000 F1080.00
G1 X68.3100 Y283.0143 Z0.0000 F1080.00
G1 X42.3100 Y257.0143 Z0.0000 F1080.00
G1 X42.3100 Y252.7716 Z0.0000 F1080.00
G1 X68.3100 Y278.7716 Z0.0000 F1080.00
G1 X68.3100 Y274.5290 Z0.0000 F1080.00
G1 X42.3100 Y248.5290 Z0.0000 F1080.00
G1 X42.3100 Y244.2864 Z0.0000 F1080.00
G1 X68.3100 Y270.2864 Z0.0000 F1080.00
G1 X68.3100 Y266.0437 Z0.0000 F1080.00
G1 X42.3100 Y240.0437 Z0.0000 F1080.00
G1 X42.3100 Y235.8011 Z0.0000 F1080.00
G1 X68.3100 Y261.8011 Z0.0000 F1080.00
G1 X68.3100 Y257.5584 Z0.0000 F1080.00
G1 X42.3100 Y231.5584 Z0.0000 F1080.00
G1 X42.3100 Y227.3158 Z0.0000 F1080.00
G1 X68.3100 Y253.3158 Z0.0000 F1080.00
G1 X68.3100 Y249.0732 Z0.0000 F1080.00
G1 X42.3100 Y223.0732 Z0.0000 F1080.00
G1 X42.3100 Y218.8305 Z0.0000 F1080.00
G1 X68.3100 Y244.8305 Z0.0000 F1080.00
G1 X68.3100 Y240.5879 Z0.0000 F1080.00
G1 X42.3100 Y214.5879 Z0.0000 F1080.00
G1 X42.3100 Y210.3452 Z0.0000 F1080.00
G1 X68.3100 Y236.3452 Z0.0000 F1080.00
G1 X68.3100 Y232.1026 Z0.0000 F1080.00
G1 X42.3100 Y206.1026 Z0.0000 F1080.00
G1 X42.3100 Y201.8600 Z0.0000 F1080.00
G1 X68.3100 Y227.8600 Z0.0000 F1080.00
G1 X68.3100 Y223.6173 Z0.0000 F1080.00
G1 X42.3100 Y197.6173 Z0.0000 F1080.00
G1 X42.3100 Y193.3747 Z0.0000 F1080.00
G1 X68.3100 Y219.3747 Z0.0000 F1080.00
G1 X68.3100 Y215.1320 Z0.0000 F1080.00
G1 X42.3100 Y189.1320 Z0.0000 F1080.00
G1 X42.3100 Y184.8894 Z0.0000 F1080.00
G1 X68.3100 Y210.8894 Z0.0000 F1080.00
G1 X68.3100 Y206.6468 Z0.0000 F1080.00
G1 X42.3100 Y180.6468 Z0.0000 F1080.00
G1 X42.3100 Y176.4041 Z0.0000 F1080.00
G1 X68.3100 Y202.4041 Z0.0000 F1080.00
G1 X68.3100 Y198.1615 Z0.0000 F1080.00
G1 X42.3100 Y172.1615 Z0.0000 F1080.00
G1 X42.3100 Y167.9188 Z0.0000 F1080.00
G1 X68.3100 Y193.9188 Z0.0000 F1080.00
G1 X68.3100 Y189.6762 Z0.0000 F1080.00
G1 X42.3100 Y163.6762 Z0.0000 F1080.00
G1 X42.3100 Y159.4335 Z0.0000 F1080.00
G1 X68.3100 Y185.4335 Z0.0000 F1080.00
G1 X68.3100 Y181.1909 Z0.0000 F1080.00
G1 X42.3100 Y155.1909 Z0.0000 F1080.00
G1 X42.3100 Y150.9483 Z0.0000 F1080.00
G1 X68.3100 Y176.9483 Z0.0000 F1080.00
G1 X68.3100 Y172.7056 Z0.0000 F1080.00
G1 X42.3100 Y146.7056 Z0.0000 F1080.00
G1 X42.3100 Y142.4630 Z0.0000 F1080.00
G1 X68.3100 Y168.4630 Z0.0000 F1080.00
G1 X68.3100 Y164.2203 Z0.0000 F1080.00
G1 X42.3100 Y138.2203 Z0.0000 F1080.00
G1 X42.3100 Y133.9777 Z0.0000 F1080.00
G1 X68.3100 Y159.9777 Z0.0000 F1080.00
G1 X68.3100 Y155.7351 Z0.0000 F1080.00
G1 X42.3100 Y129.7351 Z0.0000 F1080.00
G1 X42.3100 Y125.4924 Z0.0000 F1080.00
G1 X68.3100 Y151.4924 Z0.0000 F1080.00
G1 X68.3100 Y147.2498 Z0.0000 F1080.00
G1 X42.3100 Y121.2498 Z0.0000 F1080.00
G1 X42.3100 Y117.0071 Z0.0000 F1080.00
G1 X68.3100 Y143.0071 Z0.0000 F1080.00
G1 X68.3100 Y138.7645 Z0.0000 F1080.00
G1 X42.3100 Y112.7645 Z0.0000 F1080.00
G1 X42.3100 Y108.5219 Z0.0000 F1080.00
G1 X68.3100 Y134.5219 Z0.0000 F1080.00
G1 X68.3100 Y130.2792 Z0.0000 F1080.00
G1 X42.3100 Y104.2792 Z0.0000 F1080.00
G1 X42.3100 Y100.0366 Z0.0000 F1080.00
G1 X68.3100 Y126.0366 Z0.0000 F1080.00
G1 X68.3100 Y121.7939 Z0.0000 F1080.00
G1 X42.3100 Y95.7939 Z0.0000 F1080.00
G1 X42.3100 Y91.5513 Z0.0000 F1080.00
G1 X68.3100 Y117.5513 Z0.0000 F1080.00
G1 X68.3100 Y113.3087 Z0.0000 F1080.00
G1 X42.3100 Y87.3087 Z0.0000 F1080.00
G1 X42.3100 Y83.0660 Z0.0000 F1080.00
G1 X68.3100 Y109.0660 Z0.0000 F1080.00
G1 X68.3100 Y104.8234 Z0.0000 F1080.00
G1 X42.3100 Y78.8234 Z0.0000 F1080.00
G1 X42.3100 Y74.5807 Z0.0000 F1080.00
G1 X68.3100 Y100.5807 Z0.0000 F1080.00
G1 X68.3100 Y96.3381 Z0.0000 F1080.00
G1 X42.3100 Y70.3381 Z0.0000 F1080.00
G1 X42.3100 Y66.0955 Z0.0000 F1080.00
G1 X68.3100 Y92.0955 Z0.0000 F1080.00
G1 X68.3100 Y87.8528 Z0.0000 F1080.00
G1 X42.3100 Y61.8528 Z0.0000 F1080.00
G1 X42.3100 Y57.6102 Z0.0000 F1080.00
G1 X68.3100 Y83.6102 Z0.0000 F1080.00
G1 X68.3100 Y79.3675 Z0.0000 F1080.00
G1 X42.3100 Y53.3675 Z0.0000 F1080.00
G1 X42.3100 Y49.1249 Z0.0000 F1080.00
G1 X68.3100 Y75.1249 Z0.0000 F1080.00
G1 X68.3100 Y70.8823 Z0.0000 F1080.00
G1 X42.3100 Y44.8823 Z0.0000 F1080.00
G1 X42.3100 Y40.6396 Z0.0000 F1080.00
G1 X68.3100 Y66.6396 Z0.0000 F1080.00
G1 X68.3100 Y62.3970 Z0.0000 F1080.00
G1 X42.3100 Y36.3970 Z0.0000 F1080.00
G1 X42.3100 Y32.1543 Z0.0000 F1080.00
G1 X68.3100 Y58.1543 Z0.0000 F1080.00
G1 X68.3100 Y53.9117 Z0.0000 F1080.00
G1 X42.3100 Y27.9117 Z0.0000 F1080.00
G1 X42.3100 Y23.6690 Z0.0000 F1080.00
G1 X68.3100 Y49.6690 Z0.0000 F1080.00
G1 X68.3100 Y45.4264 Z0.0000 F1080.00
G1 X42.3100 Y19.4264 Z0.0000 F1080.00
G1 X42.3100 Y15.1838 Z0.0000 F1080.00
G1 X68.3100 Y41.1838 Z0.0000 F1080.00
G1 X68.3100 Y36.9411 Z0.0000 F1080.00
G1 X42.3100 Y10.9411 Z0.0000 F1080.00
G1 X42.3100 Y6.6985 Z0.0000 F1080.00
G1 X68.3100 Y32.6985 Z0.0000 F1080.00
G1 X68.3100 Y28.4558 Z0.0000 F1080.00
G1 X42.8541 Y3.0000 Z0.0000 F1080.00
G1 X47.0968 Y3.0000 Z0.0000 F1080.00
G1 X68.3100 Y24.2132 Z0.0000 F1080.00
G1 X68.3100 Y19.9706 Z0.0000 F1080.00
G1 X51.3394 Y3.0000 Z0.0000 F1080.00
G1 X55.5821 Y3.0000 Z0.0000 F1080.00
G1 X68.3100 Y15.7279 Z0.0000 F1080.00
G1 X68.3100 Y11.4853 Z0.0000 F1080.00
G1 X59.8247 Y3.0000 Z0.0000 F1080.00
G1 X64.0674 Y3.0000 Z0.0000 F1080.00
G1 X68.3100 Y7.2426 Z0.0000 F1080.00
G1 X68.3100 Y3.0000 Z0.0000 F1080.00
G0 Z5.0000
(finish operation: MillFace001)
(begin operation: Contour)
(Path: Contour)
(Contour)
(Compensated Tool Path. Diameter: 6.0)
G0 Z5.0000
G0 X53.2990 Y522.9857
G0 Z3.0000
G1 X53.2990 Y522.9857 Z-0.7500 F1080.00
G1 X87.5981 Y463.5780 Z-0.7500 F1080.00
G2 X86.9507 Y459.7989 Z-0.7500 I-2.5981 J-1.5000 F1080.00
G3 X73.9455 Y431.4272 Z-0.7500 I22.3023 J-27.3897 F1080.00
G2 X74.3100 Y430.0000 Z-0.7500 I-2.5701 J-1.4166 F1080.00
G1 X74.3100 Y0.0000 Z-0.7500 F1080.00
G2 X71.3100 Y-3.0000 Z-0.7500 I-3.0000 J0.0000 F1080.00
G1 X39.0000 Y-3.0000 Z-0.7500 F1080.00
G2 X36.0000 Y0.0000 Z-0.7500 I0.0000 J3.0000 F1080.00
G1 X36.0000 Y430.0000 Z-0.7500 F1080.00
G3 X23.0493 Y459.7989 Z-0.7500 I-35.3039 J2.3704 F1080.00
G2 X22.1632 Y463.0541 Z-0.7500 I1.9507 J2.2792 F1080.00
G1 X22.8385 Y465.0168 Z-0.7500 F1080.00
G3 X26.1216 Y496.7543 Z-0.7500 I-74.2039 J23.7145 F1080.00
G3 X21.6533 Y513.9363 Z-0.7500 I-55.3569 J-5.2237 F1080.00
G3 X10.2844 Y529.6699 Z-0.7500 I-41.4786 J-17.9978 F1080.00
G3 X-1.3461 Y537.3392 Z-0.7500 I-33.3717 J-37.9544 F1080.00
G2 X0.0000 Y543.0203 Z-0.7500 I1.3461 J2.6811 F1080.00
G1 X40.0000 Y543.0203 Z-0.7500 F1080.00
G2 X42.5981 Y541.5203 Z-0.7500 I-0.0000 J-3.0000 F1080.00
G1 X53.2990 Y522.9857 Z-0.7500 F1080.00
G1 X53.2990 Y522.9857 Z-1.5000 F1080.00
G1 X87.5981 Y463.5780 Z-1.5000 F1080.00
G2 X86.9507 Y459.7989 Z-1.5000 I-2.5981 J-1.5000 F1080.00
G3 X73.9455 Y431.4272 Z-1.5000 I22.3023 J-27.3897 F1080.00
G2 X74.3100 Y430.0000 Z-1.5000 I-2.5701 J-1.4166 F1080.00
G1 X74.3100 Y0.0000 Z-1.5000 F1080.00
G2 X71.3100 Y-3.0000 Z-1.5000 I-3.0000 J0.0000 F1080.00
G1 X39.0000 Y-3.0000 Z-1.5000 F1080.00
G2 X36.0000 Y0.0000 Z-1.5000 I0.0000 J3.0000 F1080.00
G1 X36.0000 Y430.0000 Z-1.5000 F1080.00
G3 X23.0493 Y459.7989 Z-1.5000 I-35.3039 J2.3704 F1080.00
G2 X22.1632 Y463.0541 Z-1.5000 I1.9507 J2.2792 F1080.00
G1 X22.8385 Y465.0168 Z-1.5000 F1080.00
G3 X26.1216 Y496.7543 Z-1.5000 I-74.2039 J23.7145 F1080.00
G3 X21.6533 Y513.9363 Z-1.5000 I-55.3569 J-5.2237 F1080.00
G3 X10.2844 Y529.6699 Z-1.5000 I-41.4786 J-17.9978 F1080.00
G3 X-1.3461 Y537.3392 Z-1.5000 I-33.3717 J-37.9544 F1080.00
G2 X0.0000 Y543.0203 Z-1.5000 I1.3461 J2.6811 F1080.00
G1 X40.0000 Y543.0203 Z-1.5000 F1080.00
G2 X42.5981 Y541.5203 Z-1.5000 I-0.0000 J-3.0000 F1080.00
G1 X53.2990 Y522.9857 Z-1.5000 F1080.00
G1 X53.2990 Y522.9857 Z-2.2500 F1080.00
G1 X87.5981 Y463.5780 Z-2.2500 F1080.00
G2 X86.9507 Y459.7989 Z-2.2500 I-2.5981 J-1.5000 F1080.00
G3 X73.9455 Y431.4272 Z-2.2500 I22.3023 J-27.3897 F1080.00
G2 X74.3100 Y430.0000 Z-2.2500 I-2.5701 J-1.4166 F1080.00
G1 X74.3100 Y0.0000 Z-2.2500 F1080.00
G2 X71.3100 Y-3.0000 Z-2.2500 I-3.0000 J0.0000 F1080.00
G1 X39.0000 Y-3.0000 Z-2.2500 F1080.00
G2 X36.0000 Y0.0000 Z-2.2500 I0.0000 J3.0000 F1080.00
G1 X36.0000 Y430.0000 Z-2.2500 F1080.00
G3 X23.0493 Y459.7989 Z-2.2500 I-35.3039 J2.3704 F1080.00
G2 X22.1632 Y463.0541 Z-2.2500 I1.9507 J2.2792 F1080.00
G1 X22.8385 Y465.0168 Z-2.2500 F1080.00
G3 X26.1216 Y496.7543 Z-2.2500 I-74.2039 J23.7145 F1080.00
G3 X21.6533 Y513.9363 Z-2.2500 I-55.3569 J-5.2237 F1080.00
G3 X10.2844 Y529.6699 Z-2.2500 I-41.4786 J-17.9978 F1080.00
G3 X-1.3461 Y537.3392 Z-2.2500 I-33.3717 J-37.9544 F1080.00
G2 X0.0000 Y543.0203 Z-2.2500 I1.3461 J2.6811 F1080.00
G1 X40.0000 Y543.0203 Z-2.2500 F1080.00
G2 X42.5981 Y541.5203 Z-2.2500 I-0.0000 J-3.0000 F1080.00
G1 X53.2990 Y522.9857 Z-2.2500 F1080.00
G1 X53.2990 Y522.9857 Z-3.0000 F1080.00
G1 X87.5981 Y463.5780 Z-3.0000 F1080.00
G2 X86.9507 Y459.7989 Z-3.0000 I-2.5981 J-1.5000 F1080.00
G3 X73.9455 Y431.4272 Z-3.0000 I22.3023 J-27.3897 F1080.00
G2 X74.3100 Y430.0000 Z-3.0000 I-2.5701 J-1.4166 F1080.00
G1 X74.3100 Y0.0000 Z-3.0000 F1080.00
G2 X71.3100 Y-3.0000 Z-3.0000 I-3.0000 J0.0000 F1080.00
G1 X39.0000 Y-3.0000 Z-3.0000 F1080.00
G2 X36.0000 Y0.0000 Z-3.0000 I0.0000 J3.0000 F1080.00
G1 X36.0000 Y430.0000 Z-3.0000 F1080.00
G3 X23.0493 Y459.7989 Z-3.0000 I-35.3039 J2.3704 F1080.00
G2 X22.1632 Y463.0541 Z-3.0000 I1.9507 J2.2792 F1080.00
G1 X22.8385 Y465.0168 Z-3.0000 F1080.00
G3 X26.1216 Y496.7543 Z-3.0000 I-74.2039 J23.7145 F1080.00
G3 X21.6533 Y513.9363 Z-3.0000 I-55.3569 J-5.2237 F1080.00
G3 X10.2844 Y529.6699 Z-3.0000 I-41.4786 J-17.9978 F1080.00
G3 X-1.3461 Y537.3392 Z-3.0000 I-33.3717 J-37.9544 F1080.00
G2 X0.0000 Y543.0203 Z-3.0000 I1.3461 J2.6811 F1080.00
G1 X40.0000 Y543.0203 Z-3.0000 F1080.00
G2 X42.5981 Y541.5203 Z-3.0000 I-0.0000 J-3.0000 F1080.00
G1 X53.2990 Y522.9857 Z-3.0000 F1080.00
G1 X53.2990 Y522.9857 Z-3.7500 F1080.00
G1 X87.5981 Y463.5780 Z-3.7500 F1080.00
G2 X86.9507 Y459.7989 Z-3.7500 I-2.5981 J-1.5000 F1080.00
G3 X73.9455 Y431.4272 Z-3.7500 I22.3023 J-27.3897 F1080.00
G2 X74.3100 Y430.0000 Z-3.7500 I-2.5701 J-1.4166 F1080.00
G1 X74.3100 Y0.0000 Z-3.7500 F1080.00
G2 X71.3100 Y-3.0000 Z-3.7500 I-3.0000 J0.0000 F1080.00
G1 X39.0000 Y-3.0000 Z-3.7500 F1080.00
G2 X36.0000 Y0.0000 Z-3.7500 I0.0000 J3.0000 F1080.00
G1 X36.0000 Y430.0000 Z-3.7500 F1080.00
G3 X23.0493 Y459.7989 Z-3.7500 I-35.3039 J2.3704 F1080.00
G2 X22.1632 Y463.0541 Z-3.7500 I1.9507 J2.2792 F1080.00
G1 X22.8385 Y465.0168 Z-3.7500 F1080.00
G3 X26.1216 Y496.7543 Z-3.7500 I-74.2039 J23.7145 F1080.00
G3 X21.6533 Y513.9363 Z-3.7500 I-55.3569 J-5.2237 F1080.00
G3 X10.2844 Y529.6699 Z-3.7500 I-41.4786 J-17.9978 F1080.00
G3 X-1.3461 Y537.3392 Z-3.7500 I-33.3717 J-37.9544 F1080.00
G2 X0.0000 Y543.0203 Z-3.7500 I1.3461 J2.6811 F1080.00
G1 X40.0000 Y543.0203 Z-3.7500 F1080.00
G2 X42.5981 Y541.5203 Z-3.7500 I-0.0000 J-3.0000 F1080.00
G1 X53.2990 Y522.9857 Z-3.7500 F1080.00
G1 X53.2990 Y522.9857 Z-4.5000 F1080.00
G1 X87.5981 Y463.5780 Z-4.5000 F1080.00
G2 X86.9507 Y459.7989 Z-4.5000 I-2.5981 J-1.5000 F1080.00
G3 X73.9455 Y431.4272 Z-4.5000 I22.3023 J-27.3897 F1080.00
G2 X74.3100 Y430.0000 Z-4.5000 I-2.5701 J-1.4166 F1080.00
G1 X74.3100 Y0.0000 Z-4.5000 F1080.00
G2 X71.3100 Y-3.0000 Z-4.5000 I-3.0000 J0.0000 F1080.00
G1 X39.0000 Y-3.0000 Z-4.5000 F1080.00
G2 X36.0000 Y0.0000 Z-4.5000 I0.0000 J3.0000 F1080.00
G1 X36.0000 Y430.0000 Z-4.5000 F1080.00
G3 X23.0493 Y459.7989 Z-4.5000 I-35.3039 J2.3704 F1080.00
G2 X22.1632 Y463.0541 Z-4.5000 I1.9507 J2.2792 F1080.00
G1 X22.8385 Y465.0168 Z-4.5000 F1080.00
G3 X26.1216 Y496.7543 Z-4.5000 I-74.2039 J23.7145 F1080.00
G3 X21.6533 Y513.9363 Z-4.5000 I-55.3569 J-5.2237 F1080.00
G3 X10.2844 Y529.6699 Z-4.5000 I-41.4786 J-17.9978 F1080.00
G3 X-1.3461 Y537.3392 Z-4.5000 I-33.3717 J-37.9544 F1080.00
G2 X0.0000 Y543.0203 Z-4.5000 I1.3461 J2.6811 F1080.00
G1 X40.0000 Y543.0203 Z-4.5000 F1080.00
G2 X42.5981 Y541.5203 Z-4.5000 I-0.0000 J-3.0000 F1080.00
G1 X53.2990 Y522.9857 Z-4.5000 F1080.00
G1 X53.2990 Y522.9857 Z-5.2500 F1080.00
G1 X87.5981 Y463.5780 Z-5.2500 F1080.00
G2 X86.9507 Y459.7989 Z-5.2500 I-2.5981 J-1.5000 F1080.00
G3 X73.9455 Y431.4272 Z-5.2500 I22.3023 J-27.3897 F1080.00
G2 X74.3100 Y430.0000 Z-5.2500 I-2.5701 J-1.4166 F1080.00
G1 X74.3100 Y0.0000 Z-5.2500 F1080.00
G2 X71.3100 Y-3.0000 Z-5.2500 I-3.0000 J0.0000 F1080.00
G1 X39.0000 Y-3.0000 Z-5.2500 F1080.00
G2 X36.0000 Y0.0000 Z-5.2500 I0.0000 J3.0000 F1080.00
G1 X36.0000 Y430.0000 Z-5.2500 F1080.00
G3 X23.0493 Y459.7989 Z-5.2500 I-35.3039 J2.3704 F1080.00
G2 X22.1632 Y463.0541 Z-5.2500 I1.9507 J2.2792 F1080.00
G1 X22.8385 Y465.0168 Z-5.2500 F1080.00
G3 X26.1216 Y496.7543 Z-5.2500 I-74.2039 J23.7145 F1080.00
G3 X21.6533 Y513.9363 Z-5.2500 I-55.3569 J-5.2237 F1080.00
G3 X10.2844 Y529.6699 Z-5.2500 I-41.4786 J-17.9978 F1080.00
G3 X-1.3461 Y537.3392 Z-5.2500 I-33.3717 J-37.9544 F1080.00
G2 X0.0000 Y543.0203 Z-5.2500 I1.3461 J2.6811 F1080.00
G1 X40.0000 Y543.0203 Z-5.2500 F1080.00
G2 X42.5981 Y541.5203 Z-5.2500 I-0.0000 J-3.0000 F1080.00
G1 X53.2990 Y522.9857 Z-5.2500 F1080.00
G1 X53.2990 Y522.9857 Z-6.0000 F1080.00
G1 X87.5981 Y463.5780 Z-6.0000 F1080.00
G2 X86.9507 Y459.7989 Z-6.0000 I-2.5981 J-1.5000 F1080.00
G3 X73.9455 Y431.4272 Z-6.0000 I22.3023 J-27.3897 F1080.00
G2 X74.3100 Y430.0000 Z-6.0000 I-2.5701 J-1.4166 F1080.00
G1 X74.3100 Y0.0000 Z-6.0000 F1080.00
G2 X71.3100 Y-3.0000 Z-6.0000 I-3.0000 J0.0000 F1080.00
G1 X39.0000 Y-3.0000 Z-6.0000 F1080.00
G2 X36.0000 Y0.0000 Z-6.0000 I0.0000 J3.0000 F1080.00
G1 X36.0000 Y430.0000 Z-6.0000 F1080.00
G3 X23.0493 Y459.7989 Z-6.0000 I-35.3039 J2.3704 F1080.00
G2 X22.1632 Y463.0541 Z-6.0000 I1.9507 J2.2792 F1080.00
G1 X22.8385 Y465.0168 Z-6.0000 F1080.00
G3 X26.1216 Y496.7543 Z-6.0000 I-74.2039 J23.7145 F1080.00
G3 X21.6533 Y513.9363 Z-6.0000 I-55.3569 J-5.2237 F1080.00
G3 X10.2844 Y529.6699 Z-6.0000 I-41.4786 J-17.9978 F1080.00
G3 X-1.3461 Y537.3392 Z-6.0000 I-33.3717 J-37.9544 F1080.00
G2 X0.0000 Y543.0203 Z-6.0000 I1.3461 J2.6811 F1080.00
G1 X40.0000 Y543.0203 Z-6.0000 F1080.00
G2 X42.5981 Y541.5203 Z-6.0000 I-0.0000 J-3.0000 F1080.00
G1 X53.2990 Y522.9857 Z-6.0000 F1080.00
G1 X53.2990 Y522.9857 Z-6.7500 F1080.00
G1 X87.5981 Y463.5780 Z-6.7500 F1080.00
G2 X86.9507 Y459.7989 Z-6.7500 I-2.5981 J-1.5000 F1080.00
G3 X73.9455 Y431.4272 Z-6.7500 I22.3023 J-27.3897 F1080.00
G2 X74.3100 Y430.0000 Z-6.7500 I-2.5701 J-1.4166 F1080.00
G1 X74.3100 Y0.0000 Z-6.7500 F1080.00
G2 X71.3100 Y-3.0000 Z-6.7500 I-3.0000 J0.0000 F1080.00
G1 X39.0000 Y-3.0000 Z-6.7500 F1080.00
G2 X36.0000 Y0.0000 Z-6.7500 I0.0000 J3.0000 F1080.00
G1 X36.0000 Y430.0000 Z-6.7500 F1080.00
G3 X23.0493 Y459.7989 Z-6.7500 I-35.3039 J2.3704 F1080.00
G2 X22.1632 Y463.0541 Z-6.7500 I1.9507 J2.2792 F1080.00
G1 X22.8385 Y465.0168 Z-6.7500 F1080.00
G3 X26.1216 Y496.7543 Z-6.7500 I-74.2039 J23.7145 F1080.00
G3 X21.6533 Y513.9363 Z-6.7500 I-55.3569 J-5.2237 F1080.00
G3 X10.2844 Y529.6699 Z-6.7500 I-41.4786 J-17.9978 F1080.00
G3 X-1.3461 Y537.3392 Z-6.7500 I-33.3717 J-37.9544 F1080.00
G2 X0.0000 Y543.0203 Z-6.7500 I1.3461 J2.6811 F1080.00
G1 X40.0000 Y543.0203 Z-6.7500 F1080.00
G2 X42.5981 Y541.5203 Z-6.7500 I-0.0000 J-3.0000 F1080.00
G1 X53.2990 Y522.9857 Z-6.7500 F1080.00
G1 X53.2990 Y522.9857 Z-7.5000 F1080.00
G1 X87.5981 Y463.5780 Z-7.5000 F1080.00
G2 X86.9507 Y459.7989 Z-7.5000 I-2.5981 J-1.5000 F1080.00
G3 X73.9455 Y431.4272 Z-7.5000 I22.3023 J-27.3897 F1080.00
G2 X74.3100 Y430.0000 Z-7.5000 I-2.5701 J-1.4166 F1080.00
G1 X74.3100 Y0.0000 Z-7.5000 F1080.00
G2 X71.3100 Y-3.0000 Z-7.5000 I-3.0000 J0.0000 F1080.00
G1 X39.0000 Y-3.0000 Z-7.5000 F1080.00
G2 X36.0000 Y0.0000 Z-7.5000 I0.0000 J3.0000 F1080.00
G1 X36.0000 Y430.0000 Z-7.5000 F1080.00
G3 X23.0493 Y459.7989 Z-7.5000 I-35.3039 J2.3704 F1080.00
G2 X22.1632 Y463.0541 Z-7.5000 I1.9507 J2.2792 F1080.00
G1 X22.8385 Y465.0168 Z-7.5000 F1080.00
G3 X26.1216 Y496.7543 Z-7.5000 I-74.2039 J23.7145 F1080.00
G3 X21.6533 Y513.9363 Z-7.5000 I-55.3569 J-5.2237 F1080.00
G3 X10.2844 Y529.6699 Z-7.5000 I-41.4786 J-17.9978 F1080.00
G3 X-1.3461 Y537.3392 Z-7.5000 I-33.3717 J-37.9544 F1080.00
G2 X0.0000 Y543.0203 Z-7.5000 I1.3461 J2.6811 F1080.00
G1 X40.0000 Y543.0203 Z-7.5000 F1080.00
G2 X42.5981 Y541.5203 Z-7.5000 I-0.0000 J-3.0000 F1080.00
G1 X53.2990 Y522.9857 Z-7.5000 F1080.00
G1 X53.2990 Y522.9857 Z-8.2500 F1080.00
G1 X87.5981 Y463.5780 Z-8.2500 F1080.00
G2 X86.9507 Y459.7989 Z-8.2500 I-2.5981 J-1.5000 F1080.00
G3 X73.9455 Y431.4272 Z-8.2500 I22.3023 J-27.3897 F1080.00
G2 X74.3100 Y430.0000 Z-8.2500 I-2.5701 J-1.4166 F1080.00
G1 X74.3100 Y0.0000 Z-8.2500 F1080.00
G2 X71.3100 Y-3.0000 Z-8.2500 I-3.0000 J0.0000 F1080.00
G1 X39.0000 Y-3.0000 Z-8.2500 F1080.00
G2 X36.0000 Y0.0000 Z-8.2500 I0.0000 J3.0000 F1080.00
G1 X36.0000 Y430.0000 Z-8.2500 F1080.00
G3 X23.0493 Y459.7989 Z-8.2500 I-35.3039 J2.3704 F1080.00
G2 X22.1632 Y463.0541 Z-8.2500 I1.9507 J2.2792 F1080.00
G1 X22.8385 Y465.0168 Z-8.2500 F1080.00
G3 X26.1216 Y496.7543 Z-8.2500 I-74.2039 J23.7145 F1080.00
G3 X21.6533 Y513.9363 Z-8.2500 I-55.3569 J-5.2237 F1080.00
G3 X10.2844 Y529.6699 Z-8.2500 I-41.4786 J-17.9978 F1080.00
G3 X-1.3461 Y537.3392 Z-8.2500 I-33.3717 J-37.9544 F1080.00
G2 X0.0000 Y543.0203 Z-8.2500 I1.3461 J2.6811 F1080.00
G1 X40.0000 Y543.0203 Z-8.2500 F1080.00
G2 X42.5981 Y541.5203 Z-8.2500 I-0.0000 J-3.0000 F1080.00
G1 X53.2990 Y522.9857 Z-8.2500 F1080.00
G1 X53.2990 Y522.9857 Z-9.0000 F1080.00
G1 X87.5981 Y463.5780 Z-9.0000 F1080.00
G2 X86.9507 Y459.7989 Z-9.0000 I-2.5981 J-1.5000 F1080.00
G3 X73.9455 Y431.4272 Z-9.0000 I22.3023 J-27.3897 F1080.00
G2 X74.3100 Y430.0000 Z-9.0000 I-2.5701 J-1.4166 F1080.00
G1 X74.3100 Y0.0000 Z-9.0000 F1080.00
G2 X71.3100 Y-3.0000 Z-9.0000 I-3.0000 J0.0000 F1080.00
G1 X39.0000 Y-3.0000 Z-9.0000 F1080.00
G2 X36.0000 Y0.0000 Z-9.0000 I0.0000 J3.0000 F1080.00
G1 X36.0000 Y430.0000 Z-9.0000 F1080.00
G3 X23.0493 Y459.7989 Z-9.0000 I-35.3039 J2.3704 F1080.00
G2 X22.1632 Y463.0541 Z-9.0000 I1.9507 J2.2792 F1080.00
G1 X22.8385 Y465.0168 Z-9.0000 F1080.00
G3 X26.1216 Y496.7543 Z-9.0000 I-74.2039 J23.7145 F1080.00
G3 X21.6533 Y513.9363 Z-9.0000 I-55.3569 J-5.2237 F1080.00
G3 X10.2844 Y529.6699 Z-9.0000 I-41.4786 J-17.9978 F1080.00
G3 X-1.3461 Y537.3392 Z-9.0000 I-33.3717 J-37.9544 F1080.00
G2 X0.0000 Y543.0203 Z-9.0000 I1.3461 J2.6811 F1080.00
G1 X40.0000 Y543.0203 Z-9.0000 F1080.00
G2 X42.5981 Y541.5203 Z-9.0000 I-0.0000 J-3.0000 F1080.00
G1 X53.2990 Y522.9857 Z-9.0000 F1080.00
G1 X53.2990 Y522.9857 Z-9.7500 F1080.00
G1 X87.5981 Y463.5780 Z-9.7500 F1080.00
G2 X86.9507 Y459.7989 Z-9.7500 I-2.5981 J-1.5000 F1080.00
G3 X73.9455 Y431.4272 Z-9.7500 I22.3023 J-27.3897 F1080.00
G2 X74.3100 Y430.0000 Z-9.7500 I-2.5701 J-1.4166 F1080.00
G1 X74.3100 Y0.0000 Z-9.7500 F1080.00
G2 X71.3100 Y-3.0000 Z-9.7500 I-3.0000 J0.0000 F1080.00
G1 X39.0000 Y-3.0000 Z-9.7500 F1080.00
G2 X36.0000 Y0.0000 Z-9.7500 I0.0000 J3.0000 F1080.00
G1 X36.0000 Y430.0000 Z-9.7500 F1080.00
G3 X23.0493 Y459.7989 Z-9.7500 I-35.3039 J2.3704 F1080.00
G2 X22.1632 Y463.0541 Z-9.7500 I1.9507 J2.2792 F1080.00
G1 X22.8385 Y465.0168 Z-9.7500 F1080.00
G3 X26.1216 Y496.7543 Z-9.7500 I-74.2039 J23.7145 F1080.00
G3 X21.6533 Y513.9363 Z-9.7500 I-55.3569 J-5.2237 F1080.00
G3 X10.2844 Y529.6699 Z-9.7500 I-41.4786 J-17.9978 F1080.00
G3 X-1.3461 Y537.3392 Z-9.7500 I-33.3717 J-37.9544 F1080.00
G2 X0.0000 Y543.0203 Z-9.7500 I1.3461 J2.6811 F1080.00
G1 X40.0000 Y543.0203 Z-9.7500 F1080.00
G2 X42.5981 Y541.5203 Z-9.7500 I-0.0000 J-3.0000 F1080.00
G1 X53.2990 Y522.9857 Z-9.7500 F1080.00
G1 X53.2990 Y522.9857 Z-10.5000 F1080.00
G1 X87.5981 Y463.5780 Z-10.5000 F1080.00
G2 X86.9507 Y459.7989 Z-10.5000 I-2.5981 J-1.5000 F1080.00
G3 X73.9455 Y431.4272 Z-10.5000 I22.3023 J-27.3897 F1080.00
G2 X74.3100 Y430.0000 Z-10.5000 I-2.5701 J-1.4166 F1080.00
G1 X74.3100 Y0.0000 Z-10.5000 F1080.00
G2 X71.3100 Y-3.0000 Z-10.5000 I-3.0000 J0.0000 F1080.00
G1 X39.0000 Y-3.0000 Z-10.5000 F1080.00
G2 X36.0000 Y0.0000 Z-10.5000 I0.0000 J3.0000 F1080.00
G1 X36.0000 Y430.0000 Z-10.5000 F1080.00
G3 X23.0493 Y459.7989 Z-10.5000 I-35.3039 J2.3704 F1080.00
G2 X22.1632 Y463.0541 Z-10.5000 I1.9507 J2.2792 F1080.00
G1 X22.8385 Y465.0168 Z-10.5000 F1080.00
G3 X26.1216 Y496.7543 Z-10.5000 I-74.2039 J23.7145 F1080.00
G3 X21.6533 Y513.9363 Z-10.5000 I-55.3569 J-5.2237 F1080.00
G3 X10.2844 Y529.6699 Z-10.5000 I-41.4786 J-17.9978 F1080.00
G3 X-1.3461 Y537.3392 Z-10.5000 I-33.3717 J-37.9544 F1080.00
G2 X0.0000 Y543.0203 Z-10.5000 I1.3461 J2.6811 F1080.00
G1 X40.0000 Y543.0203 Z-10.5000 F1080.00
G2 X42.5981 Y541.5203 Z-10.5000 I-0.0000 J-3.0000 F1080.00
G1 X53.2990 Y522.9857 Z-10.5000 F1080.00
G1 X53.2990 Y522.9857 Z-11.2500 F1080.00
G1 X87.5981 Y463.5780 Z-11.2500 F1080.00
G2 X86.9507 Y459.7989 Z-11.2500 I-2.5981 J-1.5000 F1080.00
G3 X73.9455 Y431.4272 Z-11.2500 I22.3023 J-27.3897 F1080.00
G2 X74.3100 Y430.0000 Z-11.2500 I-2.5701 J-1.4166 F1080.00
G1 X74.3100 Y0.0000 Z-11.2500 F1080.00
G2 X71.3100 Y-3.0000 Z-11.2500 I-3.0000 J0.0000 F1080.00
G1 X39.0000 Y-3.0000 Z-11.2500 F1080.00
G2 X36.0000 Y0.0000 Z-11.2500 I0.0000 J3.0000 F1080.00
G1 X36.0000 Y430.0000 Z-11.2500 F1080.00
G3 X23.0493 Y459.7989 Z-11.2500 I-35.3039 J2.3704 F1080.00
G2 X22.1632 Y463.0541 Z-11.2500 I1.9507 J2.2792 F1080.00
G1 X22.8385 Y465.0168 Z-11.2500 F1080.00
G3 X26.1216 Y496.7543 Z-11.2500 I-74.2039 J23.7145 F1080.00
G3 X21.6533 Y513.9363 Z-11.2500 I-55.3569 J-5.2237 F1080.00
G3 X10.2844 Y529.6699 Z-11.2500 I-41.4786 J-17.9978 F1080.00
G3 X-1.3461 Y537.3392 Z-11.2500 I-33.3717 J-37.9544 F1080.00
G2 X0.0000 Y543.0203 Z-11.2500 I1.3461 J2.6811 F1080.00
G1 X40.0000 Y543.0203 Z-11.2500 F1080.00
G2 X42.5981 Y541.5203 Z-11.2500 I-0.0000 J-3.0000 F1080.00
G1 X53.2990 Y522.9857 Z-11.2500 F1080.00
G1 X53.2990 Y522.9857 Z-12.0000 F1080.00
G1 X87.5981 Y463.5780 Z-12.0000 F1080.00
G2 X86.9507 Y459.7989 Z-12.0000 I-2.5981 J-1.5000 F1080.00
G3 X73.9455 Y431.4272 Z-12.0000 I22.3023 J-27.3897 F1080.00
G2 X74.3100 Y430.0000 Z-12.0000 I-2.5701 J-1.4166 F1080.00
G1 X74.3100 Y0.0000 Z-12.0000 F1080.00
G2 X71.3100 Y-3.0000 Z-12.0000 I-3.0000 J0.0000 F1080.00
G1 X39.0000 Y-3.0000 Z-12.0000 F1080.00
G2 X36.0000 Y0.0000 Z-12.0000 I0.0000 J3.0000 F1080.00
G1 X36.0000 Y430.0000 Z-12.0000 F1080.00
G3 X23.0493 Y459.7989 Z-12.0000 I-35.3039 J2.3704 F1080.00
G2 X22.1632 Y463.0541 Z-12.0000 I1.9507 J2.2792 F1080.00
G1 X22.8385 Y465.0168 Z-12.0000 F1080.00
G3 X26.1216 Y496.7543 Z-12.0000 I-74.2039 J23.7145 F1080.00
G3 X21.6533 Y513.9363 Z-12.0000 I-55.3569 J-5.2237 F1080.00
G3 X10.2844 Y529.6699 Z-12.0000 I-41.4786 J-17.9978 F1080.00
G3 X-1.3461 Y537.3392 Z-12.0000 I-33.3717 J-37.9544 F1080.00
G2 X0.0000 Y543.0203 Z-12.0000 I1.3461 J2.6811 F1080.00
G1 X40.0000 Y543.0203 Z-12.0000 F1080.00
G2 X42.5981 Y541.5203 Z-12.0000 I-0.0000 J-3.0000 F1080.00
G1 X53.2990 Y522.9857 Z-12.0000 F1080.00
G1 X53.2990 Y522.9857 Z-12.7500 F1080.00
G1 X87.5981 Y463.5780 Z-12.7500 F1080.00
G2 X86.9507 Y459.7989 Z-12.7500 I-2.5981 J-1.5000 F1080.00
G3 X73.9455 Y431.4272 Z-12.7500 I22.3023 J-27.3897 F1080.00
G2 X74.3100 Y430.0000 Z-12.7500 I-2.5701 J-1.4166 F1080.00
G1 X74.3100 Y0.0000 Z-12.7500 F1080.00
G2 X71.3100 Y-3.0000 Z-12.7500 I-3.0000 J0.0000 F1080.00
G1 X39.0000 Y-3.0000 Z-12.7500 F1080.00
G2 X36.0000 Y0.0000 Z-12.7500 I0.0000 J3.0000 F1080.00
G1 X36.0000 Y430.0000 Z-12.7500 F1080.00
G3 X23.0493 Y459.7989 Z-12.7500 I-35.3039 J2.3704 F1080.00
G2 X22.1632 Y463.0541 Z-12.7500 I1.9507 J2.2792 F1080.00
G1 X22.8385 Y465.0168 Z-12.7500 F1080.00
G3 X26.1216 Y496.7543 Z-12.7500 I-74.2039 J23.7145 F1080.00
G3 X21.6533 Y513.9363 Z-12.7500 I-55.3569 J-5.2237 F1080.00
G3 X10.2844 Y529.6699 Z-12.7500 I-41.4786 J-17.9978 F1080.00
G3 X-1.3461 Y537.3392 Z-12.7500 I-33.3717 J-37.9544 F1080.00
G2 X0.0000 Y543.0203 Z-12.7500 I1.3461 J2.6811 F1080.00
G1 X40.0000 Y543.0203 Z-12.7500 F1080.00
G2 X42.5981 Y541.5203 Z-12.7500 I-0.0000 J-3.0000 F1080.00
G1 X53.2990 Y522.9857 Z-12.7500 F1080.00
G1 X53.2990 Y522.9857 Z-13.5000 F1080.00
G1 X87.5981 Y463.5780 Z-13.5000 F1080.00
G2 X86.9507 Y459.7989 Z-13.5000 I-2.5981 J-1.5000 F1080.00
G3 X73.9455 Y431.4272 Z-13.5000 I22.3023 J-27.3897 F1080.00
G2 X74.3100 Y430.0000 Z-13.5000 I-2.5701 J-1.4166 F1080.00
G1 X74.3100 Y0.0000 Z-13.5000 F1080.00
G2 X71.3100 Y-3.0000 Z-13.5000 I-3.0000 J0.0000 F1080.00
G1 X39.0000 Y-3.0000 Z-13.5000 F1080.00
G2 X36.0000 Y0.0000 Z-13.5000 I0.0000 J3.0000 F1080.00
G1 X36.0000 Y430.0000 Z-13.5000 F1080.00
G3 X23.0493 Y459.7989 Z-13.5000 I-35.3039 J2.3704 F1080.00
G2 X22.1632 Y463.0541 Z-13.5000 I1.9507 J2.2792 F1080.00
G1 X22.8385 Y465.0168 Z-13.5000 F1080.00
G3 X26.1216 Y496.7543 Z-13.5000 I-74.2039 J23.7145 F1080.00
G3 X21.6533 Y513.9363 Z-13.5000 I-55.3569 J-5.2237 F1080.00
G3 X10.2844 Y529.6699 Z-13.5000 I-41.4786 J-17.9978 F1080.00
G3 X-1.3461 Y537.3392 Z-13.5000 I-33.3717 J-37.9544 F1080.00
G2 X0.0000 Y543.0203 Z-13.5000 I1.3461 J2.6811 F1080.00
G1 X40.0000 Y543.0203 Z-13.5000 F1080.00
G2 X42.5981 Y541.5203 Z-13.5000 I-0.0000 J-3.0000 F1080.00
G1 X53.2990 Y522.9857 Z-13.5000 F1080.00
G1 X53.2990 Y522.9857 Z-14.2500 F1080.00
G1 X87.5981 Y463.5780 Z-14.2500 F1080.00
G2 X86.9507 Y459.7989 Z-14.2500 I-2.5981 J-1.5000 F1080.00
G3 X73.9455 Y431.4272 Z-14.2500 I22.3023 J-27.3897 F1080.00
G2 X74.3100 Y430.0000 Z-14.2500 I-2.5701 J-1.4166 F1080.00
G1 X74.3100 Y0.0000 Z-14.2500 F1080.00
G2 X71.3100 Y-3.0000 Z-14.2500 I-3.0000 J0.0000 F1080.00
G1 X39.0000 Y-3.0000 Z-14.2500 F1080.00
G2 X36.0000 Y0.0000 Z-14.2500 I0.0000 J3.0000 F1080.00
G1 X36.0000 Y430.0000 Z-14.2500 F1080.00
G3 X23.0493 Y459.7989 Z-14.2500 I-35.3039 J2.3704 F1080.00
G2 X22.1632 Y463.0541 Z-14.2500 I1.9507 J2.2792 F1080.00
G1 X22.8385 Y465.0168 Z-14.2500 F1080.00
G3 X26.1216 Y496.7543 Z-14.2500 I-74.2039 J23.7145 F1080.00
G3 X21.6533 Y513.9363 Z-14.2500 I-55.3569 J-5.2237 F1080.00
G3 X10.2844 Y529.6699 Z-14.2500 I-41.4786 J-17.9978 F1080.00
G3 X-1.3461 Y537.3392 Z-14.2500 I-33.3717 J-37.9544 F1080.00
G2 X0.0000 Y543.0203 Z-14.2500 I1.3461 J2.6811 F1080.00
G1 X40.0000 Y543.0203 Z-14.2500 F1080.00
G2 X42.5981 Y541.5203 Z-14.2500 I-0.0000 J-3.0000 F1080.00
G1 X53.2990 Y522.9857 Z-14.2500 F1080.00
G1 X53.2990 Y522.9857 Z-15.0000 F1080.00
G1 X87.5981 Y463.5780 Z-15.0000 F1080.00
G2 X86.9507 Y459.7989 Z-15.0000 I-2.5981 J-1.5000 F1080.00
G3 X73.9455 Y431.4272 Z-15.0000 I22.3023 J-27.3897 F1080.00
G2 X74.3100 Y430.0000 Z-15.0000 I-2.5701 J-1.4166 F1080.00
G1 X74.3100 Y0.0000 Z-15.0000 F1080.00
G2 X71.3100 Y-3.0000 Z-15.0000 I-3.0000 J0.0000 F1080.00
G1 X39.0000 Y-3.0000 Z-15.0000 F1080.00
G2 X36.0000 Y0.0000 Z-15.0000 I0.0000 J3.0000 F1080.00
G1 X36.0000 Y430.0000 Z-15.0000 F1080.00
G3 X23.0493 Y459.7989 Z-15.0000 I-35.3039 J2.3704 F1080.00
G2 X22.1632 Y463.0541 Z-15.0000 I1.9507 J2.2792 F1080.00
G1 X22.8385 Y465.0168 Z-15.0000 F1080.00
G3 X26.1216 Y496.7543 Z-15.0000 I-74.2039 J23.7145 F1080.00
G3 X21.6533 Y513.9363 Z-15.0000 I-55.3569 J-5.2237 F1080.00
G3 X10.2844 Y529.6699 Z-15.0000 I-41.4786 J-17.9978 F1080.00
G3 X-1.3461 Y537.3392 Z-15.0000 I-33.3717 J-37.9544 F1080.00
G2 X0.0000 Y543.0203 Z-15.0000 I1.3461 J2.6811 F1080.00
G1 X40.0000 Y543.0203 Z-15.0000 F1080.00
G2 X42.5981 Y541.5203 Z-15.0000 I-0.0000 J-3.0000 F1080.00
G1 X53.2990 Y522.9857 Z-15.0000 F1080.00
G1 X53.2990 Y522.9857 Z-15.7500 F1080.00
G1 X87.5981 Y463.5780 Z-15.7500 F1080.00
G2 X86.9507 Y459.7989 Z-15.7500 I-2.5981 J-1.5000 F1080.00
G3 X73.9455 Y431.4272 Z-15.7500 I22.3023 J-27.3897 F1080.00
G2 X74.3100 Y430.0000 Z-15.7500 I-2.5701 J-1.4166 F1080.00
G1 X74.3100 Y0.0000 Z-15.7500 F1080.00
G2 X71.3100 Y-3.0000 Z-15.7500 I-3.0000 J0.0000 F1080.00
G1 X39.0000 Y-3.0000 Z-15.7500 F1080.00
G2 X36.0000 Y0.0000 Z-15.7500 I0.0000 J3.0000 F1080.00
G1 X36.0000 Y430.0000 Z-15.7500 F1080.00
G3 X23.0493 Y459.7989 Z-15.7500 I-35.3039 J2.3704 F1080.00
G2 X22.1632 Y463.0541 Z-15.7500 I1.9507 J2.2792 F1080.00
G1 X22.8385 Y465.0168 Z-15.7500 F1080.00
G3 X26.1216 Y496.7543 Z-15.7500 I-74.2039 J23.7145 F1080.00
G3 X21.6533 Y513.9363 Z-15.7500 I-55.3569 J-5.2237 F1080.00
G3 X10.2844 Y529.6699 Z-15.7500 I-41.4786 J-17.9978 F1080.00
G3 X-1.3461 Y537.3392 Z-15.7500 I-33.3717 J-37.9544 F1080.00
G2 X0.0000 Y543.0203 Z-15.7500 I1.3461 J2.6811 F1080.00
G1 X40.0000 Y543.0203 Z-15.7500 F1080.00
G2 X42.5981 Y541.5203 Z-15.7500 I-0.0000 J-3.0000 F1080.00
G1 X53.2990 Y522.9857 Z-15.7500 F1080.00
G1 X53.2990 Y522.9857 Z-16.5000 F1080.00
G1 X87.5981 Y463.5780 Z-16.5000 F1080.00
G2 X86.9507 Y459.7989 Z-16.5000 I-2.5981 J-1.5000 F1080.00
G3 X73.9455 Y431.4272 Z-16.5000 I22.3023 J-27.3897 F1080.00
G2 X74.3100 Y430.0000 Z-16.5000 I-2.5701 J-1.4166 F1080.00
G1 X74.3100 Y0.0000 Z-16.5000 F1080.00
G2 X71.3100 Y-3.0000 Z-16.5000 I-3.0000 J0.0000 F1080.00
G1 X39.0000 Y-3.0000 Z-16.5000 F1080.00
G2 X36.0000 Y0.0000 Z-16.5000 I0.0000 J3.0000 F1080.00
G1 X36.0000 Y430.0000 Z-16.5000 F1080.00
G3 X23.0493 Y459.7989 Z-16.5000 I-35.3039 J2.3704 F1080.00
G2 X22.1632 Y463.0541 Z-16.5000 I1.9507 J2.2792 F1080.00
G1 X22.8385 Y465.0168 Z-16.5000 F1080.00
G3 X26.1216 Y496.7543 Z-16.5000 I-74.2039 J23.7145 F1080.00
G3 X21.6533 Y513.9363 Z-16.5000 I-55.3569 J-5.2237 F1080.00
G3 X10.2844 Y529.6699 Z-16.5000 I-41.4786 J-17.9978 F1080.00
G3 X-1.3461 Y537.3392 Z-16.5000 I-33.3717 J-37.9544 F1080.00
G2 X0.0000 Y543.0203 Z-16.5000 I1.3461 J2.6811 F1080.00
G1 X40.0000 Y543.0203 Z-16.5000 F1080.00
G2 X42.5981 Y541.5203 Z-16.5000 I-0.0000 J-3.0000 F1080.00
G1 X53.2990 Y522.9857 Z-16.5000 F1080.00
G1 X53.2990 Y522.9857 Z-17.2500 F1080.00
G1 X87.5981 Y463.5780 Z-17.2500 F1080.00
G2 X86.9507 Y459.7989 Z-17.2500 I-2.5981 J-1.5000 F1080.00
G3 X73.9455 Y431.4272 Z-17.2500 I22.3023 J-27.3897 F1080.00
G2 X74.3100 Y430.0000 Z-17.2500 I-2.5701 J-1.4166 F1080.00
G1 X74.3100 Y0.0000 Z-17.2500 F1080.00
G2 X71.3100 Y-3.0000 Z-17.2500 I-3.0000 J0.0000 F1080.00
G1 X39.0000 Y-3.0000 Z-17.2500 F1080.00
G2 X36.0000 Y0.0000 Z-17.2500 I0.0000 J3.0000 F1080.00
G1 X36.0000 Y430.0000 Z-17.2500 F1080.00
G3 X23.0493 Y459.7989 Z-17.2500 I-35.3039 J2.3704 F1080.00
G2 X22.1632 Y463.0541 Z-17.2500 I1.9507 J2.2792 F1080.00
G1 X22.8385 Y465.0168 Z-17.2500 F1080.00
G3 X26.1216 Y496.7543 Z-17.2500 I-74.2039 J23.7145 F1080.00
G3 X21.6533 Y513.9363 Z-17.2500 I-55.3569 J-5.2237 F1080.00
G3 X10.2844 Y529.6699 Z-17.2500 I-41.4786 J-17.9978 F1080.00
G3 X-1.3461 Y537.3392 Z-17.2500 I-33.3717 J-37.9544 F1080.00
G2 X0.0000 Y543.0203 Z-17.2500 I1.3461 J2.6811 F1080.00
G1 X40.0000 Y543.0203 Z-17.2500 F1080.00
G2 X42.5981 Y541.5203 Z-17.2500 I-0.0000 J-3.0000 F1080.00
G1 X53.2990 Y522.9857 Z-17.2500 F1080.00
G1 X53.2990 Y522.9857 Z-18.0000 F1080.00
G1 X87.5981 Y463.5780 Z-18.0000 F1080.00
G2 X86.9507 Y459.7989 Z-18.0000 I-2.5981 J-1.5000 F1080.00
G3 X73.9455 Y431.4272 Z-18.0000 I22.3023 J-27.3897 F1080.00
G2 X74.3100 Y430.0000 Z-18.0000 I-2.5701 J-1.4166 F1080.00
G1 X74.3100 Y0.0000 Z-18.0000 F1080.00
G2 X71.3100 Y-3.0000 Z-18.0000 I-3.0000 J0.0000 F1080.00
G1 X39.0000 Y-3.0000 Z-18.0000 F1080.00
G2 X36.0000 Y0.0000 Z-18.0000 I0.0000 J3.0000 F1080.00
G1 X36.0000 Y430.0000 Z-18.0000 F1080.00
G3 X23.0493 Y459.7989 Z-18.0000 I-35.3039 J2.3704 F1080.00
G2 X22.1632 Y463.0541 Z-18.0000 I1.9507 J2.2792 F1080.00
G1 X22.8385 Y465.0168 Z-18.0000 F1080.00
G3 X26.1216 Y496.7543 Z-18.0000 I-74.2039 J23.7145 F1080.00
G3 X21.6533 Y513.9363 Z-18.0000 I-55.3569 J-5.2237 F1080.00
G3 X10.2844 Y529.6699 Z-18.0000 I-41.4786 J-17.9978 F1080.00
G3 X-1.3461 Y537.3392 Z-18.0000 I-33.3717 J-37.9544 F1080.00
G2 X0.0000 Y543.0203 Z-18.0000 I1.3461 J2.6811 F1080.00
G1 X40.0000 Y543.0203 Z-18.0000 F1080.00
G2 X42.5981 Y541.5203 Z-18.0000 I-0.0000 J-3.0000 F1080.00
G1 X53.2990 Y522.9857 Z-18.0000 F1080.00
G1 X53.2990 Y522.9857 Z-18.7500 F1080.00
G1 X87.5981 Y463.5780 Z-18.7500 F1080.00
G2 X86.9507 Y459.7989 Z-18.7500 I-2.5981 J-1.5000 F1080.00
G3 X73.9455 Y431.4272 Z-18.7500 I22.3023 J-27.3897 F1080.00
G2 X74.3100 Y430.0000 Z-18.7500 I-2.5701 J-1.4166 F1080.00
G1 X74.3100 Y0.0000 Z-18.7500 F1080.00
G2 X71.3100 Y-3.0000 Z-18.7500 I-3.0000 J0.0000 F1080.00
G1 X39.0000 Y-3.0000 Z-18.7500 F1080.00
G2 X36.0000 Y0.0000 Z-18.7500 I0.0000 J3.0000 F1080.00
G1 X36.0000 Y430.0000 Z-18.7500 F1080.00
G3 X23.0493 Y459.7989 Z-18.7500 I-35.3039 J2.3704 F1080.00
G2 X22.1632 Y463.0541 Z-18.7500 I1.9507 J2.2792 F1080.00
G1 X22.8385 Y465.0168 Z-18.7500 F1080.00
G3 X26.1216 Y496.7543 Z-18.7500 I-74.2039 J23.7145 F1080.00
G3 X21.6533 Y513.9363 Z-18.7500 I-55.3569 J-5.2237 F1080.00
G3 X10.2844 Y529.6699 Z-18.7500 I-41.4786 J-17.9978 F1080.00
G3 X-1.3461 Y537.3392 Z-18.7500 I-33.3717 J-37.9544 F1080.00
G2 X0.0000 Y543.0203 Z-18.7500 I1.3461 J2.6811 F1080.00
G1 X40.0000 Y543.0203 Z-18.7500 F1080.00
G2 X42.5981 Y541.5203 Z-18.7500 I-0.0000 J-3.0000 F1080.00
G1 X53.2990 Y522.9857 Z-18.7500 F1080.00
G1 X53.2990 Y522.9857 Z-19.0000 F1080.00
G1 X87.5981 Y463.5780 Z-19.0000 F1080.00
G2 X86.9507 Y459.7989 Z-19.0000 I-2.5981 J-1.5000 F1080.00
G3 X73.9455 Y431.4272 Z-19.0000 I22.3023 J-27.3897 F1080.00
G2 X74.3100 Y430.0000 Z-19.0000 I-2.5701 J-1.4166 F1080.00
G1 X74.3100 Y0.0000 Z-19.0000 F1080.00
G2 X71.3100 Y-3.0000 Z-19.0000 I-3.0000 J0.0000 F1080.00
G1 X39.0000 Y-3.0000 Z-19.0000 F1080.00
G2 X36.0000 Y0.0000 Z-19.0000 I0.0000 J3.0000 F1080.00
G1 X36.0000 Y430.0000 Z-19.0000 F1080.00
G3 X23.0493 Y459.7989 Z-19.0000 I-35.3039 J2.3704 F1080.00
G2 X22.1632 Y463.0541 Z-19.0000 I1.9507 J2.2792 F1080.00
G1 X22.8385 Y465.0168 Z-19.0000 F1080.00
G3 X26.1216 Y496.7543 Z-19.0000 I-74.2039 J23.7145 F1080.00
G3 X21.6533 Y513.9363 Z-19.0000 I-55.3569 J-5.2237 F1080.00
G3 X10.2844 Y529.6699 Z-19.0000 I-41.4786 J-17.9978 F1080.00
G3 X-1.3461 Y537.3392 Z-19.0000 I-33.3717 J-37.9544 F1080.00
G2 X0.0000 Y543.0203 Z-19.0000 I1.3461 J2.6811 F1080.00
G1 X40.0000 Y543.0203 Z-19.0000 F1080.00
G2 X42.5981 Y541.5203 Z-19.0000 I-0.0000 J-3.0000 F1080.00
G1 X53.2990 Y522.9857 Z-19.0000 F1080.00
G0 Z5.0000
(finish operation: Contour)
(begin postamble)
M5
G17 G90
; M2
