(Exported by FreeCAD)
(Post Processor: grbl_post)
(Output Time:2021-11-28 03:41:03.358424)
(begin preamble)
G17 G90
G21
(begin operation: T2: 1/4inENDMILL005)
(Path: T2: 1/4inENDMILL005)
(T2: 1/4inENDMILL005)
(begin toolchange)
; M6 T2
M3 S0.0000
(finish operation: T2: 1/4inENDMILL005)
(begin operation: Pocket_Shape)
(Path: Pocket_Shape)
(Pocket_Shape)
G0 Z5.0000
G0 X65.0737 Y134.8873
G0 Z3.0000
G1 X65.0737 Y134.8873 Z-0.7500 F1080.00
G2 X65.4047 Y134.4738 Z-0.7500 I-5.3958 J-4.6588 F1080.00
G2 X67.5260 Y129.3623 Z-0.7500 I-10.0293 J-7.1582 F1080.00
G2 X67.8725 Y122.4797 Z-0.7500 I-25.3280 J-4.7252 F1080.00
G2 X65.5737 Y111.1236 Z-0.7500 I-48.9042 J3.9890 F1080.00
G2 X50.2345 Y84.2534 Z-0.7500 I-74.1324 J24.5059 F1080.00
G2 X39.3662 Y74.5483 Z-0.7500 I-42.0453 J36.1466 F1080.00
G2 X33.1568 Y71.3588 Z-0.7500 I-16.3692 J24.2296 F1080.00
G2 X26.9349 Y70.4158 Z-0.7500 I-5.1939 J13.2710 F1080.00
G2 X21.8156 Y73.2717 Z-0.7500 I0.6064 J7.1030 F1080.00
G2 X19.6936 Y78.3822 Z-0.7500 I10.0242 J7.1582 F1080.00
G2 X19.3464 Y85.2648 Z-0.7500 I25.3209 J4.7275 F1080.00
G2 X21.6447 Y96.6214 Z-0.7500 I48.8986 J-3.9852 F1080.00
G2 X36.9838 Y123.4929 Z-0.7500 I74.1325 J-24.5033 F1080.00
G2 X47.8524 Y133.1986 Z-0.7500 I42.0471 J-36.1471 F1080.00
G2 X54.0621 Y136.3882 Z-0.7500 I16.3701 J-24.2301 F1080.00
G2 X60.2847 Y137.3313 Z-0.7500 I5.1941 J-13.2707 F1080.00
G2 X65.0737 Y134.8873 Z-0.7500 I-0.6068 J-7.1029 F1080.00
G0 X65.0737 Y134.8873 Z5.0000
G0 X64.6708 Y135.3133 Z5.0000
G0 X64.6708 Y135.3133 Z2.2500
G1 X64.6708 Y135.3133 Z-0.7500 F1080.00
G3 X59.6993 Y137.3769 Z-0.7500 I-5.0838 J-5.2273 F1080.00
G3 X55.1738 Y136.7493 Z-0.7500 I-0.3750 J-13.9257 F1080.00
G1 X67.9401 Y123.9829 Z-0.7500 F1080.00
G2 X67.0710 Y116.7910 Z-0.7500 I-39.6107 J1.1384 F1080.00
G1 X49.5942 Y134.2678 Z-0.7500 F1080.00
G3 X44.8094 Y130.9916 Z-0.7500 I19.6367 J-33.8119 F1080.00
G1 X65.3505 Y110.4505 Z-0.7500 F1080.00
G2 X63.1178 Y104.6222 Z-0.7500 I-62.7997 J20.7158 F1080.00
G1 X40.5219 Y127.2181 Z-0.7500 F1080.00
G3 X36.6149 Y123.0640 Z-0.7500 I43.5622 J-44.8859 F1080.00
G1 X60.4940 Y99.1850 Z-0.7500 F1080.00
G2 X57.5370 Y94.0809 Z-0.7500 I-68.1423 J36.0687 F1080.00
G1 X33.0353 Y118.5826 Z-0.7500 F1080.00
G3 X29.7621 Y113.7948 Z-0.7500 I61.4844 J-45.5469 F1080.00
G1 X54.2719 Y89.2851 Z-0.7500 F1080.00
G2 X50.7006 Y84.7953 Z-0.7500 I-56.6058 J41.3602 F1080.00
G1 X26.7969 Y108.6990 Z-0.7500 F1080.00
G3 X24.1640 Y103.2709 Z-0.7500 I65.1255 J-34.9412 F1080.00
G1 X46.8029 Y80.6320 Z-0.7500 F1080.00
G2 X42.5268 Y76.8471 Z-0.7500 I-35.9448 J36.3029 F1080.00
G1 X21.9205 Y97.4534 Z-0.7500 F1080.00
G3 X20.1858 Y91.1271 Z-0.7500 I52.3137 J-17.7459 F1080.00
G1 X37.7573 Y73.5556 Z-0.7500 F1080.00
G2 X32.2054 Y71.0465 Z-0.7500 I-13.0445 J21.4665 F1080.00
G1 X19.2847 Y83.9671 Z-0.7500 F1080.00
G3 X20.3970 Y75.8962 Z-0.7500 I21.2304 J-1.1863 F1080.00
G3 X21.5644 Y73.6264 Z-0.7500 I9.5533 J3.4785 F1080.00
G1 X23.6256 Y71.5652 Z-0.7500 F1080.00
G2 X21.5644 Y73.6264 Z-0.7500 I3.9905 J6.0517 F1080.00
G1 X21.5644 Y73.6264 Z-1.5000 F1080.00
G3 X23.6256 Y71.5652 Z-1.5000 I6.0517 J3.9905 F1080.00
G1 X21.5644 Y73.6264 Z-1.5000 F1080.00
G2 X20.3970 Y75.8962 Z-1.5000 I8.3859 J5.7483 F1080.00
G2 X19.2847 Y83.9671 Z-1.5000 I20.1181 J6.8846 F1080.00
G1 X32.2054 Y71.0465 Z-1.5000 F1080.00
G3 X37.7573 Y73.5556 Z-1.5000 I-7.4926 J23.9756 F1080.00
G1 X20.1858 Y91.1271 Z-1.5000 F1080.00
G2 X21.9205 Y97.4534 Z-1.5000 I54.0484 J-11.4196 F1080.00
G1 X42.5268 Y76.8471 Z-1.5000 F1080.00
G3 X46.8029 Y80.6320 Z-1.5000 I-31.6686 J40.0878 F1080.00
G1 X24.1640 Y103.2709 Z-1.5000 F1080.00
G2 X26.7969 Y108.6990 Z-1.5000 I67.7584 J-29.5131 F1080.00
G1 X50.7006 Y84.7953 Z-1.5000 F1080.00
G3 X54.2719 Y89.2851 Z-1.5000 I-53.0345 J45.8499 F1080.00
G1 X29.7621 Y113.7948 Z-1.5000 F1080.00
G2 X33.0353 Y118.5826 Z-1.5000 I64.7576 J-40.7591 F1080.00
G1 X57.5370 Y94.0809 Z-1.5000 F1080.00
G3 X60.4940 Y99.1850 Z-1.5000 I-65.1853 J41.1728 F1080.00
G1 X36.6149 Y123.0640 Z-1.5000 F1080.00
G2 X40.5219 Y127.2181 Z-1.5000 I47.4692 J-40.7319 F1080.00
G1 X63.1178 Y104.6222 Z-1.5000 F1080.00
G3 X65.3505 Y110.4505 Z-1.5000 I-60.5669 J26.5441 F1080.00
G1 X44.8094 Y130.9916 Z-1.5000 F1080.00
G2 X49.5942 Y134.2678 Z-1.5000 I24.4216 J-30.5357 F1080.00
G1 X67.0710 Y116.7910 Z-1.5000 F1080.00
G3 X67.9401 Y123.9829 Z-1.5000 I-38.7415 J8.3303 F1080.00
G1 X55.1738 Y136.7493 Z-1.5000 F1080.00
G2 X59.6993 Y137.3769 Z-1.5000 I4.1506 J-13.2981 F1080.00
G2 X64.6708 Y135.3133 Z-1.5000 I-0.1123 J-7.2909 F1080.00
G0 X64.6708 Y135.3133 Z5.0000
G0 X64.6725 Y135.3150 Z5.0000
G0 X64.6725 Y135.3150 Z1.5000
G1 X64.6725 Y135.3150 Z-1.5000 F1080.00
G2 X65.4047 Y134.4738 Z-1.5000 I-4.9946 J-5.0866 F1080.00
G2 X67.5260 Y129.3623 Z-1.5000 I-10.0293 J-7.1582 F1080.00
G2 X67.8725 Y122.4797 Z-1.5000 I-25.3280 J-4.7252 F1080.00
G2 X65.5737 Y111.1236 Z-1.5000 I-48.9042 J3.9890 F1080.00
G2 X50.2345 Y84.2534 Z-1.5000 I-74.1324 J24.5059 F1080.00
G2 X39.3662 Y74.5483 Z-1.5000 I-42.0453 J36.1466 F1080.00
G2 X33.1568 Y71.3588 Z-1.5000 I-16.3692 J24.2296 F1080.00
G2 X26.9349 Y70.4158 Z-1.5000 I-5.1939 J13.2710 F1080.00
G2 X21.8156 Y73.2717 Z-1.5000 I0.6064 J7.1030 F1080.00
G2 X19.6936 Y78.3822 Z-1.5000 I10.0242 J7.1582 F1080.00
G2 X19.3464 Y85.2648 Z-1.5000 I25.3209 J4.7275 F1080.00
G2 X21.6447 Y96.6214 Z-1.5000 I48.8986 J-3.9852 F1080.00
G2 X36.9838 Y123.4929 Z-1.5000 I74.1325 J-24.5033 F1080.00
G2 X47.8524 Y133.1986 Z-1.5000 I42.0471 J-36.1471 F1080.00
G2 X54.0621 Y136.3882 Z-1.5000 I16.3701 J-24.2301 F1080.00
G2 X60.2847 Y137.3313 Z-1.5000 I5.1941 J-13.2707 F1080.00
G2 X64.6725 Y135.3150 Z-1.5000 I-0.6068 J-7.1029 F1080.00
G1 X64.6725 Y135.3150 Z-2.2500 F1080.00
G2 X65.4047 Y134.4738 Z-2.2500 I-4.9946 J-5.0866 F1080.00
G2 X67.5260 Y129.3623 Z-2.2500 I-10.0293 J-7.1582 F1080.00
G2 X67.8725 Y122.4797 Z-2.2500 I-25.3280 J-4.7252 F1080.00
G2 X65.5737 Y111.1236 Z-2.2500 I-48.9042 J3.9890 F1080.00
G2 X50.2345 Y84.2534 Z-2.2500 I-74.1324 J24.5059 F1080.00
G2 X39.3662 Y74.5483 Z-2.2500 I-42.0453 J36.1466 F1080.00
G2 X33.1568 Y71.3588 Z-2.2500 I-16.3692 J24.2296 F1080.00
G2 X26.9349 Y70.4158 Z-2.2500 I-5.1939 J13.2710 F1080.00
G2 X21.8156 Y73.2717 Z-2.2500 I0.6064 J7.1030 F1080.00
G2 X19.6936 Y78.3822 Z-2.2500 I10.0242 J7.1582 F1080.00
G2 X19.3464 Y85.2648 Z-2.2500 I25.3209 J4.7275 F1080.00
G2 X21.6447 Y96.6214 Z-2.2500 I48.8986 J-3.9852 F1080.00
G2 X36.9838 Y123.4929 Z-2.2500 I74.1325 J-24.5033 F1080.00
G2 X47.8524 Y133.1986 Z-2.2500 I42.0471 J-36.1471 F1080.00
G2 X54.0621 Y136.3882 Z-2.2500 I16.3701 J-24.2301 F1080.00
G2 X60.2847 Y137.3313 Z-2.2500 I5.1941 J-13.2707 F1080.00
G2 X64.6725 Y135.3150 Z-2.2500 I-0.6068 J-7.1029 F1080.00
G0 X64.6725 Y135.3150 Z5.0000
G0 X64.6708 Y135.3133 Z5.0000
G0 X64.6708 Y135.3133 Z0.7500
G1 X64.6708 Y135.3133 Z-2.2500 F1080.00
G3 X59.6993 Y137.3769 Z-2.2500 I-5.0838 J-5.2273 F1080.00
G3 X55.1738 Y136.7493 Z-2.2500 I-0.3750 J-13.9257 F1080.00
G1 X67.9401 Y123.9829 Z-2.2500 F1080.00
G2 X67.0710 Y116.7910 Z-2.2500 I-39.6107 J1.1384 F1080.00
G1 X49.5942 Y134.2678 Z-2.2500 F1080.00
G3 X44.8094 Y130.9916 Z-2.2500 I19.6367 J-33.8119 F1080.00
G1 X65.3505 Y110.4505 Z-2.2500 F1080.00
G2 X63.1178 Y104.6222 Z-2.2500 I-62.7997 J20.7158 F1080.00
G1 X40.5219 Y127.2181 Z-2.2500 F1080.00
G3 X36.6149 Y123.0640 Z-2.2500 I43.5622 J-44.8859 F1080.00
G1 X60.4940 Y99.1850 Z-2.2500 F1080.00
G2 X57.5370 Y94.0809 Z-2.2500 I-68.1423 J36.0687 F1080.00
G1 X33.0353 Y118.5826 Z-2.2500 F1080.00
G3 X29.7621 Y113.7948 Z-2.2500 I61.4844 J-45.5469 F1080.00
G1 X54.2719 Y89.2851 Z-2.2500 F1080.00
G2 X50.7006 Y84.7953 Z-2.2500 I-56.6058 J41.3602 F1080.00
G1 X26.7969 Y108.6990 Z-2.2500 F1080.00
G3 X24.1640 Y103.2709 Z-2.2500 I65.1255 J-34.9412 F1080.00
G1 X46.8029 Y80.6320 Z-2.2500 F1080.00
G2 X42.5268 Y76.8471 Z-2.2500 I-35.9448 J36.3029 F1080.00
G1 X21.9205 Y97.4534 Z-2.2500 F1080.00
G3 X20.1858 Y91.1271 Z-2.2500 I52.3137 J-17.7459 F1080.00
G1 X37.7573 Y73.5556 Z-2.2500 F1080.00
G2 X32.2054 Y71.0465 Z-2.2500 I-13.0445 J21.4665 F1080.00
G1 X19.2847 Y83.9671 Z-2.2500 F1080.00
G3 X20.3970 Y75.8962 Z-2.2500 I21.2304 J-1.1863 F1080.00
G3 X21.5644 Y73.6264 Z-2.2500 I9.5533 J3.4785 F1080.00
G1 X23.6256 Y71.5652 Z-2.2500 F1080.00
G2 X21.5644 Y73.6264 Z-2.2500 I3.9905 J6.0517 F1080.00
G1 X21.5644 Y73.6264 Z-3.0000 F1080.00
G3 X23.6256 Y71.5652 Z-3.0000 I6.0517 J3.9905 F1080.00
G1 X21.5644 Y73.6264 Z-3.0000 F1080.00
G2 X20.3970 Y75.8962 Z-3.0000 I8.3859 J5.7483 F1080.00
G2 X19.2847 Y83.9671 Z-3.0000 I20.1181 J6.8846 F1080.00
G1 X32.2054 Y71.0465 Z-3.0000 F1080.00
G3 X37.7573 Y73.5556 Z-3.0000 I-7.4926 J23.9756 F1080.00
G1 X20.1858 Y91.1271 Z-3.0000 F1080.00
G2 X21.9205 Y97.4534 Z-3.0000 I54.0484 J-11.4196 F1080.00
G1 X42.5268 Y76.8471 Z-3.0000 F1080.00
G3 X46.8029 Y80.6320 Z-3.0000 I-31.6686 J40.0878 F1080.00
G1 X24.1640 Y103.2709 Z-3.0000 F1080.00
G2 X26.7969 Y108.6990 Z-3.0000 I67.7584 J-29.5131 F1080.00
G1 X50.7006 Y84.7953 Z-3.0000 F1080.00
G3 X54.2719 Y89.2851 Z-3.0000 I-53.0345 J45.8499 F1080.00
G1 X29.7621 Y113.7948 Z-3.0000 F1080.00
G2 X33.0353 Y118.5826 Z-3.0000 I64.7576 J-40.7591 F1080.00
G1 X57.5370 Y94.0809 Z-3.0000 F1080.00
G3 X60.4940 Y99.1850 Z-3.0000 I-65.1853 J41.1728 F1080.00
G1 X36.6149 Y123.0640 Z-3.0000 F1080.00
G2 X40.5219 Y127.2181 Z-3.0000 I47.4692 J-40.7319 F1080.00
G1 X63.1178 Y104.6222 Z-3.0000 F1080.00
G3 X65.3505 Y110.4505 Z-3.0000 I-60.5669 J26.5441 F1080.00
G1 X44.8094 Y130.9916 Z-3.0000 F1080.00
G2 X49.5942 Y134.2678 Z-3.0000 I24.4216 J-30.5357 F1080.00
G1 X67.0710 Y116.7910 Z-3.0000 F1080.00
G3 X67.9401 Y123.9829 Z-3.0000 I-38.7415 J8.3303 F1080.00
G1 X55.1738 Y136.7493 Z-3.0000 F1080.00
G2 X59.6993 Y137.3769 Z-3.0000 I4.1506 J-13.2981 F1080.00
G2 X64.6708 Y135.3133 Z-3.0000 I-0.1123 J-7.2909 F1080.00
G0 X64.6708 Y135.3133 Z5.0000
G0 X64.6725 Y135.3150 Z5.0000
G0 X64.6725 Y135.3150 Z-0.0000
G1 X64.6725 Y135.3150 Z-3.0000 F1080.00
G2 X65.4047 Y134.4738 Z-3.0000 I-4.9946 J-5.0866 F1080.00
G2 X67.5260 Y129.3623 Z-3.0000 I-10.0293 J-7.1582 F1080.00
G2 X67.8725 Y122.4797 Z-3.0000 I-25.3280 J-4.7252 F1080.00
G2 X65.5737 Y111.1236 Z-3.0000 I-48.9042 J3.9890 F1080.00
G2 X50.2345 Y84.2534 Z-3.0000 I-74.1324 J24.5059 F1080.00
G2 X39.3662 Y74.5483 Z-3.0000 I-42.0453 J36.1466 F1080.00
G2 X33.1568 Y71.3588 Z-3.0000 I-16.3692 J24.2296 F1080.00
G2 X26.9349 Y70.4158 Z-3.0000 I-5.1939 J13.2710 F1080.00
G2 X21.8156 Y73.2717 Z-3.0000 I0.6064 J7.1030 F1080.00
G2 X19.6936 Y78.3822 Z-3.0000 I10.0242 J7.1582 F1080.00
G2 X19.3464 Y85.2648 Z-3.0000 I25.3209 J4.7275 F1080.00
G2 X21.6447 Y96.6214 Z-3.0000 I48.8986 J-3.9852 F1080.00
G2 X36.9838 Y123.4929 Z-3.0000 I74.1325 J-24.5033 F1080.00
G2 X47.8524 Y133.1986 Z-3.0000 I42.0471 J-36.1471 F1080.00
G2 X54.0621 Y136.3882 Z-3.0000 I16.3701 J-24.2301 F1080.00
G2 X60.2847 Y137.3313 Z-3.0000 I5.1941 J-13.2707 F1080.00
G2 X64.6725 Y135.3150 Z-3.0000 I-0.6068 J-7.1029 F1080.00
G1 X64.6725 Y135.3150 Z-3.7500 F1080.00
G2 X65.4047 Y134.4738 Z-3.7500 I-4.9946 J-5.0866 F1080.00
G2 X67.5260 Y129.3623 Z-3.7500 I-10.0293 J-7.1582 F1080.00
G2 X67.8725 Y122.4797 Z-3.7500 I-25.3280 J-4.7252 F1080.00
G2 X65.5737 Y111.1236 Z-3.7500 I-48.9042 J3.9890 F1080.00
G2 X50.2345 Y84.2534 Z-3.7500 I-74.1324 J24.5059 F1080.00
G2 X39.3662 Y74.5483 Z-3.7500 I-42.0453 J36.1466 F1080.00
G2 X33.1568 Y71.3588 Z-3.7500 I-16.3692 J24.2296 F1080.00
G2 X26.9349 Y70.4158 Z-3.7500 I-5.1939 J13.2710 F1080.00
G2 X21.8156 Y73.2717 Z-3.7500 I0.6064 J7.1030 F1080.00
G2 X19.6936 Y78.3822 Z-3.7500 I10.0242 J7.1582 F1080.00
G2 X19.3464 Y85.2648 Z-3.7500 I25.3209 J4.7275 F1080.00
G2 X21.6447 Y96.6214 Z-3.7500 I48.8986 J-3.9852 F1080.00
G2 X36.9838 Y123.4929 Z-3.7500 I74.1325 J-24.5033 F1080.00
G2 X47.8524 Y133.1986 Z-3.7500 I42.0471 J-36.1471 F1080.00
G2 X54.0621 Y136.3882 Z-3.7500 I16.3701 J-24.2301 F1080.00
G2 X60.2847 Y137.3313 Z-3.7500 I5.1941 J-13.2707 F1080.00
G2 X64.6725 Y135.3150 Z-3.7500 I-0.6068 J-7.1029 F1080.00
G0 X64.6725 Y135.3150 Z5.0000
G0 X64.6708 Y135.3133 Z5.0000
G0 X64.6708 Y135.3133 Z-0.7500
G1 X64.6708 Y135.3133 Z-3.7500 F1080.00
G3 X59.6993 Y137.3769 Z-3.7500 I-5.0838 J-5.2273 F1080.00
G3 X55.1738 Y136.7493 Z-3.7500 I-0.3750 J-13.9257 F1080.00
G1 X67.9401 Y123.9829 Z-3.7500 F1080.00
G2 X67.0710 Y116.7910 Z-3.7500 I-39.6107 J1.1384 F1080.00
G1 X49.5942 Y134.2678 Z-3.7500 F1080.00
G3 X44.8094 Y130.9916 Z-3.7500 I19.6367 J-33.8119 F1080.00
G1 X65.3505 Y110.4505 Z-3.7500 F1080.00
G2 X63.1178 Y104.6222 Z-3.7500 I-62.7997 J20.7158 F1080.00
G1 X40.5219 Y127.2181 Z-3.7500 F1080.00
G3 X36.6149 Y123.0640 Z-3.7500 I43.5622 J-44.8859 F1080.00
G1 X60.4940 Y99.1850 Z-3.7500 F1080.00
G2 X57.5370 Y94.0809 Z-3.7500 I-68.1423 J36.0687 F1080.00
G1 X33.0353 Y118.5826 Z-3.7500 F1080.00
G3 X29.7621 Y113.7948 Z-3.7500 I61.4844 J-45.5469 F1080.00
G1 X54.2719 Y89.2851 Z-3.7500 F1080.00
G2 X50.7006 Y84.7953 Z-3.7500 I-56.6058 J41.3602 F1080.00
G1 X26.7969 Y108.6990 Z-3.7500 F1080.00
G3 X24.1640 Y103.2709 Z-3.7500 I65.1255 J-34.9412 F1080.00
G1 X46.8029 Y80.6320 Z-3.7500 F1080.00
G2 X42.5268 Y76.8471 Z-3.7500 I-35.9448 J36.3029 F1080.00
G1 X21.9205 Y97.4534 Z-3.7500 F1080.00
G3 X20.1858 Y91.1271 Z-3.7500 I52.3137 J-17.7459 F1080.00
G1 X37.7573 Y73.5556 Z-3.7500 F1080.00
G2 X32.2054 Y71.0465 Z-3.7500 I-13.0445 J21.4665 F1080.00
G1 X19.2847 Y83.9671 Z-3.7500 F1080.00
G3 X20.3970 Y75.8962 Z-3.7500 I21.2304 J-1.1863 F1080.00
G3 X21.5644 Y73.6264 Z-3.7500 I9.5533 J3.4785 F1080.00
G1 X23.6256 Y71.5652 Z-3.7500 F1080.00
G2 X21.5644 Y73.6264 Z-3.7500 I3.9905 J6.0517 F1080.00
G1 X21.5644 Y73.6264 Z-4.5000 F1080.00
G3 X23.6256 Y71.5652 Z-4.5000 I6.0517 J3.9905 F1080.00
G1 X21.5644 Y73.6264 Z-4.5000 F1080.00
G2 X20.3970 Y75.8962 Z-4.5000 I8.3859 J5.7483 F1080.00
G2 X19.2847 Y83.9671 Z-4.5000 I20.1181 J6.8846 F1080.00
G1 X32.2054 Y71.0465 Z-4.5000 F1080.00
G3 X37.7573 Y73.5556 Z-4.5000 I-7.4926 J23.9756 F1080.00
G1 X20.1858 Y91.1271 Z-4.5000 F1080.00
G2 X21.9205 Y97.4534 Z-4.5000 I54.0484 J-11.4196 F1080.00
G1 X42.5268 Y76.8471 Z-4.5000 F1080.00
G3 X46.8029 Y80.6320 Z-4.5000 I-31.6686 J40.0878 F1080.00
G1 X24.1640 Y103.2709 Z-4.5000 F1080.00
G2 X26.7969 Y108.6990 Z-4.5000 I67.7584 J-29.5131 F1080.00
G1 X50.7006 Y84.7953 Z-4.5000 F1080.00
G3 X54.2719 Y89.2851 Z-4.5000 I-53.0345 J45.8499 F1080.00
G1 X29.7621 Y113.7948 Z-4.5000 F1080.00
G2 X33.0353 Y118.5826 Z-4.5000 I64.7576 J-40.7591 F1080.00
G1 X57.5370 Y94.0809 Z-4.5000 F1080.00
G3 X60.4940 Y99.1850 Z-4.5000 I-65.1853 J41.1728 F1080.00
G1 X36.6149 Y123.0640 Z-4.5000 F1080.00
G2 X40.5219 Y127.2181 Z-4.5000 I47.4692 J-40.7319 F1080.00
G1 X63.1178 Y104.6222 Z-4.5000 F1080.00
G3 X65.3505 Y110.4505 Z-4.5000 I-60.5669 J26.5441 F1080.00
G1 X44.8094 Y130.9916 Z-4.5000 F1080.00
G2 X49.5942 Y134.2678 Z-4.5000 I24.4216 J-30.5357 F1080.00
G1 X67.0710 Y116.7910 Z-4.5000 F1080.00
G3 X67.9401 Y123.9829 Z-4.5000 I-38.7415 J8.3303 F1080.00
G1 X55.1738 Y136.7493 Z-4.5000 F1080.00
G2 X59.6993 Y137.3769 Z-4.5000 I4.1506 J-13.2981 F1080.00
G2 X64.6708 Y135.3133 Z-4.5000 I-0.1123 J-7.2909 F1080.00
G0 X64.6708 Y135.3133 Z5.0000
G0 X64.6725 Y135.3150 Z5.0000
G0 X64.6725 Y135.3150 Z-1.5000
G1 X64.6725 Y135.3150 Z-4.5000 F1080.00
G2 X65.4047 Y134.4738 Z-4.5000 I-4.9946 J-5.0866 F1080.00
G2 X67.5260 Y129.3623 Z-4.5000 I-10.0293 J-7.1582 F1080.00
G2 X67.8725 Y122.4797 Z-4.5000 I-25.3280 J-4.7252 F1080.00
G2 X65.5737 Y111.1236 Z-4.5000 I-48.9042 J3.9890 F1080.00
G2 X50.2345 Y84.2534 Z-4.5000 I-74.1324 J24.5059 F1080.00
G2 X39.3662 Y74.5483 Z-4.5000 I-42.0453 J36.1466 F1080.00
G2 X33.1568 Y71.3588 Z-4.5000 I-16.3692 J24.2296 F1080.00
G2 X26.9349 Y70.4158 Z-4.5000 I-5.1939 J13.2710 F1080.00
G2 X21.8156 Y73.2717 Z-4.5000 I0.6064 J7.1030 F1080.00
G2 X19.6936 Y78.3822 Z-4.5000 I10.0242 J7.1582 F1080.00
G2 X19.3464 Y85.2648 Z-4.5000 I25.3209 J4.7275 F1080.00
G2 X21.6447 Y96.6214 Z-4.5000 I48.8986 J-3.9852 F1080.00
G2 X36.9838 Y123.4929 Z-4.5000 I74.1325 J-24.5033 F1080.00
G2 X47.8524 Y133.1986 Z-4.5000 I42.0471 J-36.1471 F1080.00
G2 X54.0621 Y136.3882 Z-4.5000 I16.3701 J-24.2301 F1080.00
G2 X60.2847 Y137.3313 Z-4.5000 I5.1941 J-13.2707 F1080.00
G2 X64.6725 Y135.3150 Z-4.5000 I-0.6068 J-7.1029 F1080.00
G1 X64.6725 Y135.3150 Z-5.2500 F1080.00
G2 X65.4047 Y134.4738 Z-5.2500 I-4.9946 J-5.0866 F1080.00
G2 X67.5260 Y129.3623 Z-5.2500 I-10.0293 J-7.1582 F1080.00
G2 X67.8725 Y122.4797 Z-5.2500 I-25.3280 J-4.7252 F1080.00
G2 X65.5737 Y111.1236 Z-5.2500 I-48.9042 J3.9890 F1080.00
G2 X50.2345 Y84.2534 Z-5.2500 I-74.1324 J24.5059 F1080.00
G2 X39.3662 Y74.5483 Z-5.2500 I-42.0453 J36.1466 F1080.00
G2 X33.1568 Y71.3588 Z-5.2500 I-16.3692 J24.2296 F1080.00
G2 X26.9349 Y70.4158 Z-5.2500 I-5.1939 J13.2710 F1080.00
G2 X21.8156 Y73.2717 Z-5.2500 I0.6064 J7.1030 F1080.00
G2 X19.6936 Y78.3822 Z-5.2500 I10.0242 J7.1582 F1080.00
G2 X19.3464 Y85.2648 Z-5.2500 I25.3209 J4.7275 F1080.00
G2 X21.6447 Y96.6214 Z-5.2500 I48.8986 J-3.9852 F1080.00
G2 X36.9838 Y123.4929 Z-5.2500 I74.1325 J-24.5033 F1080.00
G2 X47.8524 Y133.1986 Z-5.2500 I42.0471 J-36.1471 F1080.00
G2 X54.0621 Y136.3882 Z-5.2500 I16.3701 J-24.2301 F1080.00
G2 X60.2847 Y137.3313 Z-5.2500 I5.1941 J-13.2707 F1080.00
G2 X64.6725 Y135.3150 Z-5.2500 I-0.6068 J-7.1029 F1080.00
G0 X64.6725 Y135.3150 Z5.0000
G0 X64.6708 Y135.3133 Z5.0000
G0 X64.6708 Y135.3133 Z-2.2500
G1 X64.6708 Y135.3133 Z-5.2500 F1080.00
G3 X59.6993 Y137.3769 Z-5.2500 I-5.0838 J-5.2273 F1080.00
G3 X55.1738 Y136.7493 Z-5.2500 I-0.3750 J-13.9257 F1080.00
G1 X67.9401 Y123.9829 Z-5.2500 F1080.00
G2 X67.0710 Y116.7910 Z-5.2500 I-39.6107 J1.1384 F1080.00
G1 X49.5942 Y134.2678 Z-5.2500 F1080.00
G3 X44.8094 Y130.9916 Z-5.2500 I19.6367 J-33.8119 F1080.00
G1 X65.3505 Y110.4505 Z-5.2500 F1080.00
G2 X63.1178 Y104.6222 Z-5.2500 I-62.7997 J20.7158 F1080.00
G1 X40.5219 Y127.2181 Z-5.2500 F1080.00
G3 X36.6149 Y123.0640 Z-5.2500 I43.5622 J-44.8859 F1080.00
G1 X60.4940 Y99.1850 Z-5.2500 F1080.00
G2 X57.5370 Y94.0809 Z-5.2500 I-68.1423 J36.0687 F1080.00
G1 X33.0353 Y118.5826 Z-5.2500 F1080.00
G3 X29.7621 Y113.7948 Z-5.2500 I61.4844 J-45.5469 F1080.00
G1 X54.2719 Y89.2851 Z-5.2500 F1080.00
G2 X50.7006 Y84.7953 Z-5.2500 I-56.6058 J41.3602 F1080.00
G1 X26.7969 Y108.6990 Z-5.2500 F1080.00
G3 X24.1640 Y103.2709 Z-5.2500 I65.1255 J-34.9412 F1080.00
G1 X46.8029 Y80.6320 Z-5.2500 F1080.00
G2 X42.5268 Y76.8471 Z-5.2500 I-35.9448 J36.3029 F1080.00
G1 X21.9205 Y97.4534 Z-5.2500 F1080.00
G3 X20.1858 Y91.1271 Z-5.2500 I52.3137 J-17.7459 F1080.00
G1 X37.7573 Y73.5556 Z-5.2500 F1080.00
G2 X32.2054 Y71.0465 Z-5.2500 I-13.0445 J21.4665 F1080.00
G1 X19.2847 Y83.9671 Z-5.2500 F1080.00
G3 X20.3970 Y75.8962 Z-5.2500 I21.2304 J-1.1863 F1080.00
G3 X21.5644 Y73.6264 Z-5.2500 I9.5533 J3.4785 F1080.00
G1 X23.6256 Y71.5652 Z-5.2500 F1080.00
G2 X21.5644 Y73.6264 Z-5.2500 I3.9905 J6.0517 F1080.00
G1 X21.5644 Y73.6264 Z-6.0000 F1080.00
G3 X23.6256 Y71.5652 Z-6.0000 I6.0517 J3.9905 F1080.00
G1 X21.5644 Y73.6264 Z-6.0000 F1080.00
G2 X20.3970 Y75.8962 Z-6.0000 I8.3859 J5.7483 F1080.00
G2 X19.2847 Y83.9671 Z-6.0000 I20.1181 J6.8846 F1080.00
G1 X32.2054 Y71.0465 Z-6.0000 F1080.00
G3 X37.7573 Y73.5556 Z-6.0000 I-7.4926 J23.9756 F1080.00
G1 X20.1858 Y91.1271 Z-6.0000 F1080.00
G2 X21.9205 Y97.4534 Z-6.0000 I54.0484 J-11.4196 F1080.00
G1 X42.5268 Y76.8471 Z-6.0000 F1080.00
G3 X46.8029 Y80.6320 Z-6.0000 I-31.6686 J40.0878 F1080.00
G1 X24.1640 Y103.2709 Z-6.0000 F1080.00
G2 X26.7969 Y108.6990 Z-6.0000 I67.7584 J-29.5131 F1080.00
G1 X50.7006 Y84.7953 Z-6.0000 F1080.00
G3 X54.2719 Y89.2851 Z-6.0000 I-53.0345 J45.8499 F1080.00
G1 X29.7621 Y113.7948 Z-6.0000 F1080.00
G2 X33.0353 Y118.5826 Z-6.0000 I64.7576 J-40.7591 F1080.00
G1 X57.5370 Y94.0809 Z-6.0000 F1080.00
G3 X60.4940 Y99.1850 Z-6.0000 I-65.1853 J41.1728 F1080.00
G1 X36.6149 Y123.0640 Z-6.0000 F1080.00
G2 X40.5219 Y127.2181 Z-6.0000 I47.4692 J-40.7319 F1080.00
G1 X63.1178 Y104.6222 Z-6.0000 F1080.00
G3 X65.3505 Y110.4505 Z-6.0000 I-60.5669 J26.5441 F1080.00
G1 X44.8094 Y130.9916 Z-6.0000 F1080.00
G2 X49.5942 Y134.2678 Z-6.0000 I24.4216 J-30.5357 F1080.00
G1 X67.0710 Y116.7910 Z-6.0000 F1080.00
G3 X67.9401 Y123.9829 Z-6.0000 I-38.7415 J8.3303 F1080.00
G1 X55.1738 Y136.7493 Z-6.0000 F1080.00
G2 X59.6993 Y137.3769 Z-6.0000 I4.1506 J-13.2981 F1080.00
G2 X64.6708 Y135.3133 Z-6.0000 I-0.1123 J-7.2909 F1080.00
G0 X64.6708 Y135.3133 Z5.0000
G0 X64.6725 Y135.3150 Z5.0000
G0 X64.6725 Y135.3150 Z-3.0000
G1 X64.6725 Y135.3150 Z-6.0000 F1080.00
G2 X65.4047 Y134.4738 Z-6.0000 I-4.9946 J-5.0866 F1080.00
G2 X67.5260 Y129.3623 Z-6.0000 I-10.0293 J-7.1582 F1080.00
G2 X67.8725 Y122.4797 Z-6.0000 I-25.3280 J-4.7252 F1080.00
G2 X65.5737 Y111.1236 Z-6.0000 I-48.9042 J3.9890 F1080.00
G2 X50.2345 Y84.2534 Z-6.0000 I-74.1324 J24.5059 F1080.00
G2 X39.3662 Y74.5483 Z-6.0000 I-42.0453 J36.1466 F1080.00
G2 X33.1568 Y71.3588 Z-6.0000 I-16.3692 J24.2296 F1080.00
G2 X26.9349 Y70.4158 Z-6.0000 I-5.1939 J13.2710 F1080.00
G2 X21.8156 Y73.2717 Z-6.0000 I0.6064 J7.1030 F1080.00
G2 X19.6936 Y78.3822 Z-6.0000 I10.0242 J7.1582 F1080.00
G2 X19.3464 Y85.2648 Z-6.0000 I25.3209 J4.7275 F1080.00
G2 X21.6447 Y96.6214 Z-6.0000 I48.8986 J-3.9852 F1080.00
G2 X36.9838 Y123.4929 Z-6.0000 I74.1325 J-24.5033 F1080.00
G2 X47.8524 Y133.1986 Z-6.0000 I42.0471 J-36.1471 F1080.00
G2 X54.0621 Y136.3882 Z-6.0000 I16.3701 J-24.2301 F1080.00
G2 X60.2847 Y137.3313 Z-6.0000 I5.1941 J-13.2707 F1080.00
G2 X64.6725 Y135.3150 Z-6.0000 I-0.6068 J-7.1029 F1080.00
G1 X64.6725 Y135.3150 Z-6.7500 F1080.00
G2 X65.4047 Y134.4738 Z-6.7500 I-4.9946 J-5.0866 F1080.00
G2 X67.5260 Y129.3623 Z-6.7500 I-10.0293 J-7.1582 F1080.00
G2 X67.8725 Y122.4797 Z-6.7500 I-25.3280 J-4.7252 F1080.00
G2 X65.5737 Y111.1236 Z-6.7500 I-48.9042 J3.9890 F1080.00
G2 X50.2345 Y84.2534 Z-6.7500 I-74.1324 J24.5059 F1080.00
G2 X39.3662 Y74.5483 Z-6.7500 I-42.0453 J36.1466 F1080.00
G2 X33.1568 Y71.3588 Z-6.7500 I-16.3692 J24.2296 F1080.00
G2 X26.9349 Y70.4158 Z-6.7500 I-5.1939 J13.2710 F1080.00
G2 X21.8156 Y73.2717 Z-6.7500 I0.6064 J7.1030 F1080.00
G2 X19.6936 Y78.3822 Z-6.7500 I10.0242 J7.1582 F1080.00
G2 X19.3464 Y85.2648 Z-6.7500 I25.3209 J4.7275 F1080.00
G2 X21.6447 Y96.6214 Z-6.7500 I48.8986 J-3.9852 F1080.00
G2 X36.9838 Y123.4929 Z-6.7500 I74.1325 J-24.5033 F1080.00
G2 X47.8524 Y133.1986 Z-6.7500 I42.0471 J-36.1471 F1080.00
G2 X54.0621 Y136.3882 Z-6.7500 I16.3701 J-24.2301 F1080.00
G2 X60.2847 Y137.3313 Z-6.7500 I5.1941 J-13.2707 F1080.00
G2 X64.6725 Y135.3150 Z-6.7500 I-0.6068 J-7.1029 F1080.00
G0 X64.6725 Y135.3150 Z5.0000
G0 X64.6708 Y135.3133 Z5.0000
G0 X64.6708 Y135.3133 Z-3.7500
G1 X64.6708 Y135.3133 Z-6.7500 F1080.00
G3 X59.6993 Y137.3769 Z-6.7500 I-5.0838 J-5.2273 F1080.00
G3 X55.1738 Y136.7493 Z-6.7500 I-0.3750 J-13.9257 F1080.00
G1 X67.9401 Y123.9829 Z-6.7500 F1080.00
G2 X67.0710 Y116.7910 Z-6.7500 I-39.6107 J1.1384 F1080.00
G1 X49.5942 Y134.2678 Z-6.7500 F1080.00
G3 X44.8094 Y130.9916 Z-6.7500 I19.6367 J-33.8119 F1080.00
G1 X65.3505 Y110.4505 Z-6.7500 F1080.00
G2 X63.1178 Y104.6222 Z-6.7500 I-62.7997 J20.7158 F1080.00
G1 X40.5219 Y127.2181 Z-6.7500 F1080.00
G3 X36.6149 Y123.0640 Z-6.7500 I43.5622 J-44.8859 F1080.00
G1 X60.4940 Y99.1850 Z-6.7500 F1080.00
G2 X57.5370 Y94.0809 Z-6.7500 I-68.1423 J36.0687 F1080.00
G1 X33.0353 Y118.5826 Z-6.7500 F1080.00
G3 X29.7621 Y113.7948 Z-6.7500 I61.4844 J-45.5469 F1080.00
G1 X54.2719 Y89.2851 Z-6.7500 F1080.00
G2 X50.7006 Y84.7953 Z-6.7500 I-56.6058 J41.3602 F1080.00
G1 X26.7969 Y108.6990 Z-6.7500 F1080.00
G3 X24.1640 Y103.2709 Z-6.7500 I65.1255 J-34.9412 F1080.00
G1 X46.8029 Y80.6320 Z-6.7500 F1080.00
G2 X42.5268 Y76.8471 Z-6.7500 I-35.9448 J36.3029 F1080.00
G1 X21.9205 Y97.4534 Z-6.7500 F1080.00
G3 X20.1858 Y91.1271 Z-6.7500 I52.3137 J-17.7459 F1080.00
G1 X37.7573 Y73.5556 Z-6.7500 F1080.00
G2 X32.2054 Y71.0465 Z-6.7500 I-13.0445 J21.4665 F1080.00
G1 X19.2847 Y83.9671 Z-6.7500 F1080.00
G3 X20.3970 Y75.8962 Z-6.7500 I21.2304 J-1.1863 F1080.00
G3 X21.5644 Y73.6264 Z-6.7500 I9.5533 J3.4785 F1080.00
G1 X23.6256 Y71.5652 Z-6.7500 F1080.00
G2 X21.5644 Y73.6264 Z-6.7500 I3.9905 J6.0517 F1080.00
G1 X21.5644 Y73.6264 Z-7.5000 F1080.00
G3 X23.6256 Y71.5652 Z-7.5000 I6.0517 J3.9905 F1080.00
G1 X21.5644 Y73.6264 Z-7.5000 F1080.00
G2 X20.3970 Y75.8962 Z-7.5000 I8.3859 J5.7483 F1080.00
G2 X19.2847 Y83.9671 Z-7.5000 I20.1181 J6.8846 F1080.00
G1 X32.2054 Y71.0465 Z-7.5000 F1080.00
G3 X37.7573 Y73.5556 Z-7.5000 I-7.4926 J23.9756 F1080.00
G1 X20.1858 Y91.1271 Z-7.5000 F1080.00
G2 X21.9205 Y97.4534 Z-7.5000 I54.0484 J-11.4196 F1080.00
G1 X42.5268 Y76.8471 Z-7.5000 F1080.00
G3 X46.8029 Y80.6320 Z-7.5000 I-31.6686 J40.0878 F1080.00
G1 X24.1640 Y103.2709 Z-7.5000 F1080.00
G2 X26.7969 Y108.6990 Z-7.5000 I67.7584 J-29.5131 F1080.00
G1 X50.7006 Y84.7953 Z-7.5000 F1080.00
G3 X54.2719 Y89.2851 Z-7.5000 I-53.0345 J45.8499 F1080.00
G1 X29.7621 Y113.7948 Z-7.5000 F1080.00
G2 X33.0353 Y118.5826 Z-7.5000 I64.7576 J-40.7591 F1080.00
G1 X57.5370 Y94.0809 Z-7.5000 F1080.00
G3 X60.4940 Y99.1850 Z-7.5000 I-65.1853 J41.1728 F1080.00
G1 X36.6149 Y123.0640 Z-7.5000 F1080.00
G2 X40.5219 Y127.2181 Z-7.5000 I47.4692 J-40.7319 F1080.00
G1 X63.1178 Y104.6222 Z-7.5000 F1080.00
G3 X65.3505 Y110.4505 Z-7.5000 I-60.5669 J26.5441 F1080.00
G1 X44.8094 Y130.9916 Z-7.5000 F1080.00
G2 X49.5942 Y134.2678 Z-7.5000 I24.4216 J-30.5357 F1080.00
G1 X67.0710 Y116.7910 Z-7.5000 F1080.00
G3 X67.9401 Y123.9829 Z-7.5000 I-38.7415 J8.3303 F1080.00
G1 X55.1738 Y136.7493 Z-7.5000 F1080.00
G2 X59.6993 Y137.3769 Z-7.5000 I4.1506 J-13.2981 F1080.00
G2 X64.6708 Y135.3133 Z-7.5000 I-0.1123 J-7.2909 F1080.00
G0 X64.6708 Y135.3133 Z5.0000
G0 X64.6725 Y135.3150 Z5.0000
G0 X64.6725 Y135.3150 Z-4.5000
G1 X64.6725 Y135.3150 Z-7.5000 F1080.00
G2 X65.4047 Y134.4738 Z-7.5000 I-4.9946 J-5.0866 F1080.00
G2 X67.5260 Y129.3623 Z-7.5000 I-10.0293 J-7.1582 F1080.00
G2 X67.8725 Y122.4797 Z-7.5000 I-25.3280 J-4.7252 F1080.00
G2 X65.5737 Y111.1236 Z-7.5000 I-48.9042 J3.9890 F1080.00
G2 X50.2345 Y84.2534 Z-7.5000 I-74.1324 J24.5059 F1080.00
G2 X39.3662 Y74.5483 Z-7.5000 I-42.0453 J36.1466 F1080.00
G2 X33.1568 Y71.3588 Z-7.5000 I-16.3692 J24.2296 F1080.00
G2 X26.9349 Y70.4158 Z-7.5000 I-5.1939 J13.2710 F1080.00
G2 X21.8156 Y73.2717 Z-7.5000 I0.6064 J7.1030 F1080.00
G2 X19.6936 Y78.3822 Z-7.5000 I10.0242 J7.1582 F1080.00
G2 X19.3464 Y85.2648 Z-7.5000 I25.3209 J4.7275 F1080.00
G2 X21.6447 Y96.6214 Z-7.5000 I48.8986 J-3.9852 F1080.00
G2 X36.9838 Y123.4929 Z-7.5000 I74.1325 J-24.5033 F1080.00
G2 X47.8524 Y133.1986 Z-7.5000 I42.0471 J-36.1471 F1080.00
G2 X54.0621 Y136.3882 Z-7.5000 I16.3701 J-24.2301 F1080.00
G2 X60.2847 Y137.3313 Z-7.5000 I5.1941 J-13.2707 F1080.00
G2 X64.6725 Y135.3150 Z-7.5000 I-0.6068 J-7.1029 F1080.00
G1 X64.6725 Y135.3150 Z-8.2500 F1080.00
G2 X65.4047 Y134.4738 Z-8.2500 I-4.9946 J-5.0866 F1080.00
G2 X67.5260 Y129.3623 Z-8.2500 I-10.0293 J-7.1582 F1080.00
G2 X67.8725 Y122.4797 Z-8.2500 I-25.3280 J-4.7252 F1080.00
G2 X65.5737 Y111.1236 Z-8.2500 I-48.9042 J3.9890 F1080.00
G2 X50.2345 Y84.2534 Z-8.2500 I-74.1324 J24.5059 F1080.00
G2 X39.3662 Y74.5483 Z-8.2500 I-42.0453 J36.1466 F1080.00
G2 X33.1568 Y71.3588 Z-8.2500 I-16.3692 J24.2296 F1080.00
G2 X26.9349 Y70.4158 Z-8.2500 I-5.1939 J13.2710 F1080.00
G2 X21.8156 Y73.2717 Z-8.2500 I0.6064 J7.1030 F1080.00
G2 X19.6936 Y78.3822 Z-8.2500 I10.0242 J7.1582 F1080.00
G2 X19.3464 Y85.2648 Z-8.2500 I25.3209 J4.7275 F1080.00
G2 X21.6447 Y96.6214 Z-8.2500 I48.8986 J-3.9852 F1080.00
G2 X36.9838 Y123.4929 Z-8.2500 I74.1325 J-24.5033 F1080.00
G2 X47.8524 Y133.1986 Z-8.2500 I42.0471 J-36.1471 F1080.00
G2 X54.0621 Y136.3882 Z-8.2500 I16.3701 J-24.2301 F1080.00
G2 X60.2847 Y137.3313 Z-8.2500 I5.1941 J-13.2707 F1080.00
G2 X64.6725 Y135.3150 Z-8.2500 I-0.6068 J-7.1029 F1080.00
G0 X64.6725 Y135.3150 Z5.0000
G0 X64.6708 Y135.3133 Z5.0000
G0 X64.6708 Y135.3133 Z-5.2500
G1 X64.6708 Y135.3133 Z-8.2500 F1080.00
G3 X59.6993 Y137.3769 Z-8.2500 I-5.0838 J-5.2273 F1080.00
G3 X55.1738 Y136.7493 Z-8.2500 I-0.3750 J-13.9257 F1080.00
G1 X67.9401 Y123.9829 Z-8.2500 F1080.00
G2 X67.0710 Y116.7910 Z-8.2500 I-39.6107 J1.1384 F1080.00
G1 X49.5942 Y134.2678 Z-8.2500 F1080.00
G3 X44.8094 Y130.9916 Z-8.2500 I19.6367 J-33.8119 F1080.00
G1 X65.3505 Y110.4505 Z-8.2500 F1080.00
G2 X63.1178 Y104.6222 Z-8.2500 I-62.7997 J20.7158 F1080.00
G1 X40.5219 Y127.2181 Z-8.2500 F1080.00
G3 X36.6149 Y123.0640 Z-8.2500 I43.5622 J-44.8859 F1080.00
G1 X60.4940 Y99.1850 Z-8.2500 F1080.00
G2 X57.5370 Y94.0809 Z-8.2500 I-68.1423 J36.0687 F1080.00
G1 X33.0353 Y118.5826 Z-8.2500 F1080.00
G3 X29.7621 Y113.7948 Z-8.2500 I61.4844 J-45.5469 F1080.00
G1 X54.2719 Y89.2851 Z-8.2500 F1080.00
G2 X50.7006 Y84.7953 Z-8.2500 I-56.6058 J41.3602 F1080.00
G1 X26.7969 Y108.6990 Z-8.2500 F1080.00
G3 X24.1640 Y103.2709 Z-8.2500 I65.1255 J-34.9412 F1080.00
G1 X46.8029 Y80.6320 Z-8.2500 F1080.00
G2 X42.5268 Y76.8471 Z-8.2500 I-35.9448 J36.3029 F1080.00
G1 X21.9205 Y97.4534 Z-8.2500 F1080.00
G3 X20.1858 Y91.1271 Z-8.2500 I52.3137 J-17.7459 F1080.00
G1 X37.7573 Y73.5556 Z-8.2500 F1080.00
G2 X32.2054 Y71.0465 Z-8.2500 I-13.0445 J21.4665 F1080.00
G1 X19.2847 Y83.9671 Z-8.2500 F1080.00
G3 X20.3970 Y75.8962 Z-8.2500 I21.2304 J-1.1863 F1080.00
G3 X21.5644 Y73.6264 Z-8.2500 I9.5533 J3.4785 F1080.00
G1 X23.6256 Y71.5652 Z-8.2500 F1080.00
G2 X21.5644 Y73.6264 Z-8.2500 I3.9905 J6.0517 F1080.00
G1 X21.5644 Y73.6264 Z-9.0000 F1080.00
G3 X23.6256 Y71.5652 Z-9.0000 I6.0517 J3.9905 F1080.00
G1 X21.5644 Y73.6264 Z-9.0000 F1080.00
G2 X20.3970 Y75.8962 Z-9.0000 I8.3859 J5.7483 F1080.00
G2 X19.2847 Y83.9671 Z-9.0000 I20.1181 J6.8846 F1080.00
G1 X32.2054 Y71.0465 Z-9.0000 F1080.00
G3 X37.7573 Y73.5556 Z-9.0000 I-7.4926 J23.9756 F1080.00
G1 X20.1858 Y91.1271 Z-9.0000 F1080.00
G2 X21.9205 Y97.4534 Z-9.0000 I54.0484 J-11.4196 F1080.00
G1 X42.5268 Y76.8471 Z-9.0000 F1080.00
G3 X46.8029 Y80.6320 Z-9.0000 I-31.6686 J40.0878 F1080.00
G1 X24.1640 Y103.2709 Z-9.0000 F1080.00
G2 X26.7969 Y108.6990 Z-9.0000 I67.7584 J-29.5131 F1080.00
G1 X50.7006 Y84.7953 Z-9.0000 F1080.00
G3 X54.2719 Y89.2851 Z-9.0000 I-53.0345 J45.8499 F1080.00
G1 X29.7621 Y113.7948 Z-9.0000 F1080.00
G2 X33.0353 Y118.5826 Z-9.0000 I64.7576 J-40.7591 F1080.00
G1 X57.5370 Y94.0809 Z-9.0000 F1080.00
G3 X60.4940 Y99.1850 Z-9.0000 I-65.1853 J41.1728 F1080.00
G1 X36.6149 Y123.0640 Z-9.0000 F1080.00
G2 X40.5219 Y127.2181 Z-9.0000 I47.4692 J-40.7319 F1080.00
G1 X63.1178 Y104.6222 Z-9.0000 F1080.00
G3 X65.3505 Y110.4505 Z-9.0000 I-60.5669 J26.5441 F1080.00
G1 X44.8094 Y130.9916 Z-9.0000 F1080.00
G2 X49.5942 Y134.2678 Z-9.0000 I24.4216 J-30.5357 F1080.00
G1 X67.0710 Y116.7910 Z-9.0000 F1080.00
G3 X67.9401 Y123.9829 Z-9.0000 I-38.7415 J8.3303 F1080.00
G1 X55.1738 Y136.7493 Z-9.0000 F1080.00
G2 X59.6993 Y137.3769 Z-9.0000 I4.1506 J-13.2981 F1080.00
G2 X64.6708 Y135.3133 Z-9.0000 I-0.1123 J-7.2909 F1080.00
G0 X64.6708 Y135.3133 Z5.0000
G0 X64.6725 Y135.3150 Z5.0000
G0 X64.6725 Y135.3150 Z-6.0000
G1 X64.6725 Y135.3150 Z-9.0000 F1080.00
G2 X65.4047 Y134.4738 Z-9.0000 I-4.9946 J-5.0866 F1080.00
G2 X67.5260 Y129.3623 Z-9.0000 I-10.0293 J-7.1582 F1080.00
G2 X67.8725 Y122.4797 Z-9.0000 I-25.3280 J-4.7252 F1080.00
G2 X65.5737 Y111.1236 Z-9.0000 I-48.9042 J3.9890 F1080.00
G2 X50.2345 Y84.2534 Z-9.0000 I-74.1324 J24.5059 F1080.00
G2 X39.3662 Y74.5483 Z-9.0000 I-42.0453 J36.1466 F1080.00
G2 X33.1568 Y71.3588 Z-9.0000 I-16.3692 J24.2296 F1080.00
G2 X26.9349 Y70.4158 Z-9.0000 I-5.1939 J13.2710 F1080.00
G2 X21.8156 Y73.2717 Z-9.0000 I0.6064 J7.1030 F1080.00
G2 X19.6936 Y78.3822 Z-9.0000 I10.0242 J7.1582 F1080.00
G2 X19.3464 Y85.2648 Z-9.0000 I25.3209 J4.7275 F1080.00
G2 X21.6447 Y96.6214 Z-9.0000 I48.8986 J-3.9852 F1080.00
G2 X36.9838 Y123.4929 Z-9.0000 I74.1325 J-24.5033 F1080.00
G2 X47.8524 Y133.1986 Z-9.0000 I42.0471 J-36.1471 F1080.00
G2 X54.0621 Y136.3882 Z-9.0000 I16.3701 J-24.2301 F1080.00
G2 X60.2847 Y137.3313 Z-9.0000 I5.1941 J-13.2707 F1080.00
G2 X64.6725 Y135.3150 Z-9.0000 I-0.6068 J-7.1029 F1080.00
G1 X64.6725 Y135.3150 Z-9.7500 F1080.00
G2 X65.4047 Y134.4738 Z-9.7500 I-4.9946 J-5.0866 F1080.00
G2 X67.5260 Y129.3623 Z-9.7500 I-10.0293 J-7.1582 F1080.00
G2 X67.8725 Y122.4797 Z-9.7500 I-25.3280 J-4.7252 F1080.00
G2 X65.5737 Y111.1236 Z-9.7500 I-48.9042 J3.9890 F1080.00
G2 X50.2345 Y84.2534 Z-9.7500 I-74.1324 J24.5059 F1080.00
G2 X39.3662 Y74.5483 Z-9.7500 I-42.0453 J36.1466 F1080.00
G2 X33.1568 Y71.3588 Z-9.7500 I-16.3692 J24.2296 F1080.00
G2 X26.9349 Y70.4158 Z-9.7500 I-5.1939 J13.2710 F1080.00
G2 X21.8156 Y73.2717 Z-9.7500 I0.6064 J7.1030 F1080.00
G2 X19.6936 Y78.3822 Z-9.7500 I10.0242 J7.1582 F1080.00
G2 X19.3464 Y85.2648 Z-9.7500 I25.3209 J4.7275 F1080.00
G2 X21.6447 Y96.6214 Z-9.7500 I48.8986 J-3.9852 F1080.00
G2 X36.9838 Y123.4929 Z-9.7500 I74.1325 J-24.5033 F1080.00
G2 X47.8524 Y133.1986 Z-9.7500 I42.0471 J-36.1471 F1080.00
G2 X54.0621 Y136.3882 Z-9.7500 I16.3701 J-24.2301 F1080.00
G2 X60.2847 Y137.3313 Z-9.7500 I5.1941 J-13.2707 F1080.00
G2 X64.6725 Y135.3150 Z-9.7500 I-0.6068 J-7.1029 F1080.00
G0 X64.6725 Y135.3150 Z5.0000
G0 X64.6708 Y135.3133 Z5.0000
G0 X64.6708 Y135.3133 Z-6.7500
G1 X64.6708 Y135.3133 Z-9.7500 F1080.00
G3 X59.6993 Y137.3769 Z-9.7500 I-5.0838 J-5.2273 F1080.00
G3 X55.1738 Y136.7493 Z-9.7500 I-0.3750 J-13.9257 F1080.00
G1 X67.9401 Y123.9829 Z-9.7500 F1080.00
G2 X67.0710 Y116.7910 Z-9.7500 I-39.6107 J1.1384 F1080.00
G1 X49.5942 Y134.2678 Z-9.7500 F1080.00
G3 X44.8094 Y130.9916 Z-9.7500 I19.6367 J-33.8119 F1080.00
G1 X65.3505 Y110.4505 Z-9.7500 F1080.00
G2 X63.1178 Y104.6222 Z-9.7500 I-62.7997 J20.7158 F1080.00
G1 X40.5219 Y127.2181 Z-9.7500 F1080.00
G3 X36.6149 Y123.0640 Z-9.7500 I43.5622 J-44.8859 F1080.00
G1 X60.4940 Y99.1850 Z-9.7500 F1080.00
G2 X57.5370 Y94.0809 Z-9.7500 I-68.1423 J36.0687 F1080.00
G1 X33.0353 Y118.5826 Z-9.7500 F1080.00
G3 X29.7621 Y113.7948 Z-9.7500 I61.4844 J-45.5469 F1080.00
G1 X54.2719 Y89.2851 Z-9.7500 F1080.00
G2 X50.7006 Y84.7953 Z-9.7500 I-56.6058 J41.3602 F1080.00
G1 X26.7969 Y108.6990 Z-9.7500 F1080.00
G3 X24.1640 Y103.2709 Z-9.7500 I65.1255 J-34.9412 F1080.00
G1 X46.8029 Y80.6320 Z-9.7500 F1080.00
G2 X42.5268 Y76.8471 Z-9.7500 I-35.9448 J36.3029 F1080.00
G1 X21.9205 Y97.4534 Z-9.7500 F1080.00
G3 X20.1858 Y91.1271 Z-9.7500 I52.3137 J-17.7459 F1080.00
G1 X37.7573 Y73.5556 Z-9.7500 F1080.00
G2 X32.2054 Y71.0465 Z-9.7500 I-13.0445 J21.4665 F1080.00
G1 X19.2847 Y83.9671 Z-9.7500 F1080.00
G3 X20.3970 Y75.8962 Z-9.7500 I21.2304 J-1.1863 F1080.00
G3 X21.5644 Y73.6264 Z-9.7500 I9.5533 J3.4785 F1080.00
G1 X23.6256 Y71.5652 Z-9.7500 F1080.00
G2 X21.5644 Y73.6264 Z-9.7500 I3.9905 J6.0517 F1080.00
G1 X21.5644 Y73.6264 Z-10.5000 F1080.00
G3 X23.6256 Y71.5652 Z-10.5000 I6.0517 J3.9905 F1080.00
G1 X21.5644 Y73.6264 Z-10.5000 F1080.00
G2 X20.3970 Y75.8962 Z-10.5000 I8.3859 J5.7483 F1080.00
G2 X19.2847 Y83.9671 Z-10.5000 I20.1181 J6.8846 F1080.00
G1 X32.2054 Y71.0465 Z-10.5000 F1080.00
G3 X37.7573 Y73.5556 Z-10.5000 I-7.4926 J23.9756 F1080.00
G1 X20.1858 Y91.1271 Z-10.5000 F1080.00
G2 X21.9205 Y97.4534 Z-10.5000 I54.0484 J-11.4196 F1080.00
G1 X42.5268 Y76.8471 Z-10.5000 F1080.00
G3 X46.8029 Y80.6320 Z-10.5000 I-31.6686 J40.0878 F1080.00
G1 X24.1640 Y103.2709 Z-10.5000 F1080.00
G2 X26.7969 Y108.6990 Z-10.5000 I67.7584 J-29.5131 F1080.00
G1 X50.7006 Y84.7953 Z-10.5000 F1080.00
G3 X54.2719 Y89.2851 Z-10.5000 I-53.0345 J45.8499 F1080.00
G1 X29.7621 Y113.7948 Z-10.5000 F1080.00
G2 X33.0353 Y118.5826 Z-10.5000 I64.7576 J-40.7591 F1080.00
G1 X57.5370 Y94.0809 Z-10.5000 F1080.00
G3 X60.4940 Y99.1850 Z-10.5000 I-65.1853 J41.1728 F1080.00
G1 X36.6149 Y123.0640 Z-10.5000 F1080.00
G2 X40.5219 Y127.2181 Z-10.5000 I47.4692 J-40.7319 F1080.00
G1 X63.1178 Y104.6222 Z-10.5000 F1080.00
G3 X65.3505 Y110.4505 Z-10.5000 I-60.5669 J26.5441 F1080.00
G1 X44.8094 Y130.9916 Z-10.5000 F1080.00
G2 X49.5942 Y134.2678 Z-10.5000 I24.4216 J-30.5357 F1080.00
G1 X67.0710 Y116.7910 Z-10.5000 F1080.00
G3 X67.9401 Y123.9829 Z-10.5000 I-38.7415 J8.3303 F1080.00
G1 X55.1738 Y136.7493 Z-10.5000 F1080.00
G2 X59.6993 Y137.3769 Z-10.5000 I4.1506 J-13.2981 F1080.00
G2 X64.6708 Y135.3133 Z-10.5000 I-0.1123 J-7.2909 F1080.00
G0 X64.6708 Y135.3133 Z5.0000
G0 X64.6725 Y135.3150 Z5.0000
G0 X64.6725 Y135.3150 Z-7.5000
G1 X64.6725 Y135.3150 Z-10.5000 F1080.00
G2 X65.4047 Y134.4738 Z-10.5000 I-4.9946 J-5.0866 F1080.00
G2 X67.5260 Y129.3623 Z-10.5000 I-10.0293 J-7.1582 F1080.00
G2 X67.8725 Y122.4797 Z-10.5000 I-25.3280 J-4.7252 F1080.00
G2 X65.5737 Y111.1236 Z-10.5000 I-48.9042 J3.9890 F1080.00
G2 X50.2345 Y84.2534 Z-10.5000 I-74.1324 J24.5059 F1080.00
G2 X39.3662 Y74.5483 Z-10.5000 I-42.0453 J36.1466 F1080.00
G2 X33.1568 Y71.3588 Z-10.5000 I-16.3692 J24.2296 F1080.00
G2 X26.9349 Y70.4158 Z-10.5000 I-5.1939 J13.2710 F1080.00
G2 X21.8156 Y73.2717 Z-10.5000 I0.6064 J7.1030 F1080.00
G2 X19.6936 Y78.3822 Z-10.5000 I10.0242 J7.1582 F1080.00
G2 X19.3464 Y85.2648 Z-10.5000 I25.3209 J4.7275 F1080.00
G2 X21.6447 Y96.6214 Z-10.5000 I48.8986 J-3.9852 F1080.00
G2 X36.9838 Y123.4929 Z-10.5000 I74.1325 J-24.5033 F1080.00
G2 X47.8524 Y133.1986 Z-10.5000 I42.0471 J-36.1471 F1080.00
G2 X54.0621 Y136.3882 Z-10.5000 I16.3701 J-24.2301 F1080.00
G2 X60.2847 Y137.3313 Z-10.5000 I5.1941 J-13.2707 F1080.00
G2 X64.6725 Y135.3150 Z-10.5000 I-0.6068 J-7.1029 F1080.00
G1 X64.6725 Y135.3150 Z-11.2500 F1080.00
G2 X65.4047 Y134.4738 Z-11.2500 I-4.9946 J-5.0866 F1080.00
G2 X67.5260 Y129.3623 Z-11.2500 I-10.0293 J-7.1582 F1080.00
G2 X67.8725 Y122.4797 Z-11.2500 I-25.3280 J-4.7252 F1080.00
G2 X65.5737 Y111.1236 Z-11.2500 I-48.9042 J3.9890 F1080.00
G2 X50.2345 Y84.2534 Z-11.2500 I-74.1324 J24.5059 F1080.00
G2 X39.3662 Y74.5483 Z-11.2500 I-42.0453 J36.1466 F1080.00
G2 X33.1568 Y71.3588 Z-11.2500 I-16.3692 J24.2296 F1080.00
G2 X26.9349 Y70.4158 Z-11.2500 I-5.1939 J13.2710 F1080.00
G2 X21.8156 Y73.2717 Z-11.2500 I0.6064 J7.1030 F1080.00
G2 X19.6936 Y78.3822 Z-11.2500 I10.0242 J7.1582 F1080.00
G2 X19.3464 Y85.2648 Z-11.2500 I25.3209 J4.7275 F1080.00
G2 X21.6447 Y96.6214 Z-11.2500 I48.8986 J-3.9852 F1080.00
G2 X36.9838 Y123.4929 Z-11.2500 I74.1325 J-24.5033 F1080.00
G2 X47.8524 Y133.1986 Z-11.2500 I42.0471 J-36.1471 F1080.00
G2 X54.0621 Y136.3882 Z-11.2500 I16.3701 J-24.2301 F1080.00
G2 X60.2847 Y137.3313 Z-11.2500 I5.1941 J-13.2707 F1080.00
G2 X64.6725 Y135.3150 Z-11.2500 I-0.6068 J-7.1029 F1080.00
G0 X64.6725 Y135.3150 Z5.0000
G0 X64.6708 Y135.3133 Z5.0000
G0 X64.6708 Y135.3133 Z-8.2500
G1 X64.6708 Y135.3133 Z-11.2500 F1080.00
G3 X59.6993 Y137.3769 Z-11.2500 I-5.0838 J-5.2273 F1080.00
G3 X55.1738 Y136.7493 Z-11.2500 I-0.3750 J-13.9257 F1080.00
G1 X67.9401 Y123.9829 Z-11.2500 F1080.00
G2 X67.0710 Y116.7910 Z-11.2500 I-39.6107 J1.1384 F1080.00
G1 X49.5942 Y134.2678 Z-11.2500 F1080.00
G3 X44.8094 Y130.9916 Z-11.2500 I19.6367 J-33.8119 F1080.00
G1 X65.3505 Y110.4505 Z-11.2500 F1080.00
G2 X63.1178 Y104.6222 Z-11.2500 I-62.7997 J20.7158 F1080.00
G1 X40.5219 Y127.2181 Z-11.2500 F1080.00
G3 X36.6149 Y123.0640 Z-11.2500 I43.5622 J-44.8859 F1080.00
G1 X60.4940 Y99.1850 Z-11.2500 F1080.00
G2 X57.5370 Y94.0809 Z-11.2500 I-68.1423 J36.0687 F1080.00
G1 X33.0353 Y118.5826 Z-11.2500 F1080.00
G3 X29.7621 Y113.7948 Z-11.2500 I61.4844 J-45.5469 F1080.00
G1 X54.2719 Y89.2851 Z-11.2500 F1080.00
G2 X50.7006 Y84.7953 Z-11.2500 I-56.6058 J41.3602 F1080.00
G1 X26.7969 Y108.6990 Z-11.2500 F1080.00
G3 X24.1640 Y103.2709 Z-11.2500 I65.1255 J-34.9412 F1080.00
G1 X46.8029 Y80.6320 Z-11.2500 F1080.00
G2 X42.5268 Y76.8471 Z-11.2500 I-35.9448 J36.3029 F1080.00
G1 X21.9205 Y97.4534 Z-11.2500 F1080.00
G3 X20.1858 Y91.1271 Z-11.2500 I52.3137 J-17.7459 F1080.00
G1 X37.7573 Y73.5556 Z-11.2500 F1080.00
G2 X32.2054 Y71.0465 Z-11.2500 I-13.0445 J21.4665 F1080.00
G1 X19.2847 Y83.9671 Z-11.2500 F1080.00
G3 X20.3970 Y75.8962 Z-11.2500 I21.2304 J-1.1863 F1080.00
G3 X21.5644 Y73.6264 Z-11.2500 I9.5533 J3.4785 F1080.00
G1 X23.6256 Y71.5652 Z-11.2500 F1080.00
G2 X21.5644 Y73.6264 Z-11.2500 I3.9905 J6.0517 F1080.00
G1 X21.5644 Y73.6264 Z-12.0000 F1080.00
G3 X23.6256 Y71.5652 Z-12.0000 I6.0517 J3.9905 F1080.00
G1 X21.5644 Y73.6264 Z-12.0000 F1080.00
G2 X20.3970 Y75.8962 Z-12.0000 I8.3859 J5.7483 F1080.00
G2 X19.2847 Y83.9671 Z-12.0000 I20.1181 J6.8846 F1080.00
G1 X32.2054 Y71.0465 Z-12.0000 F1080.00
G3 X37.7573 Y73.5556 Z-12.0000 I-7.4926 J23.9756 F1080.00
G1 X20.1858 Y91.1271 Z-12.0000 F1080.00
G2 X21.9205 Y97.4534 Z-12.0000 I54.0484 J-11.4196 F1080.00
G1 X42.5268 Y76.8471 Z-12.0000 F1080.00
G3 X46.8029 Y80.6320 Z-12.0000 I-31.6686 J40.0878 F1080.00
G1 X24.1640 Y103.2709 Z-12.0000 F1080.00
G2 X26.7969 Y108.6990 Z-12.0000 I67.7584 J-29.5131 F1080.00
G1 X50.7006 Y84.7953 Z-12.0000 F1080.00
G3 X54.2719 Y89.2851 Z-12.0000 I-53.0345 J45.8499 F1080.00
G1 X29.7621 Y113.7948 Z-12.0000 F1080.00
G2 X33.0353 Y118.5826 Z-12.0000 I64.7576 J-40.7591 F1080.00
G1 X57.5370 Y94.0809 Z-12.0000 F1080.00
G3 X60.4940 Y99.1850 Z-12.0000 I-65.1853 J41.1728 F1080.00
G1 X36.6149 Y123.0640 Z-12.0000 F1080.00
G2 X40.5219 Y127.2181 Z-12.0000 I47.4692 J-40.7319 F1080.00
G1 X63.1178 Y104.6222 Z-12.0000 F1080.00
G3 X65.3505 Y110.4505 Z-12.0000 I-60.5669 J26.5441 F1080.00
G1 X44.8094 Y130.9916 Z-12.0000 F1080.00
G2 X49.5942 Y134.2678 Z-12.0000 I24.4216 J-30.5357 F1080.00
G1 X67.0710 Y116.7910 Z-12.0000 F1080.00
G3 X67.9401 Y123.9829 Z-12.0000 I-38.7415 J8.3303 F1080.00
G1 X55.1738 Y136.7493 Z-12.0000 F1080.00
G2 X59.6993 Y137.3769 Z-12.0000 I4.1506 J-13.2981 F1080.00
G2 X64.6708 Y135.3133 Z-12.0000 I-0.1123 J-7.2909 F1080.00
G0 X64.6708 Y135.3133 Z5.0000
G0 X64.6725 Y135.3150 Z5.0000
G0 X64.6725 Y135.3150 Z-9.0000
G1 X64.6725 Y135.3150 Z-12.0000 F1080.00
G2 X65.4047 Y134.4738 Z-12.0000 I-4.9946 J-5.0866 F1080.00
G2 X67.5260 Y129.3623 Z-12.0000 I-10.0293 J-7.1582 F1080.00
G2 X67.8725 Y122.4797 Z-12.0000 I-25.3280 J-4.7252 F1080.00
G2 X65.5737 Y111.1236 Z-12.0000 I-48.9042 J3.9890 F1080.00
G2 X50.2345 Y84.2534 Z-12.0000 I-74.1324 J24.5059 F1080.00
G2 X39.3662 Y74.5483 Z-12.0000 I-42.0453 J36.1466 F1080.00
G2 X33.1568 Y71.3588 Z-12.0000 I-16.3692 J24.2296 F1080.00
G2 X26.9349 Y70.4158 Z-12.0000 I-5.1939 J13.2710 F1080.00
G2 X21.8156 Y73.2717 Z-12.0000 I0.6064 J7.1030 F1080.00
G2 X19.6936 Y78.3822 Z-12.0000 I10.0242 J7.1582 F1080.00
G2 X19.3464 Y85.2648 Z-12.0000 I25.3209 J4.7275 F1080.00
G2 X21.6447 Y96.6214 Z-12.0000 I48.8986 J-3.9852 F1080.00
G2 X36.9838 Y123.4929 Z-12.0000 I74.1325 J-24.5033 F1080.00
G2 X47.8524 Y133.1986 Z-12.0000 I42.0471 J-36.1471 F1080.00
G2 X54.0621 Y136.3882 Z-12.0000 I16.3701 J-24.2301 F1080.00
G2 X60.2847 Y137.3313 Z-12.0000 I5.1941 J-13.2707 F1080.00
G2 X64.6725 Y135.3150 Z-12.0000 I-0.6068 J-7.1029 F1080.00
G1 X64.6725 Y135.3150 Z-12.7500 F1080.00
G2 X65.4047 Y134.4738 Z-12.7500 I-4.9946 J-5.0866 F1080.00
G2 X67.5260 Y129.3623 Z-12.7500 I-10.0293 J-7.1582 F1080.00
G2 X67.8725 Y122.4797 Z-12.7500 I-25.3280 J-4.7252 F1080.00
G2 X65.5737 Y111.1236 Z-12.7500 I-48.9042 J3.9890 F1080.00
G2 X50.2345 Y84.2534 Z-12.7500 I-74.1324 J24.5059 F1080.00
G2 X39.3662 Y74.5483 Z-12.7500 I-42.0453 J36.1466 F1080.00
G2 X33.1568 Y71.3588 Z-12.7500 I-16.3692 J24.2296 F1080.00
G2 X26.9349 Y70.4158 Z-12.7500 I-5.1939 J13.2710 F1080.00
G2 X21.8156 Y73.2717 Z-12.7500 I0.6064 J7.1030 F1080.00
G2 X19.6936 Y78.3822 Z-12.7500 I10.0242 J7.1582 F1080.00
G2 X19.3464 Y85.2648 Z-12.7500 I25.3209 J4.7275 F1080.00
G2 X21.6447 Y96.6214 Z-12.7500 I48.8986 J-3.9852 F1080.00
G2 X36.9838 Y123.4929 Z-12.7500 I74.1325 J-24.5033 F1080.00
G2 X47.8524 Y133.1986 Z-12.7500 I42.0471 J-36.1471 F1080.00
G2 X54.0621 Y136.3882 Z-12.7500 I16.3701 J-24.2301 F1080.00
G2 X60.2847 Y137.3313 Z-12.7500 I5.1941 J-13.2707 F1080.00
G2 X64.6725 Y135.3150 Z-12.7500 I-0.6068 J-7.1029 F1080.00
G0 X64.6725 Y135.3150 Z5.0000
G0 X64.6708 Y135.3133 Z5.0000
G0 X64.6708 Y135.3133 Z-9.7500
G1 X64.6708 Y135.3133 Z-12.7500 F1080.00
G3 X59.6993 Y137.3769 Z-12.7500 I-5.0838 J-5.2273 F1080.00
G3 X55.1738 Y136.7493 Z-12.7500 I-0.3750 J-13.9257 F1080.00
G1 X67.9401 Y123.9829 Z-12.7500 F1080.00
G2 X67.0710 Y116.7910 Z-12.7500 I-39.6107 J1.1384 F1080.00
G1 X49.5942 Y134.2678 Z-12.7500 F1080.00
G3 X44.8094 Y130.9916 Z-12.7500 I19.6367 J-33.8119 F1080.00
G1 X65.3505 Y110.4505 Z-12.7500 F1080.00
G2 X63.1178 Y104.6222 Z-12.7500 I-62.7997 J20.7158 F1080.00
G1 X40.5219 Y127.2181 Z-12.7500 F1080.00
G3 X36.6149 Y123.0640 Z-12.7500 I43.5622 J-44.8859 F1080.00
G1 X60.4940 Y99.1850 Z-12.7500 F1080.00
G2 X57.5370 Y94.0809 Z-12.7500 I-68.1423 J36.0687 F1080.00
G1 X33.0353 Y118.5826 Z-12.7500 F1080.00
G3 X29.7621 Y113.7948 Z-12.7500 I61.4844 J-45.5469 F1080.00
G1 X54.2719 Y89.2851 Z-12.7500 F1080.00
G2 X50.7006 Y84.7953 Z-12.7500 I-56.6058 J41.3602 F1080.00
G1 X26.7969 Y108.6990 Z-12.7500 F1080.00
G3 X24.1640 Y103.2709 Z-12.7500 I65.1255 J-34.9412 F1080.00
G1 X46.8029 Y80.6320 Z-12.7500 F1080.00
G2 X42.5268 Y76.8471 Z-12.7500 I-35.9448 J36.3029 F1080.00
G1 X21.9205 Y97.4534 Z-12.7500 F1080.00
G3 X20.1858 Y91.1271 Z-12.7500 I52.3137 J-17.7459 F1080.00
G1 X37.7573 Y73.5556 Z-12.7500 F1080.00
G2 X32.2054 Y71.0465 Z-12.7500 I-13.0445 J21.4665 F1080.00
G1 X19.2847 Y83.9671 Z-12.7500 F1080.00
G3 X20.3970 Y75.8962 Z-12.7500 I21.2304 J-1.1863 F1080.00
G3 X21.5644 Y73.6264 Z-12.7500 I9.5533 J3.4785 F1080.00
G1 X23.6256 Y71.5652 Z-12.7500 F1080.00
G2 X21.5644 Y73.6264 Z-12.7500 I3.9905 J6.0517 F1080.00
G1 X21.5644 Y73.6264 Z-13.5000 F1080.00
G3 X23.6256 Y71.5652 Z-13.5000 I6.0517 J3.9905 F1080.00
G1 X21.5644 Y73.6264 Z-13.5000 F1080.00
G2 X20.3970 Y75.8962 Z-13.5000 I8.3859 J5.7483 F1080.00
G2 X19.2847 Y83.9671 Z-13.5000 I20.1181 J6.8846 F1080.00
G1 X32.2054 Y71.0465 Z-13.5000 F1080.00
G3 X37.7573 Y73.5556 Z-13.5000 I-7.4926 J23.9756 F1080.00
G1 X20.1858 Y91.1271 Z-13.5000 F1080.00
G2 X21.9205 Y97.4534 Z-13.5000 I54.0484 J-11.4196 F1080.00
G1 X42.5268 Y76.8471 Z-13.5000 F1080.00
G3 X46.8029 Y80.6320 Z-13.5000 I-31.6686 J40.0878 F1080.00
G1 X24.1640 Y103.2709 Z-13.5000 F1080.00
G2 X26.7969 Y108.6990 Z-13.5000 I67.7584 J-29.5131 F1080.00
G1 X50.7006 Y84.7953 Z-13.5000 F1080.00
G3 X54.2719 Y89.2851 Z-13.5000 I-53.0345 J45.8499 F1080.00
G1 X29.7621 Y113.7948 Z-13.5000 F1080.00
G2 X33.0353 Y118.5826 Z-13.5000 I64.7576 J-40.7591 F1080.00
G1 X57.5370 Y94.0809 Z-13.5000 F1080.00
G3 X60.4940 Y99.1850 Z-13.5000 I-65.1853 J41.1728 F1080.00
G1 X36.6149 Y123.0640 Z-13.5000 F1080.00
G2 X40.5219 Y127.2181 Z-13.5000 I47.4692 J-40.7319 F1080.00
G1 X63.1178 Y104.6222 Z-13.5000 F1080.00
G3 X65.3505 Y110.4505 Z-13.5000 I-60.5669 J26.5441 F1080.00
G1 X44.8094 Y130.9916 Z-13.5000 F1080.00
G2 X49.5942 Y134.2678 Z-13.5000 I24.4216 J-30.5357 F1080.00
G1 X67.0710 Y116.7910 Z-13.5000 F1080.00
G3 X67.9401 Y123.9829 Z-13.5000 I-38.7415 J8.3303 F1080.00
G1 X55.1738 Y136.7493 Z-13.5000 F1080.00
G2 X59.6993 Y137.3769 Z-13.5000 I4.1506 J-13.2981 F1080.00
G2 X64.6708 Y135.3133 Z-13.5000 I-0.1123 J-7.2909 F1080.00
G0 X64.6708 Y135.3133 Z5.0000
G0 X64.6725 Y135.3150 Z5.0000
G0 X64.6725 Y135.3150 Z-10.5000
G1 X64.6725 Y135.3150 Z-13.5000 F1080.00
G2 X65.4047 Y134.4738 Z-13.5000 I-4.9946 J-5.0866 F1080.00
G2 X67.5260 Y129.3623 Z-13.5000 I-10.0293 J-7.1582 F1080.00
G2 X67.8725 Y122.4797 Z-13.5000 I-25.3280 J-4.7252 F1080.00
G2 X65.5737 Y111.1236 Z-13.5000 I-48.9042 J3.9890 F1080.00
G2 X50.2345 Y84.2534 Z-13.5000 I-74.1324 J24.5059 F1080.00
G2 X39.3662 Y74.5483 Z-13.5000 I-42.0453 J36.1466 F1080.00
G2 X33.1568 Y71.3588 Z-13.5000 I-16.3692 J24.2296 F1080.00
G2 X26.9349 Y70.4158 Z-13.5000 I-5.1939 J13.2710 F1080.00
G2 X21.8156 Y73.2717 Z-13.5000 I0.6064 J7.1030 F1080.00
G2 X19.6936 Y78.3822 Z-13.5000 I10.0242 J7.1582 F1080.00
G2 X19.3464 Y85.2648 Z-13.5000 I25.3209 J4.7275 F1080.00
G2 X21.6447 Y96.6214 Z-13.5000 I48.8986 J-3.9852 F1080.00
G2 X36.9838 Y123.4929 Z-13.5000 I74.1325 J-24.5033 F1080.00
G2 X47.8524 Y133.1986 Z-13.5000 I42.0471 J-36.1471 F1080.00
G2 X54.0621 Y136.3882 Z-13.5000 I16.3701 J-24.2301 F1080.00
G2 X60.2847 Y137.3313 Z-13.5000 I5.1941 J-13.2707 F1080.00
G2 X64.6725 Y135.3150 Z-13.5000 I-0.6068 J-7.1029 F1080.00
G1 X64.6725 Y135.3150 Z-14.2500 F1080.00
G2 X65.4047 Y134.4738 Z-14.2500 I-4.9946 J-5.0866 F1080.00
G2 X67.5260 Y129.3623 Z-14.2500 I-10.0293 J-7.1582 F1080.00
G2 X67.8725 Y122.4797 Z-14.2500 I-25.3280 J-4.7252 F1080.00
G2 X65.5737 Y111.1236 Z-14.2500 I-48.9042 J3.9890 F1080.00
G2 X50.2345 Y84.2534 Z-14.2500 I-74.1324 J24.5059 F1080.00
G2 X39.3662 Y74.5483 Z-14.2500 I-42.0453 J36.1466 F1080.00
G2 X33.1568 Y71.3588 Z-14.2500 I-16.3692 J24.2296 F1080.00
G2 X26.9349 Y70.4158 Z-14.2500 I-5.1939 J13.2710 F1080.00
G2 X21.8156 Y73.2717 Z-14.2500 I0.6064 J7.1030 F1080.00
G2 X19.6936 Y78.3822 Z-14.2500 I10.0242 J7.1582 F1080.00
G2 X19.3464 Y85.2648 Z-14.2500 I25.3209 J4.7275 F1080.00
G2 X21.6447 Y96.6214 Z-14.2500 I48.8986 J-3.9852 F1080.00
G2 X36.9838 Y123.4929 Z-14.2500 I74.1325 J-24.5033 F1080.00
G2 X47.8524 Y133.1986 Z-14.2500 I42.0471 J-36.1471 F1080.00
G2 X54.0621 Y136.3882 Z-14.2500 I16.3701 J-24.2301 F1080.00
G2 X60.2847 Y137.3313 Z-14.2500 I5.1941 J-13.2707 F1080.00
G2 X64.6725 Y135.3150 Z-14.2500 I-0.6068 J-7.1029 F1080.00
G0 X64.6725 Y135.3150 Z5.0000
G0 X64.6708 Y135.3133 Z5.0000
G0 X64.6708 Y135.3133 Z-11.2500
G1 X64.6708 Y135.3133 Z-14.2500 F1080.00
G3 X59.6993 Y137.3769 Z-14.2500 I-5.0838 J-5.2273 F1080.00
G3 X55.1738 Y136.7493 Z-14.2500 I-0.3750 J-13.9257 F1080.00
G1 X67.9401 Y123.9829 Z-14.2500 F1080.00
G2 X67.0710 Y116.7910 Z-14.2500 I-39.6107 J1.1384 F1080.00
G1 X49.5942 Y134.2678 Z-14.2500 F1080.00
G3 X44.8094 Y130.9916 Z-14.2500 I19.6367 J-33.8119 F1080.00
G1 X65.3505 Y110.4505 Z-14.2500 F1080.00
G2 X63.1178 Y104.6222 Z-14.2500 I-62.7997 J20.7158 F1080.00
G1 X40.5219 Y127.2181 Z-14.2500 F1080.00
G3 X36.6149 Y123.0640 Z-14.2500 I43.5622 J-44.8859 F1080.00
G1 X60.4940 Y99.1850 Z-14.2500 F1080.00
G2 X57.5370 Y94.0809 Z-14.2500 I-68.1423 J36.0687 F1080.00
G1 X33.0353 Y118.5826 Z-14.2500 F1080.00
G3 X29.7621 Y113.7948 Z-14.2500 I61.4844 J-45.5469 F1080.00
G1 X54.2719 Y89.2851 Z-14.2500 F1080.00
G2 X50.7006 Y84.7953 Z-14.2500 I-56.6058 J41.3602 F1080.00
G1 X26.7969 Y108.6990 Z-14.2500 F1080.00
G3 X24.1640 Y103.2709 Z-14.2500 I65.1255 J-34.9412 F1080.00
G1 X46.8029 Y80.6320 Z-14.2500 F1080.00
G2 X42.5268 Y76.8471 Z-14.2500 I-35.9448 J36.3029 F1080.00
G1 X21.9205 Y97.4534 Z-14.2500 F1080.00
G3 X20.1858 Y91.1271 Z-14.2500 I52.3137 J-17.7459 F1080.00
G1 X37.7573 Y73.5556 Z-14.2500 F1080.00
G2 X32.2054 Y71.0465 Z-14.2500 I-13.0445 J21.4665 F1080.00
G1 X19.2847 Y83.9671 Z-14.2500 F1080.00
G3 X20.3970 Y75.8962 Z-14.2500 I21.2304 J-1.1863 F1080.00
G3 X21.5644 Y73.6264 Z-14.2500 I9.5533 J3.4785 F1080.00
G1 X23.6256 Y71.5652 Z-14.2500 F1080.00
G2 X21.5644 Y73.6264 Z-14.2500 I3.9905 J6.0517 F1080.00
G0 Z5.0000
(finish operation: Pocket_Shape)
(begin operation: Helix)
(Path: Helix)
(Helix)
(helix cut operation)
G0 Z5.0000
G0 X27.2249 Y76.3326
G0 Z3.0000
G1 Z0.0000 F1080.00
G2 X26.2759 Y76.3326 Z-0.3676 I-0.4745 J0.0000 F1080.00
G2 X27.2249 Y76.3326 Z-0.7353 I0.4745 J0.0000 F1080.00
G2 X26.2759 Y76.3326 Z-1.1029 I-0.4745 J0.0000 F1080.00
G2 X27.2249 Y76.3326 Z-1.4706 I0.4745 J0.0000 F1080.00
G2 X26.2759 Y76.3326 Z-1.8382 I-0.4745 J0.0000 F1080.00
G2 X27.2249 Y76.3326 Z-2.2059 I0.4745 J0.0000 F1080.00
G2 X26.2759 Y76.3326 Z-2.5735 I-0.4745 J0.0000 F1080.00
G2 X27.2249 Y76.3326 Z-2.9412 I0.4745 J0.0000 F1080.00
G2 X26.2759 Y76.3326 Z-3.3088 I-0.4745 J0.0000 F1080.00
G2 X27.2249 Y76.3326 Z-3.6765 I0.4745 J0.0000 F1080.00
G2 X26.2759 Y76.3326 Z-4.0441 I-0.4745 J0.0000 F1080.00
G2 X27.2249 Y76.3326 Z-4.4118 I0.4745 J0.0000 F1080.00
G2 X26.2759 Y76.3326 Z-4.7794 I-0.4745 J0.0000 F1080.00
G2 X27.2249 Y76.3326 Z-5.1471 I0.4745 J0.0000 F1080.00
G2 X26.2759 Y76.3326 Z-5.5147 I-0.4745 J0.0000 F1080.00
G2 X27.2249 Y76.3326 Z-5.8824 I0.4745 J0.0000 F1080.00
G2 X26.2759 Y76.3326 Z-6.2500 I-0.4745 J0.0000 F1080.00
G2 X27.2249 Y76.3326 Z-6.6176 I0.4745 J0.0000 F1080.00
G2 X26.2759 Y76.3326 Z-6.9853 I-0.4745 J0.0000 F1080.00
G2 X27.2249 Y76.3326 Z-7.3529 I0.4745 J0.0000 F1080.00
G2 X26.2759 Y76.3326 Z-7.7206 I-0.4745 J0.0000 F1080.00
G2 X27.2249 Y76.3326 Z-8.0882 I0.4745 J0.0000 F1080.00
G2 X26.2759 Y76.3326 Z-8.4559 I-0.4745 J0.0000 F1080.00
G2 X27.2249 Y76.3326 Z-8.8235 I0.4745 J0.0000 F1080.00
G2 X26.2759 Y76.3326 Z-9.1912 I-0.4745 J0.0000 F1080.00
G2 X27.2249 Y76.3326 Z-9.5588 I0.4745 J0.0000 F1080.00
G2 X26.2759 Y76.3326 Z-9.9265 I-0.4745 J0.0000 F1080.00
G2 X27.2249 Y76.3326 Z-10.2941 I0.4745 J0.0000 F1080.00
G2 X26.2759 Y76.3326 Z-10.6618 I-0.4745 J0.0000 F1080.00
G2 X27.2249 Y76.3326 Z-11.0294 I0.4745 J0.0000 F1080.00
G2 X26.2759 Y76.3326 Z-11.3971 I-0.4745 J0.0000 F1080.00
G2 X27.2249 Y76.3326 Z-11.7647 I0.4745 J0.0000 F1080.00
G2 X26.2759 Y76.3326 Z-12.1324 I-0.4745 J0.0000 F1080.00
G2 X27.2249 Y76.3326 Z-12.5000 I0.4745 J0.0000 F1080.00
G2 X26.2759 Y76.3326 Z-12.8676 I-0.4745 J0.0000 F1080.00
G2 X27.2249 Y76.3326 Z-13.2353 I0.4745 J0.0000 F1080.00
G2 X26.2759 Y76.3326 Z-13.6029 I-0.4745 J0.0000 F1080.00
G2 X27.2249 Y76.3326 Z-13.9706 I0.4745 J0.0000 F1080.00
G2 X26.2759 Y76.3326 Z-14.3382 I-0.4745 J0.0000 F1080.00
G2 X27.2249 Y76.3326 Z-14.7059 I0.4745 J0.0000 F1080.00
G2 X26.2759 Y76.3326 Z-15.0735 I-0.4745 J0.0000 F1080.00
G2 X27.2249 Y76.3326 Z-15.4412 I0.4745 J0.0000 F1080.00
G2 X26.2759 Y76.3326 Z-15.8088 I-0.4745 J0.0000 F1080.00
G2 X27.2249 Y76.3326 Z-16.1765 I0.4745 J0.0000 F1080.00
G2 X26.2759 Y76.3326 Z-16.5441 I-0.4745 J0.0000 F1080.00
G2 X27.2249 Y76.3326 Z-16.9118 I0.4745 J0.0000 F1080.00
G2 X26.2759 Y76.3326 Z-17.2794 I-0.4745 J0.0000 F1080.00
G2 X27.2249 Y76.3326 Z-17.6471 I0.4745 J0.0000 F1080.00
G2 X26.2759 Y76.3326 Z-18.0147 I-0.4745 J0.0000 F1080.00
G2 X27.2249 Y76.3326 Z-18.3824 I0.4745 J0.0000 F1080.00
G2 X26.2759 Y76.3326 Z-18.7500 I-0.4745 J0.0000 F1080.00
G2 X27.2249 Y76.3326 Z-19.1176 I0.4745 J0.0000 F1080.00
G2 X26.2759 Y76.3326 Z-19.4853 I-0.4745 J0.0000 F1080.00
G2 X27.2249 Y76.3326 Z-19.8529 I0.4745 J0.0000 F1080.00
G2 X26.2759 Y76.3326 Z-20.2206 I-0.4745 J0.0000 F1080.00
G2 X27.2249 Y76.3326 Z-20.5882 I0.4745 J0.0000 F1080.00
G2 X26.2759 Y76.3326 Z-20.9559 I-0.4745 J0.0000 F1080.00
G2 X27.2249 Y76.3326 Z-21.3235 I0.4745 J0.0000 F1080.00
G2 X26.2759 Y76.3326 Z-21.6912 I-0.4745 J0.0000 F1080.00
G2 X27.2249 Y76.3326 Z-22.0588 I0.4745 J0.0000 F1080.00
G2 X26.2759 Y76.3326 Z-22.4265 I-0.4745 J0.0000 F1080.00
G2 X27.2249 Y76.3326 Z-22.7941 I0.4745 J0.0000 F1080.00
G2 X26.2759 Y76.3326 Z-23.1618 I-0.4745 J0.0000 F1080.00
G2 X27.2249 Y76.3326 Z-23.5294 I0.4745 J0.0000 F1080.00
G2 X26.2759 Y76.3326 Z-23.8971 I-0.4745 J0.0000 F1080.00
G2 X27.2249 Y76.3326 Z-24.2647 I0.4745 J0.0000 F1080.00
G2 X26.2759 Y76.3326 Z-24.6324 I-0.4745 J0.0000 F1080.00
G2 X27.2249 Y76.3326 Z-25.0000 I0.4745 J0.0000 F1080.00
G2 X26.2759 Y76.3326 Z-25.0000 I-0.4745 J0.0000 F1080.00
G2 X27.2249 Y76.3326 Z-25.0000 I0.4745 J0.0000 F1080.00
G0 Z3.0000
G0 Z5.0000
(finish operation: Helix)
(begin postamble)
M5
G17 G90
; M2
