(Exported by FreeCAD)
(Post Processor: grbl_post)
(Output Time:2021-11-28 03:41:20.994945)
(begin preamble)
G17 G90
G21
(begin operation: T2: 1/4inENDMILL006)
(Path: T2: 1/4inENDMILL006)
(T2: 1/4inENDMILL006)
(begin toolchange)
; M6 T2
M3 S0.0000
(finish operation: T2: 1/4inENDMILL006)
(begin operation: Contour003)
(Path: Contour003)
(Contour003)
(Compensated Tool Path. Diameter: 6.0)
G0 Z5.0000
G0 X141.4492 Y346.7659
G0 Z3.0000
G1 X141.4492 Y346.7659 Z-0.5000 F1020.00
G2 X154.9852 Y255.5065 Z-0.5000 I-61.4632 J-55.7501 F1020.00
G2 X154.2325 Y254.4932 Z-0.5000 I-2.7307 J1.2422 F1020.00
G3 X156.8676 Y97.0547 Z-0.5000 I66.1607 J-77.6339 F1020.00
G2 X157.7947 Y95.7341 Z-0.5000 I-1.9014 J-2.3205 F1020.00
G2 X125.5254 Y-2.4825 Z-0.5000 I-77.8285 J-28.8386 F1020.00
G2 X124.6857 Y-2.8786 Z-0.5000 I-1.6844 J2.4825 F1020.00
G2 X120.9307 Y-0.7281 Z-0.5000 I-0.8447 J2.8786 F1020.00
G3 X39.0017 Y-0.7281 Z-0.5000 I-40.9645 J-9.2737 F1020.00
G2 X34.4070 Y-2.4825 Z-0.5000 I-2.9103 J0.7281 F1020.00
G2 X2.1377 Y95.7341 Z-0.5000 I45.5592 J69.3780 F1020.00
G2 X2.4893 Y96.4269 Z-0.5000 I2.8285 J-0.9998 F1020.00
G3 X0.3905 Y268.0694 Z-0.5000 I-120.3853 J84.3621 F1020.00
G2 X-0.0792 Y269.0711 Z-0.5000 I2.4348 J1.7527 F1020.00
G2 X3.0298 Y322.1012 Z-0.5000 I79.8320 J21.9259 F1020.00
G2 X16.8669 Y326.6854 Z-0.5000 I9.0662 J-4.1905 F1020.00
G2 X17.9571 Y325.7624 Z-0.5000 I-1.3375 J-2.6854 F1020.00
G3 X61.9662 Y324.9741 Z-0.5000 I22.2844 J15.2304 F1020.00
G1 X61.9662 Y364.0000 Z-0.5000 F1020.00
G2 X64.9662 Y367.0000 Z-0.5000 I3.0000 J-0.0000 F1020.00
G1 X94.9662 Y367.0000 Z-0.5000 F1020.00
G2 X97.9662 Y364.0000 Z-0.5000 I-0.0000 J-3.0000 F1020.00
G1 X97.9662 Y344.5662 Z-0.5000 F1020.00
G3 X125.7136 Y344.0714 Z-0.5000 I13.9749 J5.4269 F1020.00
G2 X126.3640 Y345.5910 Z-0.5000 I8.4759 J-2.7285 F1020.00
G2 X141.4492 Y346.7659 Z-0.5000 I8.0484 J-5.9075 F1020.00
G1 X141.4492 Y346.7659 Z-1.0000 F1020.00
G2 X154.9852 Y255.5065 Z-1.0000 I-61.4632 J-55.7501 F1020.00
G2 X154.2325 Y254.4932 Z-1.0000 I-2.7307 J1.2422 F1020.00
G3 X156.8676 Y97.0547 Z-1.0000 I66.1607 J-77.6339 F1020.00
G2 X157.7947 Y95.7341 Z-1.0000 I-1.9014 J-2.3205 F1020.00
G2 X125.5254 Y-2.4825 Z-1.0000 I-77.8285 J-28.8386 F1020.00
G2 X124.6857 Y-2.8786 Z-1.0000 I-1.6844 J2.4825 F1020.00
G2 X120.9307 Y-0.7281 Z-1.0000 I-0.8447 J2.8786 F1020.00
G3 X39.0017 Y-0.7281 Z-1.0000 I-40.9645 J-9.2737 F1020.00
G2 X34.4070 Y-2.4825 Z-1.0000 I-2.9103 J0.7281 F1020.00
G2 X2.1377 Y95.7341 Z-1.0000 I45.5592 J69.3780 F1020.00
G2 X2.4893 Y96.4269 Z-1.0000 I2.8285 J-0.9998 F1020.00
G3 X0.3905 Y268.0694 Z-1.0000 I-120.3853 J84.3621 F1020.00
G2 X-0.0792 Y269.0711 Z-1.0000 I2.4348 J1.7527 F1020.00
G2 X3.0298 Y322.1012 Z-1.0000 I79.8320 J21.9259 F1020.00
G2 X16.8669 Y326.6854 Z-1.0000 I9.0662 J-4.1905 F1020.00
G2 X17.9571 Y325.7624 Z-1.0000 I-1.3375 J-2.6854 F1020.00
G3 X61.9662 Y324.9741 Z-1.0000 I22.2844 J15.2304 F1020.00
G1 X61.9662 Y364.0000 Z-1.0000 F1020.00
G2 X64.9662 Y367.0000 Z-1.0000 I3.0000 J-0.0000 F1020.00
G1 X94.9662 Y367.0000 Z-1.0000 F1020.00
G2 X97.9662 Y364.0000 Z-1.0000 I-0.0000 J-3.0000 F1020.00
G1 X97.9662 Y344.5662 Z-1.0000 F1020.00
G3 X125.7136 Y344.0714 Z-1.0000 I13.9749 J5.4269 F1020.00
G2 X126.3640 Y345.5910 Z-1.0000 I8.4759 J-2.7285 F1020.00
G2 X141.4492 Y346.7659 Z-1.0000 I8.0484 J-5.9075 F1020.00
G1 X141.4492 Y346.7659 Z-1.5000 F1020.00
G2 X154.9852 Y255.5065 Z-1.5000 I-61.4632 J-55.7501 F1020.00
G2 X154.2325 Y254.4932 Z-1.5000 I-2.7307 J1.2422 F1020.00
G3 X156.8676 Y97.0547 Z-1.5000 I66.1607 J-77.6339 F1020.00
G2 X157.7947 Y95.7341 Z-1.5000 I-1.9014 J-2.3205 F1020.00
G2 X125.5254 Y-2.4825 Z-1.5000 I-77.8285 J-28.8386 F1020.00
G2 X124.6857 Y-2.8786 Z-1.5000 I-1.6844 J2.4825 F1020.00
G2 X120.9307 Y-0.7281 Z-1.5000 I-0.8447 J2.8786 F1020.00
G3 X39.0017 Y-0.7281 Z-1.5000 I-40.9645 J-9.2737 F1020.00
G2 X34.4070 Y-2.4825 Z-1.5000 I-2.9103 J0.7281 F1020.00
G2 X2.1377 Y95.7341 Z-1.5000 I45.5592 J69.3780 F1020.00
G2 X2.4893 Y96.4269 Z-1.5000 I2.8285 J-0.9998 F1020.00
G3 X0.3905 Y268.0694 Z-1.5000 I-120.3853 J84.3621 F1020.00
G2 X-0.0792 Y269.0711 Z-1.5000 I2.4348 J1.7527 F1020.00
G2 X3.0298 Y322.1012 Z-1.5000 I79.8320 J21.9259 F1020.00
G2 X16.8669 Y326.6854 Z-1.5000 I9.0662 J-4.1905 F1020.00
G2 X17.9571 Y325.7624 Z-1.5000 I-1.3375 J-2.6854 F1020.00
G3 X61.9662 Y324.9741 Z-1.5000 I22.2844 J15.2304 F1020.00
G1 X61.9662 Y364.0000 Z-1.5000 F1020.00
G2 X64.9662 Y367.0000 Z-1.5000 I3.0000 J-0.0000 F1020.00
G1 X94.9662 Y367.0000 Z-1.5000 F1020.00
G2 X97.9662 Y364.0000 Z-1.5000 I-0.0000 J-3.0000 F1020.00
G1 X97.9662 Y344.5662 Z-1.5000 F1020.00
G3 X125.7136 Y344.0714 Z-1.5000 I13.9749 J5.4269 F1020.00
G2 X126.3640 Y345.5910 Z-1.5000 I8.4759 J-2.7285 F1020.00
G2 X141.4492 Y346.7659 Z-1.5000 I8.0484 J-5.9075 F1020.00
G1 X141.4492 Y346.7659 Z-2.0000 F1020.00
G2 X154.9852 Y255.5065 Z-2.0000 I-61.4632 J-55.7501 F1020.00
G2 X154.2325 Y254.4932 Z-2.0000 I-2.7307 J1.2422 F1020.00
G3 X156.8676 Y97.0547 Z-2.0000 I66.1607 J-77.6339 F1020.00
G2 X157.7947 Y95.7341 Z-2.0000 I-1.9014 J-2.3205 F1020.00
G2 X125.5254 Y-2.4825 Z-2.0000 I-77.8285 J-28.8386 F1020.00
G2 X124.6857 Y-2.8786 Z-2.0000 I-1.6844 J2.4825 F1020.00
G2 X120.9307 Y-0.7281 Z-2.0000 I-0.8447 J2.8786 F1020.00
G3 X39.0017 Y-0.7281 Z-2.0000 I-40.9645 J-9.2737 F1020.00
G2 X34.4070 Y-2.4825 Z-2.0000 I-2.9103 J0.7281 F1020.00
G2 X2.1377 Y95.7341 Z-2.0000 I45.5592 J69.3780 F1020.00
G2 X2.4893 Y96.4269 Z-2.0000 I2.8285 J-0.9998 F1020.00
G3 X0.3905 Y268.0694 Z-2.0000 I-120.3853 J84.3621 F1020.00
G2 X-0.0792 Y269.0711 Z-2.0000 I2.4348 J1.7527 F1020.00
G2 X3.0298 Y322.1012 Z-2.0000 I79.8320 J21.9259 F1020.00
G2 X16.8669 Y326.6854 Z-2.0000 I9.0662 J-4.1905 F1020.00
G2 X17.9571 Y325.7624 Z-2.0000 I-1.3375 J-2.6854 F1020.00
G3 X61.9662 Y324.9741 Z-2.0000 I22.2844 J15.2304 F1020.00
G1 X61.9662 Y364.0000 Z-2.0000 F1020.00
G2 X64.9662 Y367.0000 Z-2.0000 I3.0000 J-0.0000 F1020.00
G1 X94.9662 Y367.0000 Z-2.0000 F1020.00
G2 X97.9662 Y364.0000 Z-2.0000 I-0.0000 J-3.0000 F1020.00
G1 X97.9662 Y344.5662 Z-2.0000 F1020.00
G3 X125.7136 Y344.0714 Z-2.0000 I13.9749 J5.4269 F1020.00
G2 X126.3640 Y345.5910 Z-2.0000 I8.4759 J-2.7285 F1020.00
G2 X141.4492 Y346.7659 Z-2.0000 I8.0484 J-5.9075 F1020.00
G1 X141.4492 Y346.7659 Z-2.5000 F1020.00
G2 X154.9852 Y255.5065 Z-2.5000 I-61.4632 J-55.7501 F1020.00
G2 X154.2325 Y254.4932 Z-2.5000 I-2.7307 J1.2422 F1020.00
G3 X156.8676 Y97.0547 Z-2.5000 I66.1607 J-77.6339 F1020.00
G2 X157.7947 Y95.7341 Z-2.5000 I-1.9014 J-2.3205 F1020.00
G2 X125.5254 Y-2.4825 Z-2.5000 I-77.8285 J-28.8386 F1020.00
G2 X124.6857 Y-2.8786 Z-2.5000 I-1.6844 J2.4825 F1020.00
G2 X120.9307 Y-0.7281 Z-2.5000 I-0.8447 J2.8786 F1020.00
G3 X39.0017 Y-0.7281 Z-2.5000 I-40.9645 J-9.2737 F1020.00
G2 X34.4070 Y-2.4825 Z-2.5000 I-2.9103 J0.7281 F1020.00
G2 X2.1377 Y95.7341 Z-2.5000 I45.5592 J69.3780 F1020.00
G2 X2.4893 Y96.4269 Z-2.5000 I2.8285 J-0.9998 F1020.00
G3 X0.3905 Y268.0694 Z-2.5000 I-120.3853 J84.3621 F1020.00
G2 X-0.0792 Y269.0711 Z-2.5000 I2.4348 J1.7527 F1020.00
G2 X3.0298 Y322.1012 Z-2.5000 I79.8320 J21.9259 F1020.00
G2 X16.8669 Y326.6854 Z-2.5000 I9.0662 J-4.1905 F1020.00
G2 X17.9571 Y325.7624 Z-2.5000 I-1.3375 J-2.6854 F1020.00
G3 X61.9662 Y324.9741 Z-2.5000 I22.2844 J15.2304 F1020.00
G1 X61.9662 Y364.0000 Z-2.5000 F1020.00
G2 X64.9662 Y367.0000 Z-2.5000 I3.0000 J-0.0000 F1020.00
G1 X94.9662 Y367.0000 Z-2.5000 F1020.00
G2 X97.9662 Y364.0000 Z-2.5000 I-0.0000 J-3.0000 F1020.00
G1 X97.9662 Y344.5662 Z-2.5000 F1020.00
G3 X125.7136 Y344.0714 Z-2.5000 I13.9749 J5.4269 F1020.00
G2 X126.3640 Y345.5910 Z-2.5000 I8.4759 J-2.7285 F1020.00
G2 X141.4492 Y346.7659 Z-2.5000 I8.0484 J-5.9075 F1020.00
G1 X141.4492 Y346.7659 Z-3.0000 F1020.00
G2 X154.9852 Y255.5065 Z-3.0000 I-61.4632 J-55.7501 F1020.00
G2 X154.2325 Y254.4932 Z-3.0000 I-2.7307 J1.2422 F1020.00
G3 X156.8676 Y97.0547 Z-3.0000 I66.1607 J-77.6339 F1020.00
G2 X157.7947 Y95.7341 Z-3.0000 I-1.9014 J-2.3205 F1020.00
G2 X125.5254 Y-2.4825 Z-3.0000 I-77.8285 J-28.8386 F1020.00
G2 X124.6857 Y-2.8786 Z-3.0000 I-1.6844 J2.4825 F1020.00
G2 X120.9307 Y-0.7281 Z-3.0000 I-0.8447 J2.8786 F1020.00
G3 X39.0017 Y-0.7281 Z-3.0000 I-40.9645 J-9.2737 F1020.00
G2 X34.4070 Y-2.4825 Z-3.0000 I-2.9103 J0.7281 F1020.00
G2 X2.1377 Y95.7341 Z-3.0000 I45.5592 J69.3780 F1020.00
G2 X2.4893 Y96.4269 Z-3.0000 I2.8285 J-0.9998 F1020.00
G3 X0.3905 Y268.0694 Z-3.0000 I-120.3853 J84.3621 F1020.00
G2 X-0.0792 Y269.0711 Z-3.0000 I2.4348 J1.7527 F1020.00
G2 X3.0298 Y322.1012 Z-3.0000 I79.8320 J21.9259 F1020.00
G2 X16.8669 Y326.6854 Z-3.0000 I9.0662 J-4.1905 F1020.00
G2 X17.9571 Y325.7624 Z-3.0000 I-1.3375 J-2.6854 F1020.00
G3 X61.9662 Y324.9741 Z-3.0000 I22.2844 J15.2304 F1020.00
G1 X61.9662 Y364.0000 Z-3.0000 F1020.00
G2 X64.9662 Y367.0000 Z-3.0000 I3.0000 J-0.0000 F1020.00
G1 X94.9662 Y367.0000 Z-3.0000 F1020.00
G2 X97.9662 Y364.0000 Z-3.0000 I-0.0000 J-3.0000 F1020.00
G1 X97.9662 Y344.5662 Z-3.0000 F1020.00
G3 X125.7136 Y344.0714 Z-3.0000 I13.9749 J5.4269 F1020.00
G2 X126.3640 Y345.5910 Z-3.0000 I8.4759 J-2.7285 F1020.00
G2 X141.4492 Y346.7659 Z-3.0000 I8.0484 J-5.9075 F1020.00
G1 X141.4492 Y346.7659 Z-3.5000 F1020.00
G2 X154.9852 Y255.5065 Z-3.5000 I-61.4632 J-55.7501 F1020.00
G2 X154.2325 Y254.4932 Z-3.5000 I-2.7307 J1.2422 F1020.00
G3 X156.8676 Y97.0547 Z-3.5000 I66.1607 J-77.6339 F1020.00
G2 X157.7947 Y95.7341 Z-3.5000 I-1.9014 J-2.3205 F1020.00
G2 X125.5254 Y-2.4825 Z-3.5000 I-77.8285 J-28.8386 F1020.00
G2 X124.6857 Y-2.8786 Z-3.5000 I-1.6844 J2.4825 F1020.00
G2 X120.9307 Y-0.7281 Z-3.5000 I-0.8447 J2.8786 F1020.00
G3 X39.0017 Y-0.7281 Z-3.5000 I-40.9645 J-9.2737 F1020.00
G2 X34.4070 Y-2.4825 Z-3.5000 I-2.9103 J0.7281 F1020.00
G2 X2.1377 Y95.7341 Z-3.5000 I45.5592 J69.3780 F1020.00
G2 X2.4893 Y96.4269 Z-3.5000 I2.8285 J-0.9998 F1020.00
G3 X0.3905 Y268.0694 Z-3.5000 I-120.3853 J84.3621 F1020.00
G2 X-0.0792 Y269.0711 Z-3.5000 I2.4348 J1.7527 F1020.00
G2 X3.0298 Y322.1012 Z-3.5000 I79.8320 J21.9259 F1020.00
G2 X16.8669 Y326.6854 Z-3.5000 I9.0662 J-4.1905 F1020.00
G2 X17.9571 Y325.7624 Z-3.5000 I-1.3375 J-2.6854 F1020.00
G3 X61.9662 Y324.9741 Z-3.5000 I22.2844 J15.2304 F1020.00
G1 X61.9662 Y364.0000 Z-3.5000 F1020.00
G2 X64.9662 Y367.0000 Z-3.5000 I3.0000 J-0.0000 F1020.00
G1 X94.9662 Y367.0000 Z-3.5000 F1020.00
G2 X97.9662 Y364.0000 Z-3.5000 I-0.0000 J-3.0000 F1020.00
G1 X97.9662 Y344.5662 Z-3.5000 F1020.00
G3 X125.7136 Y344.0714 Z-3.5000 I13.9749 J5.4269 F1020.00
G2 X126.3640 Y345.5910 Z-3.5000 I8.4759 J-2.7285 F1020.00
G2 X141.4492 Y346.7659 Z-3.5000 I8.0484 J-5.9075 F1020.00
G1 X141.4492 Y346.7659 Z-4.0000 F1020.00
G2 X154.9852 Y255.5065 Z-4.0000 I-61.4632 J-55.7501 F1020.00
G2 X154.2325 Y254.4932 Z-4.0000 I-2.7307 J1.2422 F1020.00
G3 X156.8676 Y97.0547 Z-4.0000 I66.1607 J-77.6339 F1020.00
G2 X157.7947 Y95.7341 Z-4.0000 I-1.9014 J-2.3205 F1020.00
G2 X125.5254 Y-2.4825 Z-4.0000 I-77.8285 J-28.8386 F1020.00
G2 X124.6857 Y-2.8786 Z-4.0000 I-1.6844 J2.4825 F1020.00
G2 X120.9307 Y-0.7281 Z-4.0000 I-0.8447 J2.8786 F1020.00
G3 X39.0017 Y-0.7281 Z-4.0000 I-40.9645 J-9.2737 F1020.00
G2 X34.4070 Y-2.4825 Z-4.0000 I-2.9103 J0.7281 F1020.00
G2 X2.1377 Y95.7341 Z-4.0000 I45.5592 J69.3780 F1020.00
G2 X2.4893 Y96.4269 Z-4.0000 I2.8285 J-0.9998 F1020.00
G3 X0.3905 Y268.0694 Z-4.0000 I-120.3853 J84.3621 F1020.00
G2 X-0.0792 Y269.0711 Z-4.0000 I2.4348 J1.7527 F1020.00
G2 X3.0298 Y322.1012 Z-4.0000 I79.8320 J21.9259 F1020.00
G2 X16.8669 Y326.6854 Z-4.0000 I9.0662 J-4.1905 F1020.00
G2 X17.9571 Y325.7624 Z-4.0000 I-1.3375 J-2.6854 F1020.00
G3 X61.9662 Y324.9741 Z-4.0000 I22.2844 J15.2304 F1020.00
G1 X61.9662 Y364.0000 Z-4.0000 F1020.00
G2 X64.9662 Y367.0000 Z-4.0000 I3.0000 J-0.0000 F1020.00
G1 X94.9662 Y367.0000 Z-4.0000 F1020.00
G2 X97.9662 Y364.0000 Z-4.0000 I-0.0000 J-3.0000 F1020.00
G1 X97.9662 Y344.5662 Z-4.0000 F1020.00
G3 X125.7136 Y344.0714 Z-4.0000 I13.9749 J5.4269 F1020.00
G2 X126.3640 Y345.5910 Z-4.0000 I8.4759 J-2.7285 F1020.00
G2 X141.4492 Y346.7659 Z-4.0000 I8.0484 J-5.9075 F1020.00
G1 X141.4492 Y346.7659 Z-4.5000 F1020.00
G2 X154.9852 Y255.5065 Z-4.5000 I-61.4632 J-55.7501 F1020.00
G2 X154.2325 Y254.4932 Z-4.5000 I-2.7307 J1.2422 F1020.00
G3 X156.8676 Y97.0547 Z-4.5000 I66.1607 J-77.6339 F1020.00
G2 X157.7947 Y95.7341 Z-4.5000 I-1.9014 J-2.3205 F1020.00
G2 X125.5254 Y-2.4825 Z-4.5000 I-77.8285 J-28.8386 F1020.00
G2 X124.6857 Y-2.8786 Z-4.5000 I-1.6844 J2.4825 F1020.00
G2 X120.9307 Y-0.7281 Z-4.5000 I-0.8447 J2.8786 F1020.00
G3 X39.0017 Y-0.7281 Z-4.5000 I-40.9645 J-9.2737 F1020.00
G2 X34.4070 Y-2.4825 Z-4.5000 I-2.9103 J0.7281 F1020.00
G2 X2.1377 Y95.7341 Z-4.5000 I45.5592 J69.3780 F1020.00
G2 X2.4893 Y96.4269 Z-4.5000 I2.8285 J-0.9998 F1020.00
G3 X0.3905 Y268.0694 Z-4.5000 I-120.3853 J84.3621 F1020.00
G2 X-0.0792 Y269.0711 Z-4.5000 I2.4348 J1.7527 F1020.00
G2 X3.0298 Y322.1012 Z-4.5000 I79.8320 J21.9259 F1020.00
G2 X16.8669 Y326.6854 Z-4.5000 I9.0662 J-4.1905 F1020.00
G2 X17.9571 Y325.7624 Z-4.5000 I-1.3375 J-2.6854 F1020.00
G3 X61.9662 Y324.9741 Z-4.5000 I22.2844 J15.2304 F1020.00
G1 X61.9662 Y364.0000 Z-4.5000 F1020.00
G2 X64.9662 Y367.0000 Z-4.5000 I3.0000 J-0.0000 F1020.00
G1 X94.9662 Y367.0000 Z-4.5000 F1020.00
G2 X97.9662 Y364.0000 Z-4.5000 I-0.0000 J-3.0000 F1020.00
G1 X97.9662 Y344.5662 Z-4.5000 F1020.00
G3 X125.7136 Y344.0714 Z-4.5000 I13.9749 J5.4269 F1020.00
G2 X126.3640 Y345.5910 Z-4.5000 I8.4759 J-2.7285 F1020.00
G2 X141.4492 Y346.7659 Z-4.5000 I8.0484 J-5.9075 F1020.00
G1 X141.4492 Y346.7659 Z-5.0000 F1020.00
G2 X154.9852 Y255.5065 Z-5.0000 I-61.4632 J-55.7501 F1020.00
G2 X154.2325 Y254.4932 Z-5.0000 I-2.7307 J1.2422 F1020.00
G3 X156.8676 Y97.0547 Z-5.0000 I66.1607 J-77.6339 F1020.00
G2 X157.7947 Y95.7341 Z-5.0000 I-1.9014 J-2.3205 F1020.00
G2 X125.5254 Y-2.4825 Z-5.0000 I-77.8285 J-28.8386 F1020.00
G2 X124.6857 Y-2.8786 Z-5.0000 I-1.6844 J2.4825 F1020.00
G2 X120.9307 Y-0.7281 Z-5.0000 I-0.8447 J2.8786 F1020.00
G3 X39.0017 Y-0.7281 Z-5.0000 I-40.9645 J-9.2737 F1020.00
G2 X34.4070 Y-2.4825 Z-5.0000 I-2.9103 J0.7281 F1020.00
G2 X2.1377 Y95.7341 Z-5.0000 I45.5592 J69.3780 F1020.00
G2 X2.4893 Y96.4269 Z-5.0000 I2.8285 J-0.9998 F1020.00
G3 X0.3905 Y268.0694 Z-5.0000 I-120.3853 J84.3621 F1020.00
G2 X-0.0792 Y269.0711 Z-5.0000 I2.4348 J1.7527 F1020.00
G2 X3.0298 Y322.1012 Z-5.0000 I79.8320 J21.9259 F1020.00
G2 X16.8669 Y326.6854 Z-5.0000 I9.0662 J-4.1905 F1020.00
G2 X17.9571 Y325.7624 Z-5.0000 I-1.3375 J-2.6854 F1020.00
G3 X61.9662 Y324.9741 Z-5.0000 I22.2844 J15.2304 F1020.00
G1 X61.9662 Y364.0000 Z-5.0000 F1020.00
G2 X64.9662 Y367.0000 Z-5.0000 I3.0000 J-0.0000 F1020.00
G1 X94.9662 Y367.0000 Z-5.0000 F1020.00
G2 X97.9662 Y364.0000 Z-5.0000 I-0.0000 J-3.0000 F1020.00
G1 X97.9662 Y344.5662 Z-5.0000 F1020.00
G3 X125.7136 Y344.0714 Z-5.0000 I13.9749 J5.4269 F1020.00
G2 X126.3640 Y345.5910 Z-5.0000 I8.4759 J-2.7285 F1020.00
G2 X141.4492 Y346.7659 Z-5.0000 I8.0484 J-5.9075 F1020.00
G1 X141.4492 Y346.7659 Z-5.5000 F1020.00
G2 X154.9852 Y255.5065 Z-5.5000 I-61.4632 J-55.7501 F1020.00
G2 X154.2325 Y254.4932 Z-5.5000 I-2.7307 J1.2422 F1020.00
G3 X156.8676 Y97.0547 Z-5.5000 I66.1607 J-77.6339 F1020.00
G2 X157.7947 Y95.7341 Z-5.5000 I-1.9014 J-2.3205 F1020.00
G2 X125.5254 Y-2.4825 Z-5.5000 I-77.8285 J-28.8386 F1020.00
G2 X124.6857 Y-2.8786 Z-5.5000 I-1.6844 J2.4825 F1020.00
G2 X120.9307 Y-0.7281 Z-5.5000 I-0.8447 J2.8786 F1020.00
G3 X39.0017 Y-0.7281 Z-5.5000 I-40.9645 J-9.2737 F1020.00
G2 X34.4070 Y-2.4825 Z-5.5000 I-2.9103 J0.7281 F1020.00
G2 X2.1377 Y95.7341 Z-5.5000 I45.5592 J69.3780 F1020.00
G2 X2.4893 Y96.4269 Z-5.5000 I2.8285 J-0.9998 F1020.00
G3 X0.3905 Y268.0694 Z-5.5000 I-120.3853 J84.3621 F1020.00
G2 X-0.0792 Y269.0711 Z-5.5000 I2.4348 J1.7527 F1020.00
G2 X3.0298 Y322.1012 Z-5.5000 I79.8320 J21.9259 F1020.00
G2 X16.8669 Y326.6854 Z-5.5000 I9.0662 J-4.1905 F1020.00
G2 X17.9571 Y325.7624 Z-5.5000 I-1.3375 J-2.6854 F1020.00
G3 X61.9662 Y324.9741 Z-5.5000 I22.2844 J15.2304 F1020.00
G1 X61.9662 Y364.0000 Z-5.5000 F1020.00
G2 X64.9662 Y367.0000 Z-5.5000 I3.0000 J-0.0000 F1020.00
G1 X94.9662 Y367.0000 Z-5.5000 F1020.00
G2 X97.9662 Y364.0000 Z-5.5000 I-0.0000 J-3.0000 F1020.00
G1 X97.9662 Y344.5662 Z-5.5000 F1020.00
G3 X125.7136 Y344.0714 Z-5.5000 I13.9749 J5.4269 F1020.00
G2 X126.3640 Y345.5910 Z-5.5000 I8.4759 J-2.7285 F1020.00
G2 X141.4492 Y346.7659 Z-5.5000 I8.0484 J-5.9075 F1020.00
G1 X141.4492 Y346.7659 Z-6.0000 F1020.00
G2 X154.9852 Y255.5065 Z-6.0000 I-61.4632 J-55.7501 F1020.00
G2 X154.2325 Y254.4932 Z-6.0000 I-2.7307 J1.2422 F1020.00
G3 X156.8676 Y97.0547 Z-6.0000 I66.1607 J-77.6339 F1020.00
G2 X157.7947 Y95.7341 Z-6.0000 I-1.9014 J-2.3205 F1020.00
G2 X125.5254 Y-2.4825 Z-6.0000 I-77.8285 J-28.8386 F1020.00
G2 X124.6857 Y-2.8786 Z-6.0000 I-1.6844 J2.4825 F1020.00
G2 X120.9307 Y-0.7281 Z-6.0000 I-0.8447 J2.8786 F1020.00
G3 X39.0017 Y-0.7281 Z-6.0000 I-40.9645 J-9.2737 F1020.00
G2 X34.4070 Y-2.4825 Z-6.0000 I-2.9103 J0.7281 F1020.00
G2 X2.1377 Y95.7341 Z-6.0000 I45.5592 J69.3780 F1020.00
G2 X2.4893 Y96.4269 Z-6.0000 I2.8285 J-0.9998 F1020.00
G3 X0.3905 Y268.0694 Z-6.0000 I-120.3853 J84.3621 F1020.00
G2 X-0.0792 Y269.0711 Z-6.0000 I2.4348 J1.7527 F1020.00
G2 X3.0298 Y322.1012 Z-6.0000 I79.8320 J21.9259 F1020.00
G2 X16.8669 Y326.6854 Z-6.0000 I9.0662 J-4.1905 F1020.00
G2 X17.9571 Y325.7624 Z-6.0000 I-1.3375 J-2.6854 F1020.00
G3 X61.9662 Y324.9741 Z-6.0000 I22.2844 J15.2304 F1020.00
G1 X61.9662 Y364.0000 Z-6.0000 F1020.00
G2 X64.9662 Y367.0000 Z-6.0000 I3.0000 J-0.0000 F1020.00
G1 X94.9662 Y367.0000 Z-6.0000 F1020.00
G2 X97.9662 Y364.0000 Z-6.0000 I-0.0000 J-3.0000 F1020.00
G1 X97.9662 Y344.5662 Z-6.0000 F1020.00
G3 X125.7136 Y344.0714 Z-6.0000 I13.9749 J5.4269 F1020.00
G2 X126.3640 Y345.5910 Z-6.0000 I8.4759 J-2.7285 F1020.00
G2 X141.4492 Y346.7659 Z-6.0000 I8.0484 J-5.9075 F1020.00
G1 X141.4492 Y346.7659 Z-6.5000 F1020.00
G2 X154.9852 Y255.5065 Z-6.5000 I-61.4632 J-55.7501 F1020.00
G2 X154.2325 Y254.4932 Z-6.5000 I-2.7307 J1.2422 F1020.00
G3 X156.8676 Y97.0547 Z-6.5000 I66.1607 J-77.6339 F1020.00
G2 X157.7947 Y95.7341 Z-6.5000 I-1.9014 J-2.3205 F1020.00
G2 X125.5254 Y-2.4825 Z-6.5000 I-77.8285 J-28.8386 F1020.00
G2 X124.6857 Y-2.8786 Z-6.5000 I-1.6844 J2.4825 F1020.00
G2 X120.9307 Y-0.7281 Z-6.5000 I-0.8447 J2.8786 F1020.00
G3 X39.0017 Y-0.7281 Z-6.5000 I-40.9645 J-9.2737 F1020.00
G2 X34.4070 Y-2.4825 Z-6.5000 I-2.9103 J0.7281 F1020.00
G2 X2.1377 Y95.7341 Z-6.5000 I45.5592 J69.3780 F1020.00
G2 X2.4893 Y96.4269 Z-6.5000 I2.8285 J-0.9998 F1020.00
G3 X0.3905 Y268.0694 Z-6.5000 I-120.3853 J84.3621 F1020.00
G2 X-0.0792 Y269.0711 Z-6.5000 I2.4348 J1.7527 F1020.00
G2 X3.0298 Y322.1012 Z-6.5000 I79.8320 J21.9259 F1020.00
G2 X16.8669 Y326.6854 Z-6.5000 I9.0662 J-4.1905 F1020.00
G2 X17.9571 Y325.7624 Z-6.5000 I-1.3375 J-2.6854 F1020.00
G3 X61.9662 Y324.9741 Z-6.5000 I22.2844 J15.2304 F1020.00
G1 X61.9662 Y364.0000 Z-6.5000 F1020.00
G2 X64.9662 Y367.0000 Z-6.5000 I3.0000 J-0.0000 F1020.00
G1 X94.9662 Y367.0000 Z-6.5000 F1020.00
G2 X97.9662 Y364.0000 Z-6.5000 I-0.0000 J-3.0000 F1020.00
G1 X97.9662 Y344.5662 Z-6.5000 F1020.00
G3 X125.7136 Y344.0714 Z-6.5000 I13.9749 J5.4269 F1020.00
G2 X126.3640 Y345.5910 Z-6.5000 I8.4759 J-2.7285 F1020.00
G2 X141.4492 Y346.7659 Z-6.5000 I8.0484 J-5.9075 F1020.00
G1 X141.4492 Y346.7659 Z-7.0000 F1020.00
G2 X154.9852 Y255.5065 Z-7.0000 I-61.4632 J-55.7501 F1020.00
G2 X154.2325 Y254.4932 Z-7.0000 I-2.7307 J1.2422 F1020.00
G3 X156.8676 Y97.0547 Z-7.0000 I66.1607 J-77.6339 F1020.00
G2 X157.7947 Y95.7341 Z-7.0000 I-1.9014 J-2.3205 F1020.00
G2 X125.5254 Y-2.4825 Z-7.0000 I-77.8285 J-28.8386 F1020.00
G2 X124.6857 Y-2.8786 Z-7.0000 I-1.6844 J2.4825 F1020.00
G2 X120.9307 Y-0.7281 Z-7.0000 I-0.8447 J2.8786 F1020.00
G3 X39.0017 Y-0.7281 Z-7.0000 I-40.9645 J-9.2737 F1020.00
G2 X34.4070 Y-2.4825 Z-7.0000 I-2.9103 J0.7281 F1020.00
G2 X2.1377 Y95.7341 Z-7.0000 I45.5592 J69.3780 F1020.00
G2 X2.4893 Y96.4269 Z-7.0000 I2.8285 J-0.9998 F1020.00
G3 X0.3905 Y268.0694 Z-7.0000 I-120.3853 J84.3621 F1020.00
G2 X-0.0792 Y269.0711 Z-7.0000 I2.4348 J1.7527 F1020.00
G2 X3.0298 Y322.1012 Z-7.0000 I79.8320 J21.9259 F1020.00
G2 X16.8669 Y326.6854 Z-7.0000 I9.0662 J-4.1905 F1020.00
G2 X17.9571 Y325.7624 Z-7.0000 I-1.3375 J-2.6854 F1020.00
G3 X61.9662 Y324.9741 Z-7.0000 I22.2844 J15.2304 F1020.00
G1 X61.9662 Y364.0000 Z-7.0000 F1020.00
G2 X64.9662 Y367.0000 Z-7.0000 I3.0000 J-0.0000 F1020.00
G1 X94.9662 Y367.0000 Z-7.0000 F1020.00
G2 X97.9662 Y364.0000 Z-7.0000 I-0.0000 J-3.0000 F1020.00
G1 X97.9662 Y344.5662 Z-7.0000 F1020.00
G3 X125.7136 Y344.0714 Z-7.0000 I13.9749 J5.4269 F1020.00
G2 X126.3640 Y345.5910 Z-7.0000 I8.4759 J-2.7285 F1020.00
G2 X141.4492 Y346.7659 Z-7.0000 I8.0484 J-5.9075 F1020.00
G1 X141.4492 Y346.7659 Z-7.5000 F1020.00
G2 X154.9852 Y255.5065 Z-7.5000 I-61.4632 J-55.7501 F1020.00
G2 X154.2325 Y254.4932 Z-7.5000 I-2.7307 J1.2422 F1020.00
G3 X156.8676 Y97.0547 Z-7.5000 I66.1607 J-77.6339 F1020.00
G2 X157.7947 Y95.7341 Z-7.5000 I-1.9014 J-2.3205 F1020.00
G2 X125.5254 Y-2.4825 Z-7.5000 I-77.8285 J-28.8386 F1020.00
G2 X124.6857 Y-2.8786 Z-7.5000 I-1.6844 J2.4825 F1020.00
G2 X120.9307 Y-0.7281 Z-7.5000 I-0.8447 J2.8786 F1020.00
G3 X39.0017 Y-0.7281 Z-7.5000 I-40.9645 J-9.2737 F1020.00
G2 X34.4070 Y-2.4825 Z-7.5000 I-2.9103 J0.7281 F1020.00
G2 X2.1377 Y95.7341 Z-7.5000 I45.5592 J69.3780 F1020.00
G2 X2.4893 Y96.4269 Z-7.5000 I2.8285 J-0.9998 F1020.00
G3 X0.3905 Y268.0694 Z-7.5000 I-120.3853 J84.3621 F1020.00
G2 X-0.0792 Y269.0711 Z-7.5000 I2.4348 J1.7527 F1020.00
G2 X3.0298 Y322.1012 Z-7.5000 I79.8320 J21.9259 F1020.00
G2 X16.8669 Y326.6854 Z-7.5000 I9.0662 J-4.1905 F1020.00
G2 X17.9571 Y325.7624 Z-7.5000 I-1.3375 J-2.6854 F1020.00
G3 X61.9662 Y324.9741 Z-7.5000 I22.2844 J15.2304 F1020.00
G1 X61.9662 Y364.0000 Z-7.5000 F1020.00
G2 X64.9662 Y367.0000 Z-7.5000 I3.0000 J-0.0000 F1020.00
G1 X94.9662 Y367.0000 Z-7.5000 F1020.00
G2 X97.9662 Y364.0000 Z-7.5000 I-0.0000 J-3.0000 F1020.00
G1 X97.9662 Y344.5662 Z-7.5000 F1020.00
G3 X125.7136 Y344.0714 Z-7.5000 I13.9749 J5.4269 F1020.00
G2 X126.3640 Y345.5910 Z-7.5000 I8.4759 J-2.7285 F1020.00
G2 X141.4492 Y346.7659 Z-7.5000 I8.0484 J-5.9075 F1020.00
G1 X141.4492 Y346.7659 Z-8.0000 F1020.00
G2 X154.9852 Y255.5065 Z-8.0000 I-61.4632 J-55.7501 F1020.00
G2 X154.2325 Y254.4932 Z-8.0000 I-2.7307 J1.2422 F1020.00
G3 X156.8676 Y97.0547 Z-8.0000 I66.1607 J-77.6339 F1020.00
G2 X157.7947 Y95.7341 Z-8.0000 I-1.9014 J-2.3205 F1020.00
G2 X125.5254 Y-2.4825 Z-8.0000 I-77.8285 J-28.8386 F1020.00
G2 X124.6857 Y-2.8786 Z-8.0000 I-1.6844 J2.4825 F1020.00
G2 X120.9307 Y-0.7281 Z-8.0000 I-0.8447 J2.8786 F1020.00
G3 X39.0017 Y-0.7281 Z-8.0000 I-40.9645 J-9.2737 F1020.00
G2 X34.4070 Y-2.4825 Z-8.0000 I-2.9103 J0.7281 F1020.00
G2 X2.1377 Y95.7341 Z-8.0000 I45.5592 J69.3780 F1020.00
G2 X2.4893 Y96.4269 Z-8.0000 I2.8285 J-0.9998 F1020.00
G3 X0.3905 Y268.0694 Z-8.0000 I-120.3853 J84.3621 F1020.00
G2 X-0.0792 Y269.0711 Z-8.0000 I2.4348 J1.7527 F1020.00
G2 X3.0298 Y322.1012 Z-8.0000 I79.8320 J21.9259 F1020.00
G2 X16.8669 Y326.6854 Z-8.0000 I9.0662 J-4.1905 F1020.00
G2 X17.9571 Y325.7624 Z-8.0000 I-1.3375 J-2.6854 F1020.00
G3 X61.9662 Y324.9741 Z-8.0000 I22.2844 J15.2304 F1020.00
G1 X61.9662 Y364.0000 Z-8.0000 F1020.00
G2 X64.9662 Y367.0000 Z-8.0000 I3.0000 J-0.0000 F1020.00
G1 X94.9662 Y367.0000 Z-8.0000 F1020.00
G2 X97.9662 Y364.0000 Z-8.0000 I-0.0000 J-3.0000 F1020.00
G1 X97.9662 Y344.5662 Z-8.0000 F1020.00
G3 X125.7136 Y344.0714 Z-8.0000 I13.9749 J5.4269 F1020.00
G2 X126.3640 Y345.5910 Z-8.0000 I8.4759 J-2.7285 F1020.00
G2 X141.4492 Y346.7659 Z-8.0000 I8.0484 J-5.9075 F1020.00
G1 X141.4492 Y346.7659 Z-8.5000 F1020.00
G2 X154.9852 Y255.5065 Z-8.5000 I-61.4632 J-55.7501 F1020.00
G2 X154.2325 Y254.4932 Z-8.5000 I-2.7307 J1.2422 F1020.00
G3 X156.8676 Y97.0547 Z-8.5000 I66.1607 J-77.6339 F1020.00
G2 X157.7947 Y95.7341 Z-8.5000 I-1.9014 J-2.3205 F1020.00
G2 X125.5254 Y-2.4825 Z-8.5000 I-77.8285 J-28.8386 F1020.00
G2 X124.6857 Y-2.8786 Z-8.5000 I-1.6844 J2.4825 F1020.00
G2 X120.9307 Y-0.7281 Z-8.5000 I-0.8447 J2.8786 F1020.00
G3 X39.0017 Y-0.7281 Z-8.5000 I-40.9645 J-9.2737 F1020.00
G2 X34.4070 Y-2.4825 Z-8.5000 I-2.9103 J0.7281 F1020.00
G2 X2.1377 Y95.7341 Z-8.5000 I45.5592 J69.3780 F1020.00
G2 X2.4893 Y96.4269 Z-8.5000 I2.8285 J-0.9998 F1020.00
G3 X0.3905 Y268.0694 Z-8.5000 I-120.3853 J84.3621 F1020.00
G2 X-0.0792 Y269.0711 Z-8.5000 I2.4348 J1.7527 F1020.00
G2 X3.0298 Y322.1012 Z-8.5000 I79.8320 J21.9259 F1020.00
G2 X16.8669 Y326.6854 Z-8.5000 I9.0662 J-4.1905 F1020.00
G2 X17.9571 Y325.7624 Z-8.5000 I-1.3375 J-2.6854 F1020.00
G3 X61.9662 Y324.9741 Z-8.5000 I22.2844 J15.2304 F1020.00
G1 X61.9662 Y364.0000 Z-8.5000 F1020.00
G2 X64.9662 Y367.0000 Z-8.5000 I3.0000 J-0.0000 F1020.00
G1 X94.9662 Y367.0000 Z-8.5000 F1020.00
G2 X97.9662 Y364.0000 Z-8.5000 I-0.0000 J-3.0000 F1020.00
G1 X97.9662 Y344.5662 Z-8.5000 F1020.00
G3 X125.7136 Y344.0714 Z-8.5000 I13.9749 J5.4269 F1020.00
G2 X126.3640 Y345.5910 Z-8.5000 I8.4759 J-2.7285 F1020.00
G2 X141.4492 Y346.7659 Z-8.5000 I8.0484 J-5.9075 F1020.00
G1 X141.4492 Y346.7659 Z-9.0000 F1020.00
G2 X154.9852 Y255.5065 Z-9.0000 I-61.4632 J-55.7501 F1020.00
G2 X154.2325 Y254.4932 Z-9.0000 I-2.7307 J1.2422 F1020.00
G3 X156.8676 Y97.0547 Z-9.0000 I66.1607 J-77.6339 F1020.00
G2 X157.7947 Y95.7341 Z-9.0000 I-1.9014 J-2.3205 F1020.00
G2 X125.5254 Y-2.4825 Z-9.0000 I-77.8285 J-28.8386 F1020.00
G2 X124.6857 Y-2.8786 Z-9.0000 I-1.6844 J2.4825 F1020.00
G2 X120.9307 Y-0.7281 Z-9.0000 I-0.8447 J2.8786 F1020.00
G3 X39.0017 Y-0.7281 Z-9.0000 I-40.9645 J-9.2737 F1020.00
G2 X34.4070 Y-2.4825 Z-9.0000 I-2.9103 J0.7281 F1020.00
G2 X2.1377 Y95.7341 Z-9.0000 I45.5592 J69.3780 F1020.00
G2 X2.4893 Y96.4269 Z-9.0000 I2.8285 J-0.9998 F1020.00
G3 X0.3905 Y268.0694 Z-9.0000 I-120.3853 J84.3621 F1020.00
G2 X-0.0792 Y269.0711 Z-9.0000 I2.4348 J1.7527 F1020.00
G2 X3.0298 Y322.1012 Z-9.0000 I79.8320 J21.9259 F1020.00
G2 X16.8669 Y326.6854 Z-9.0000 I9.0662 J-4.1905 F1020.00
G2 X17.9571 Y325.7624 Z-9.0000 I-1.3375 J-2.6854 F1020.00
G3 X61.9662 Y324.9741 Z-9.0000 I22.2844 J15.2304 F1020.00
G1 X61.9662 Y364.0000 Z-9.0000 F1020.00
G2 X64.9662 Y367.0000 Z-9.0000 I3.0000 J-0.0000 F1020.00
G1 X94.9662 Y367.0000 Z-9.0000 F1020.00
G2 X97.9662 Y364.0000 Z-9.0000 I-0.0000 J-3.0000 F1020.00
G1 X97.9662 Y344.5662 Z-9.0000 F1020.00
G3 X125.7136 Y344.0714 Z-9.0000 I13.9749 J5.4269 F1020.00
G2 X126.3640 Y345.5910 Z-9.0000 I8.4759 J-2.7285 F1020.00
G2 X141.4492 Y346.7659 Z-9.0000 I8.0484 J-5.9075 F1020.00
G1 X141.4492 Y346.7659 Z-9.5000 F1020.00
G2 X154.9852 Y255.5065 Z-9.5000 I-61.4632 J-55.7501 F1020.00
G2 X154.2325 Y254.4932 Z-9.5000 I-2.7307 J1.2422 F1020.00
G3 X156.8676 Y97.0547 Z-9.5000 I66.1607 J-77.6339 F1020.00
G2 X157.7947 Y95.7341 Z-9.5000 I-1.9014 J-2.3205 F1020.00
G2 X125.5254 Y-2.4825 Z-9.5000 I-77.8285 J-28.8386 F1020.00
G2 X124.6857 Y-2.8786 Z-9.5000 I-1.6844 J2.4825 F1020.00
G2 X120.9307 Y-0.7281 Z-9.5000 I-0.8447 J2.8786 F1020.00
G3 X39.0017 Y-0.7281 Z-9.5000 I-40.9645 J-9.2737 F1020.00
G2 X34.4070 Y-2.4825 Z-9.5000 I-2.9103 J0.7281 F1020.00
G2 X2.1377 Y95.7341 Z-9.5000 I45.5592 J69.3780 F1020.00
G2 X2.4893 Y96.4269 Z-9.5000 I2.8285 J-0.9998 F1020.00
G3 X0.3905 Y268.0694 Z-9.5000 I-120.3853 J84.3621 F1020.00
G2 X-0.0792 Y269.0711 Z-9.5000 I2.4348 J1.7527 F1020.00
G2 X3.0298 Y322.1012 Z-9.5000 I79.8320 J21.9259 F1020.00
G2 X16.8669 Y326.6854 Z-9.5000 I9.0662 J-4.1905 F1020.00
G2 X17.9571 Y325.7624 Z-9.5000 I-1.3375 J-2.6854 F1020.00
G3 X61.9662 Y324.9741 Z-9.5000 I22.2844 J15.2304 F1020.00
G1 X61.9662 Y364.0000 Z-9.5000 F1020.00
G2 X64.9662 Y367.0000 Z-9.5000 I3.0000 J-0.0000 F1020.00
G1 X94.9662 Y367.0000 Z-9.5000 F1020.00
G2 X97.9662 Y364.0000 Z-9.5000 I-0.0000 J-3.0000 F1020.00
G1 X97.9662 Y344.5662 Z-9.5000 F1020.00
G3 X125.7136 Y344.0714 Z-9.5000 I13.9749 J5.4269 F1020.00
G2 X126.3640 Y345.5910 Z-9.5000 I8.4759 J-2.7285 F1020.00
G2 X141.4492 Y346.7659 Z-9.5000 I8.0484 J-5.9075 F1020.00
G1 X141.4492 Y346.7659 Z-10.0000 F1020.00
G2 X154.9852 Y255.5065 Z-10.0000 I-61.4632 J-55.7501 F1020.00
G2 X154.2325 Y254.4932 Z-10.0000 I-2.7307 J1.2422 F1020.00
G3 X156.8676 Y97.0547 Z-10.0000 I66.1607 J-77.6339 F1020.00
G2 X157.7947 Y95.7341 Z-10.0000 I-1.9014 J-2.3205 F1020.00
G2 X125.5254 Y-2.4825 Z-10.0000 I-77.8285 J-28.8386 F1020.00
G2 X124.6857 Y-2.8786 Z-10.0000 I-1.6844 J2.4825 F1020.00
G2 X120.9307 Y-0.7281 Z-10.0000 I-0.8447 J2.8786 F1020.00
G3 X39.0017 Y-0.7281 Z-10.0000 I-40.9645 J-9.2737 F1020.00
G2 X34.4070 Y-2.4825 Z-10.0000 I-2.9103 J0.7281 F1020.00
G2 X2.1377 Y95.7341 Z-10.0000 I45.5592 J69.3780 F1020.00
G2 X2.4893 Y96.4269 Z-10.0000 I2.8285 J-0.9998 F1020.00
G3 X0.3905 Y268.0694 Z-10.0000 I-120.3853 J84.3621 F1020.00
G2 X-0.0792 Y269.0711 Z-10.0000 I2.4348 J1.7527 F1020.00
G2 X3.0298 Y322.1012 Z-10.0000 I79.8320 J21.9259 F1020.00
G2 X16.8669 Y326.6854 Z-10.0000 I9.0662 J-4.1905 F1020.00
G2 X17.9571 Y325.7624 Z-10.0000 I-1.3375 J-2.6854 F1020.00
G3 X61.9662 Y324.9741 Z-10.0000 I22.2844 J15.2304 F1020.00
G1 X61.9662 Y364.0000 Z-10.0000 F1020.00
G2 X64.9662 Y367.0000 Z-10.0000 I3.0000 J-0.0000 F1020.00
G1 X94.9662 Y367.0000 Z-10.0000 F1020.00
G2 X97.9662 Y364.0000 Z-10.0000 I-0.0000 J-3.0000 F1020.00
G1 X97.9662 Y344.5662 Z-10.0000 F1020.00
G3 X125.7136 Y344.0714 Z-10.0000 I13.9749 J5.4269 F1020.00
G2 X126.3640 Y345.5910 Z-10.0000 I8.4759 J-2.7285 F1020.00
G2 X141.4492 Y346.7659 Z-10.0000 I8.0484 J-5.9075 F1020.00
G1 X141.4492 Y346.7659 Z-10.5000 F1020.00
G2 X154.9852 Y255.5065 Z-10.5000 I-61.4632 J-55.7501 F1020.00
G2 X154.2325 Y254.4932 Z-10.5000 I-2.7307 J1.2422 F1020.00
G3 X156.8676 Y97.0547 Z-10.5000 I66.1607 J-77.6339 F1020.00
G2 X157.7947 Y95.7341 Z-10.5000 I-1.9014 J-2.3205 F1020.00
G2 X125.5254 Y-2.4825 Z-10.5000 I-77.8285 J-28.8386 F1020.00
G2 X124.6857 Y-2.8786 Z-10.5000 I-1.6844 J2.4825 F1020.00
G2 X120.9307 Y-0.7281 Z-10.5000 I-0.8447 J2.8786 F1020.00
G3 X39.0017 Y-0.7281 Z-10.5000 I-40.9645 J-9.2737 F1020.00
G2 X34.4070 Y-2.4825 Z-10.5000 I-2.9103 J0.7281 F1020.00
G2 X2.1377 Y95.7341 Z-10.5000 I45.5592 J69.3780 F1020.00
G2 X2.4893 Y96.4269 Z-10.5000 I2.8285 J-0.9998 F1020.00
G3 X0.3905 Y268.0694 Z-10.5000 I-120.3853 J84.3621 F1020.00
G2 X-0.0792 Y269.0711 Z-10.5000 I2.4348 J1.7527 F1020.00
G2 X3.0298 Y322.1012 Z-10.5000 I79.8320 J21.9259 F1020.00
G2 X16.8669 Y326.6854 Z-10.5000 I9.0662 J-4.1905 F1020.00
G2 X17.9571 Y325.7624 Z-10.5000 I-1.3375 J-2.6854 F1020.00
G3 X61.9662 Y324.9741 Z-10.5000 I22.2844 J15.2304 F1020.00
G1 X61.9662 Y364.0000 Z-10.5000 F1020.00
G2 X64.9662 Y367.0000 Z-10.5000 I3.0000 J-0.0000 F1020.00
G1 X94.9662 Y367.0000 Z-10.5000 F1020.00
G2 X97.9662 Y364.0000 Z-10.5000 I-0.0000 J-3.0000 F1020.00
G1 X97.9662 Y344.5662 Z-10.5000 F1020.00
G3 X125.7136 Y344.0714 Z-10.5000 I13.9749 J5.4269 F1020.00
G2 X126.3640 Y345.5910 Z-10.5000 I8.4759 J-2.7285 F1020.00
G2 X141.4492 Y346.7659 Z-10.5000 I8.0484 J-5.9075 F1020.00
G1 X141.4492 Y346.7659 Z-11.0000 F1020.00
G2 X154.9852 Y255.5065 Z-11.0000 I-61.4632 J-55.7501 F1020.00
G2 X154.2325 Y254.4932 Z-11.0000 I-2.7307 J1.2422 F1020.00
G3 X156.8676 Y97.0547 Z-11.0000 I66.1607 J-77.6339 F1020.00
G2 X157.7947 Y95.7341 Z-11.0000 I-1.9014 J-2.3205 F1020.00
G2 X125.5254 Y-2.4825 Z-11.0000 I-77.8285 J-28.8386 F1020.00
G2 X124.6857 Y-2.8786 Z-11.0000 I-1.6844 J2.4825 F1020.00
G2 X120.9307 Y-0.7281 Z-11.0000 I-0.8447 J2.8786 F1020.00
G3 X39.0017 Y-0.7281 Z-11.0000 I-40.9645 J-9.2737 F1020.00
G2 X34.4070 Y-2.4825 Z-11.0000 I-2.9103 J0.7281 F1020.00
G2 X2.1377 Y95.7341 Z-11.0000 I45.5592 J69.3780 F1020.00
G2 X2.4893 Y96.4269 Z-11.0000 I2.8285 J-0.9998 F1020.00
G3 X0.3905 Y268.0694 Z-11.0000 I-120.3853 J84.3621 F1020.00
G2 X-0.0792 Y269.0711 Z-11.0000 I2.4348 J1.7527 F1020.00
G2 X3.0298 Y322.1012 Z-11.0000 I79.8320 J21.9259 F1020.00
G2 X16.8669 Y326.6854 Z-11.0000 I9.0662 J-4.1905 F1020.00
G2 X17.9571 Y325.7624 Z-11.0000 I-1.3375 J-2.6854 F1020.00
G3 X61.9662 Y324.9741 Z-11.0000 I22.2844 J15.2304 F1020.00
G1 X61.9662 Y364.0000 Z-11.0000 F1020.00
G2 X64.9662 Y367.0000 Z-11.0000 I3.0000 J-0.0000 F1020.00
G1 X94.9662 Y367.0000 Z-11.0000 F1020.00
G2 X97.9662 Y364.0000 Z-11.0000 I-0.0000 J-3.0000 F1020.00
G1 X97.9662 Y344.5662 Z-11.0000 F1020.00
G3 X125.7136 Y344.0714 Z-11.0000 I13.9749 J5.4269 F1020.00
G2 X126.3640 Y345.5910 Z-11.0000 I8.4759 J-2.7285 F1020.00
G2 X141.4492 Y346.7659 Z-11.0000 I8.0484 J-5.9075 F1020.00
G1 X141.4492 Y346.7659 Z-11.5000 F1020.00
G2 X154.9852 Y255.5065 Z-11.5000 I-61.4632 J-55.7501 F1020.00
G2 X154.2325 Y254.4932 Z-11.5000 I-2.7307 J1.2422 F1020.00
G3 X156.8676 Y97.0547 Z-11.5000 I66.1607 J-77.6339 F1020.00
G2 X157.7947 Y95.7341 Z-11.5000 I-1.9014 J-2.3205 F1020.00
G2 X125.5254 Y-2.4825 Z-11.5000 I-77.8285 J-28.8386 F1020.00
G2 X124.6857 Y-2.8786 Z-11.5000 I-1.6844 J2.4825 F1020.00
G2 X120.9307 Y-0.7281 Z-11.5000 I-0.8447 J2.8786 F1020.00
G3 X39.0017 Y-0.7281 Z-11.5000 I-40.9645 J-9.2737 F1020.00
G2 X34.4070 Y-2.4825 Z-11.5000 I-2.9103 J0.7281 F1020.00
G2 X2.1377 Y95.7341 Z-11.5000 I45.5592 J69.3780 F1020.00
G2 X2.4893 Y96.4269 Z-11.5000 I2.8285 J-0.9998 F1020.00
G3 X0.3905 Y268.0694 Z-11.5000 I-120.3853 J84.3621 F1020.00
G2 X-0.0792 Y269.0711 Z-11.5000 I2.4348 J1.7527 F1020.00
G2 X3.0298 Y322.1012 Z-11.5000 I79.8320 J21.9259 F1020.00
G2 X16.8669 Y326.6854 Z-11.5000 I9.0662 J-4.1905 F1020.00
G2 X17.9571 Y325.7624 Z-11.5000 I-1.3375 J-2.6854 F1020.00
G3 X61.9662 Y324.9741 Z-11.5000 I22.2844 J15.2304 F1020.00
G1 X61.9662 Y364.0000 Z-11.5000 F1020.00
G2 X64.9662 Y367.0000 Z-11.5000 I3.0000 J-0.0000 F1020.00
G1 X94.9662 Y367.0000 Z-11.5000 F1020.00
G2 X97.9662 Y364.0000 Z-11.5000 I-0.0000 J-3.0000 F1020.00
G1 X97.9662 Y344.5662 Z-11.5000 F1020.00
G3 X125.7136 Y344.0714 Z-11.5000 I13.9749 J5.4269 F1020.00
G2 X126.3640 Y345.5910 Z-11.5000 I8.4759 J-2.7285 F1020.00
G2 X141.4492 Y346.7659 Z-11.5000 I8.0484 J-5.9075 F1020.00
G1 X141.4492 Y346.7659 Z-12.0000 F1020.00
G2 X154.9852 Y255.5065 Z-12.0000 I-61.4632 J-55.7501 F1020.00
G2 X154.2325 Y254.4932 Z-12.0000 I-2.7307 J1.2422 F1020.00
G3 X156.8676 Y97.0547 Z-12.0000 I66.1607 J-77.6339 F1020.00
G2 X157.7947 Y95.7341 Z-12.0000 I-1.9014 J-2.3205 F1020.00
G2 X125.5254 Y-2.4825 Z-12.0000 I-77.8285 J-28.8386 F1020.00
G2 X124.6857 Y-2.8786 Z-12.0000 I-1.6844 J2.4825 F1020.00
G2 X120.9307 Y-0.7281 Z-12.0000 I-0.8447 J2.8786 F1020.00
G3 X39.0017 Y-0.7281 Z-12.0000 I-40.9645 J-9.2737 F1020.00
G2 X34.4070 Y-2.4825 Z-12.0000 I-2.9103 J0.7281 F1020.00
G2 X2.1377 Y95.7341 Z-12.0000 I45.5592 J69.3780 F1020.00
G2 X2.4893 Y96.4269 Z-12.0000 I2.8285 J-0.9998 F1020.00
G3 X0.3905 Y268.0694 Z-12.0000 I-120.3853 J84.3621 F1020.00
G2 X-0.0792 Y269.0711 Z-12.0000 I2.4348 J1.7527 F1020.00
G2 X3.0298 Y322.1012 Z-12.0000 I79.8320 J21.9259 F1020.00
G2 X16.8669 Y326.6854 Z-12.0000 I9.0662 J-4.1905 F1020.00
G2 X17.9571 Y325.7624 Z-12.0000 I-1.3375 J-2.6854 F1020.00
G3 X61.9662 Y324.9741 Z-12.0000 I22.2844 J15.2304 F1020.00
G1 X61.9662 Y364.0000 Z-12.0000 F1020.00
G2 X64.9662 Y367.0000 Z-12.0000 I3.0000 J-0.0000 F1020.00
G1 X94.9662 Y367.0000 Z-12.0000 F1020.00
G2 X97.9662 Y364.0000 Z-12.0000 I-0.0000 J-3.0000 F1020.00
G1 X97.9662 Y344.5662 Z-12.0000 F1020.00
G3 X125.7136 Y344.0714 Z-12.0000 I13.9749 J5.4269 F1020.00
G2 X126.3640 Y345.5910 Z-12.0000 I8.4759 J-2.7285 F1020.00
G2 X141.4492 Y346.7659 Z-12.0000 I8.0484 J-5.9075 F1020.00
G1 X141.4492 Y346.7659 Z-12.5000 F1020.00
G2 X154.9852 Y255.5065 Z-12.5000 I-61.4632 J-55.7501 F1020.00
G2 X154.2325 Y254.4932 Z-12.5000 I-2.7307 J1.2422 F1020.00
G3 X156.8676 Y97.0547 Z-12.5000 I66.1607 J-77.6339 F1020.00
G2 X157.7947 Y95.7341 Z-12.5000 I-1.9014 J-2.3205 F1020.00
G2 X125.5254 Y-2.4825 Z-12.5000 I-77.8285 J-28.8386 F1020.00
G2 X124.6857 Y-2.8786 Z-12.5000 I-1.6844 J2.4825 F1020.00
G2 X120.9307 Y-0.7281 Z-12.5000 I-0.8447 J2.8786 F1020.00
G3 X39.0017 Y-0.7281 Z-12.5000 I-40.9645 J-9.2737 F1020.00
G2 X34.4070 Y-2.4825 Z-12.5000 I-2.9103 J0.7281 F1020.00
G2 X2.1377 Y95.7341 Z-12.5000 I45.5592 J69.3780 F1020.00
G2 X2.4893 Y96.4269 Z-12.5000 I2.8285 J-0.9998 F1020.00
G3 X0.3905 Y268.0694 Z-12.5000 I-120.3853 J84.3621 F1020.00
G2 X-0.0792 Y269.0711 Z-12.5000 I2.4348 J1.7527 F1020.00
G2 X3.0298 Y322.1012 Z-12.5000 I79.8320 J21.9259 F1020.00
G2 X16.8669 Y326.6854 Z-12.5000 I9.0662 J-4.1905 F1020.00
G2 X17.9571 Y325.7624 Z-12.5000 I-1.3375 J-2.6854 F1020.00
G3 X61.9662 Y324.9741 Z-12.5000 I22.2844 J15.2304 F1020.00
G1 X61.9662 Y364.0000 Z-12.5000 F1020.00
G2 X64.9662 Y367.0000 Z-12.5000 I3.0000 J-0.0000 F1020.00
G1 X94.9662 Y367.0000 Z-12.5000 F1020.00
G2 X97.9662 Y364.0000 Z-12.5000 I-0.0000 J-3.0000 F1020.00
G1 X97.9662 Y344.5662 Z-12.5000 F1020.00
G3 X125.7136 Y344.0714 Z-12.5000 I13.9749 J5.4269 F1020.00
G2 X126.3640 Y345.5910 Z-12.5000 I8.4759 J-2.7285 F1020.00
G2 X141.4492 Y346.7659 Z-12.5000 I8.0484 J-5.9075 F1020.00
G1 X141.4492 Y346.7659 Z-13.0000 F1020.00
G2 X154.9852 Y255.5065 Z-13.0000 I-61.4632 J-55.7501 F1020.00
G2 X154.2325 Y254.4932 Z-13.0000 I-2.7307 J1.2422 F1020.00
G3 X156.8676 Y97.0547 Z-13.0000 I66.1607 J-77.6339 F1020.00
G2 X157.7947 Y95.7341 Z-13.0000 I-1.9014 J-2.3205 F1020.00
G2 X125.5254 Y-2.4825 Z-13.0000 I-77.8285 J-28.8386 F1020.00
G2 X124.6857 Y-2.8786 Z-13.0000 I-1.6844 J2.4825 F1020.00
G2 X120.9307 Y-0.7281 Z-13.0000 I-0.8447 J2.8786 F1020.00
G3 X39.0017 Y-0.7281 Z-13.0000 I-40.9645 J-9.2737 F1020.00
G2 X34.4070 Y-2.4825 Z-13.0000 I-2.9103 J0.7281 F1020.00
G2 X2.1377 Y95.7341 Z-13.0000 I45.5592 J69.3780 F1020.00
G2 X2.4893 Y96.4269 Z-13.0000 I2.8285 J-0.9998 F1020.00
G3 X0.3905 Y268.0694 Z-13.0000 I-120.3853 J84.3621 F1020.00
G2 X-0.0792 Y269.0711 Z-13.0000 I2.4348 J1.7527 F1020.00
G2 X3.0298 Y322.1012 Z-13.0000 I79.8320 J21.9259 F1020.00
G2 X16.8669 Y326.6854 Z-13.0000 I9.0662 J-4.1905 F1020.00
G2 X17.9571 Y325.7624 Z-13.0000 I-1.3375 J-2.6854 F1020.00
G3 X61.9662 Y324.9741 Z-13.0000 I22.2844 J15.2304 F1020.00
G1 X61.9662 Y364.0000 Z-13.0000 F1020.00
G2 X64.9662 Y367.0000 Z-13.0000 I3.0000 J-0.0000 F1020.00
G1 X94.9662 Y367.0000 Z-13.0000 F1020.00
G2 X97.9662 Y364.0000 Z-13.0000 I-0.0000 J-3.0000 F1020.00
G1 X97.9662 Y344.5662 Z-13.0000 F1020.00
G3 X125.7136 Y344.0714 Z-13.0000 I13.9749 J5.4269 F1020.00
G2 X126.3640 Y345.5910 Z-13.0000 I8.4759 J-2.7285 F1020.00
G2 X141.4492 Y346.7659 Z-13.0000 I8.0484 J-5.9075 F1020.00
G0 Z5.0000
(finish operation: Contour003)
(begin postamble)
M5
G17 G90
; M2
