(Exported by FreeCAD)
(Post Processor: grbl_post)
(Output Time:2021-11-28 04:23:58.960934)
(begin preamble)
G17 G90
G21
(begin operation: T2: 1/4inENDMILL004)
(Path: T2: 1/4inENDMILL004)
(T2: 1/4inENDMILL004)
(begin toolchange)
; M6 T2
M3 S0.0000
(finish operation: T2: 1/4inENDMILL004)
(begin operation: Pocket_Shape005)
(Path: Pocket_Shape005)
(Pocket_Shape005)
G0 Z5.0000
G0 X91.9662 Y361.0000
G0 Z3.0000
G1 X91.9662 Y361.0000 Z-0.7500 F1080.00
G1 X91.9662 Y267.0000 Z-0.7500 F1080.00
G1 X67.9662 Y267.0000 Z-0.7500 F1080.00
G1 X67.9662 Y361.0000 Z-0.7500 F1080.00
G1 X91.9662 Y361.0000 Z-0.7500 F1080.00
G0 X91.9662 Y361.0000 Z5.0000
G0 X67.9662 Y355.8542 Z5.0000
G0 X67.9662 Y355.8542 Z2.2500
G1 X67.9662 Y355.8542 Z-0.7500 F1080.00
G1 X73.1120 Y361.0000 Z-0.7500 F1080.00
G1 X67.9662 Y361.0000 Z-0.7500 F1080.00
G1 X67.9662 Y355.8542 Z-0.7500 F1080.00
G1 X67.9662 Y347.7932 Z-0.7500 F1080.00
G1 X81.1730 Y361.0000 Z-0.7500 F1080.00
G1 X89.2340 Y361.0000 Z-0.7500 F1080.00
G1 X67.9662 Y339.7322 Z-0.7500 F1080.00
G1 X67.9662 Y331.6712 Z-0.7500 F1080.00
G1 X91.9662 Y355.6712 Z-0.7500 F1080.00
G1 X91.9662 Y347.6102 Z-0.7500 F1080.00
G1 X67.9662 Y323.6102 Z-0.7500 F1080.00
G1 X67.9662 Y315.5492 Z-0.7500 F1080.00
G1 X91.9662 Y339.5492 Z-0.7500 F1080.00
G1 X91.9662 Y331.4881 Z-0.7500 F1080.00
G1 X67.9662 Y307.4881 Z-0.7500 F1080.00
G1 X67.9662 Y299.4271 Z-0.7500 F1080.00
G1 X91.9662 Y323.4271 Z-0.7500 F1080.00
G1 X91.9662 Y315.3661 Z-0.7500 F1080.00
G1 X67.9662 Y291.3661 Z-0.7500 F1080.00
G1 X67.9662 Y283.3051 Z-0.7500 F1080.00
G1 X91.9662 Y307.3051 Z-0.7500 F1080.00
G1 X91.9662 Y299.2441 Z-0.7500 F1080.00
G1 X67.9662 Y275.2441 Z-0.7500 F1080.00
G1 X67.9662 Y267.1831 Z-0.7500 F1080.00
G1 X91.9662 Y291.1831 Z-0.7500 F1080.00
G1 X91.9662 Y283.1220 Z-0.7500 F1080.00
G1 X75.8442 Y267.0000 Z-0.7500 F1080.00
G1 X83.9052 Y267.0000 Z-0.7500 F1080.00
G1 X91.9662 Y275.0610 Z-0.7500 F1080.00
G1 X91.9662 Y267.0000 Z-0.7500 F1080.00
G1 X91.9662 Y267.0000 Z-1.5000 F1080.00
G1 X91.9662 Y275.0610 Z-1.5000 F1080.00
G1 X83.9052 Y267.0000 Z-1.5000 F1080.00
G1 X75.8442 Y267.0000 Z-1.5000 F1080.00
G1 X91.9662 Y283.1220 Z-1.5000 F1080.00
G1 X91.9662 Y291.1831 Z-1.5000 F1080.00
G1 X67.9662 Y267.1831 Z-1.5000 F1080.00
G1 X67.9662 Y275.2441 Z-1.5000 F1080.00
G1 X91.9662 Y299.2441 Z-1.5000 F1080.00
G1 X91.9662 Y307.3051 Z-1.5000 F1080.00
G1 X67.9662 Y283.3051 Z-1.5000 F1080.00
G1 X67.9662 Y291.3661 Z-1.5000 F1080.00
G1 X91.9662 Y315.3661 Z-1.5000 F1080.00
G1 X91.9662 Y323.4271 Z-1.5000 F1080.00
G1 X67.9662 Y299.4271 Z-1.5000 F1080.00
G1 X67.9662 Y307.4881 Z-1.5000 F1080.00
G1 X91.9662 Y331.4881 Z-1.5000 F1080.00
G1 X91.9662 Y339.5492 Z-1.5000 F1080.00
G1 X67.9662 Y315.5492 Z-1.5000 F1080.00
G1 X67.9662 Y323.6102 Z-1.5000 F1080.00
G1 X91.9662 Y347.6102 Z-1.5000 F1080.00
G1 X91.9662 Y355.6712 Z-1.5000 F1080.00
G1 X67.9662 Y331.6712 Z-1.5000 F1080.00
G1 X67.9662 Y339.7322 Z-1.5000 F1080.00
G1 X89.2340 Y361.0000 Z-1.5000 F1080.00
G1 X81.1730 Y361.0000 Z-1.5000 F1080.00
G1 X67.9662 Y347.7932 Z-1.5000 F1080.00
G1 X67.9662 Y355.8542 Z-1.5000 F1080.00
G1 X67.9662 Y361.0000 Z-1.5000 F1080.00
G1 X73.1120 Y361.0000 Z-1.5000 F1080.00
G1 X67.9662 Y355.8542 Z-1.5000 F1080.00
G1 X67.9662 Y355.8542 Z-1.5000 F1080.00
G1 X67.9662 Y361.0000 Z-1.5000 F1080.00
G1 X91.9662 Y361.0000 Z-1.5000 F1080.00
G1 X91.9662 Y267.0000 Z-1.5000 F1080.00
G1 X67.9662 Y267.0000 Z-1.5000 F1080.00
G1 X67.9662 Y355.8542 Z-1.5000 F1080.00
G1 X67.9662 Y355.8542 Z-2.2500 F1080.00
G1 X67.9662 Y361.0000 Z-2.2500 F1080.00
G1 X91.9662 Y361.0000 Z-2.2500 F1080.00
G1 X91.9662 Y267.0000 Z-2.2500 F1080.00
G1 X67.9662 Y267.0000 Z-2.2500 F1080.00
G1 X67.9662 Y355.8542 Z-2.2500 F1080.00
G1 X67.9662 Y355.8542 Z-2.2500 F1080.00
G1 X73.1120 Y361.0000 Z-2.2500 F1080.00
G1 X67.9662 Y361.0000 Z-2.2500 F1080.00
G1 X67.9662 Y355.8542 Z-2.2500 F1080.00
G1 X67.9662 Y347.7932 Z-2.2500 F1080.00
G1 X81.1730 Y361.0000 Z-2.2500 F1080.00
G1 X89.2340 Y361.0000 Z-2.2500 F1080.00
G1 X67.9662 Y339.7322 Z-2.2500 F1080.00
G1 X67.9662 Y331.6712 Z-2.2500 F1080.00
G1 X91.9662 Y355.6712 Z-2.2500 F1080.00
G1 X91.9662 Y347.6102 Z-2.2500 F1080.00
G1 X67.9662 Y323.6102 Z-2.2500 F1080.00
G1 X67.9662 Y315.5492 Z-2.2500 F1080.00
G1 X91.9662 Y339.5492 Z-2.2500 F1080.00
G1 X91.9662 Y331.4881 Z-2.2500 F1080.00
G1 X67.9662 Y307.4881 Z-2.2500 F1080.00
G1 X67.9662 Y299.4271 Z-2.2500 F1080.00
G1 X91.9662 Y323.4271 Z-2.2500 F1080.00
G1 X91.9662 Y315.3661 Z-2.2500 F1080.00
G1 X67.9662 Y291.3661 Z-2.2500 F1080.00
G1 X67.9662 Y283.3051 Z-2.2500 F1080.00
G1 X91.9662 Y307.3051 Z-2.2500 F1080.00
G1 X91.9662 Y299.2441 Z-2.2500 F1080.00
G1 X67.9662 Y275.2441 Z-2.2500 F1080.00
G1 X67.9662 Y267.1831 Z-2.2500 F1080.00
G1 X91.9662 Y291.1831 Z-2.2500 F1080.00
G1 X91.9662 Y283.1220 Z-2.2500 F1080.00
G1 X75.8442 Y267.0000 Z-2.2500 F1080.00
G1 X83.9052 Y267.0000 Z-2.2500 F1080.00
G1 X91.9662 Y275.0610 Z-2.2500 F1080.00
G1 X91.9662 Y267.0000 Z-2.2500 F1080.00
G1 X91.9662 Y267.0000 Z-3.0000 F1080.00
G1 X67.9662 Y267.0000 Z-3.0000 F1080.00
G1 X67.9662 Y361.0000 Z-3.0000 F1080.00
G1 X91.9662 Y361.0000 Z-3.0000 F1080.00
G1 X91.9662 Y267.0000 Z-3.0000 F1080.00
G1 X91.9662 Y267.0000 Z-3.0000 F1080.00
G1 X91.9662 Y275.0610 Z-3.0000 F1080.00
G1 X83.9052 Y267.0000 Z-3.0000 F1080.00
G1 X75.8442 Y267.0000 Z-3.0000 F1080.00
G1 X91.9662 Y283.1220 Z-3.0000 F1080.00
G1 X91.9662 Y291.1831 Z-3.0000 F1080.00
G1 X67.9662 Y267.1831 Z-3.0000 F1080.00
G1 X67.9662 Y275.2441 Z-3.0000 F1080.00
G1 X91.9662 Y299.2441 Z-3.0000 F1080.00
G1 X91.9662 Y307.3051 Z-3.0000 F1080.00
G1 X67.9662 Y283.3051 Z-3.0000 F1080.00
G1 X67.9662 Y291.3661 Z-3.0000 F1080.00
G1 X91.9662 Y315.3661 Z-3.0000 F1080.00
G1 X91.9662 Y323.4271 Z-3.0000 F1080.00
G1 X67.9662 Y299.4271 Z-3.0000 F1080.00
G1 X67.9662 Y307.4881 Z-3.0000 F1080.00
G1 X91.9662 Y331.4881 Z-3.0000 F1080.00
G1 X91.9662 Y339.5492 Z-3.0000 F1080.00
G1 X67.9662 Y315.5492 Z-3.0000 F1080.00
G1 X67.9662 Y323.6102 Z-3.0000 F1080.00
G1 X91.9662 Y347.6102 Z-3.0000 F1080.00
G1 X91.9662 Y355.6712 Z-3.0000 F1080.00
G1 X67.9662 Y331.6712 Z-3.0000 F1080.00
G1 X67.9662 Y339.7322 Z-3.0000 F1080.00
G1 X89.2340 Y361.0000 Z-3.0000 F1080.00
G1 X81.1730 Y361.0000 Z-3.0000 F1080.00
G1 X67.9662 Y347.7932 Z-3.0000 F1080.00
G1 X67.9662 Y355.8542 Z-3.0000 F1080.00
G1 X67.9662 Y361.0000 Z-3.0000 F1080.00
G1 X73.1120 Y361.0000 Z-3.0000 F1080.00
G1 X67.9662 Y355.8542 Z-3.0000 F1080.00
G1 X67.9662 Y355.8542 Z-3.7500 F1080.00
G1 X73.1120 Y361.0000 Z-3.7500 F1080.00
G1 X67.9662 Y361.0000 Z-3.7500 F1080.00
G1 X67.9662 Y355.8542 Z-3.7500 F1080.00
G1 X67.9662 Y347.7932 Z-3.7500 F1080.00
G1 X81.1730 Y361.0000 Z-3.7500 F1080.00
G1 X89.2340 Y361.0000 Z-3.7500 F1080.00
G1 X67.9662 Y339.7322 Z-3.7500 F1080.00
G1 X67.9662 Y331.6712 Z-3.7500 F1080.00
G1 X91.9662 Y355.6712 Z-3.7500 F1080.00
G1 X91.9662 Y347.6102 Z-3.7500 F1080.00
G1 X67.9662 Y323.6102 Z-3.7500 F1080.00
G1 X67.9662 Y315.5492 Z-3.7500 F1080.00
G1 X91.9662 Y339.5492 Z-3.7500 F1080.00
G1 X91.9662 Y331.4881 Z-3.7500 F1080.00
G1 X67.9662 Y307.4881 Z-3.7500 F1080.00
G1 X67.9662 Y299.4271 Z-3.7500 F1080.00
G1 X91.9662 Y323.4271 Z-3.7500 F1080.00
G1 X91.9662 Y315.3661 Z-3.7500 F1080.00
G1 X67.9662 Y291.3661 Z-3.7500 F1080.00
G1 X67.9662 Y283.3051 Z-3.7500 F1080.00
G1 X91.9662 Y307.3051 Z-3.7500 F1080.00
G1 X91.9662 Y299.2441 Z-3.7500 F1080.00
G1 X67.9662 Y275.2441 Z-3.7500 F1080.00
G1 X67.9662 Y267.1831 Z-3.7500 F1080.00
G1 X91.9662 Y291.1831 Z-3.7500 F1080.00
G1 X91.9662 Y283.1220 Z-3.7500 F1080.00
G1 X75.8442 Y267.0000 Z-3.7500 F1080.00
G1 X83.9052 Y267.0000 Z-3.7500 F1080.00
G1 X91.9662 Y275.0610 Z-3.7500 F1080.00
G1 X91.9662 Y267.0000 Z-3.7500 F1080.00
G1 X91.9662 Y267.0000 Z-3.7500 F1080.00
G1 X67.9662 Y267.0000 Z-3.7500 F1080.00
G1 X67.9662 Y361.0000 Z-3.7500 F1080.00
G1 X91.9662 Y361.0000 Z-3.7500 F1080.00
G1 X91.9662 Y267.0000 Z-3.7500 F1080.00
G1 X91.9662 Y267.0000 Z-4.5000 F1080.00
G1 X67.9662 Y267.0000 Z-4.5000 F1080.00
G1 X67.9662 Y361.0000 Z-4.5000 F1080.00
G1 X91.9662 Y361.0000 Z-4.5000 F1080.00
G1 X91.9662 Y267.0000 Z-4.5000 F1080.00
G1 X91.9662 Y267.0000 Z-4.5000 F1080.00
G1 X91.9662 Y275.0610 Z-4.5000 F1080.00
G1 X83.9052 Y267.0000 Z-4.5000 F1080.00
G1 X75.8442 Y267.0000 Z-4.5000 F1080.00
G1 X91.9662 Y283.1220 Z-4.5000 F1080.00
G1 X91.9662 Y291.1831 Z-4.5000 F1080.00
G1 X67.9662 Y267.1831 Z-4.5000 F1080.00
G1 X67.9662 Y275.2441 Z-4.5000 F1080.00
G1 X91.9662 Y299.2441 Z-4.5000 F1080.00
G1 X91.9662 Y307.3051 Z-4.5000 F1080.00
G1 X67.9662 Y283.3051 Z-4.5000 F1080.00
G1 X67.9662 Y291.3661 Z-4.5000 F1080.00
G1 X91.9662 Y315.3661 Z-4.5000 F1080.00
G1 X91.9662 Y323.4271 Z-4.5000 F1080.00
G1 X67.9662 Y299.4271 Z-4.5000 F1080.00
G1 X67.9662 Y307.4881 Z-4.5000 F1080.00
G1 X91.9662 Y331.4881 Z-4.5000 F1080.00
G1 X91.9662 Y339.5492 Z-4.5000 F1080.00
G1 X67.9662 Y315.5492 Z-4.5000 F1080.00
G1 X67.9662 Y323.6102 Z-4.5000 F1080.00
G1 X91.9662 Y347.6102 Z-4.5000 F1080.00
G1 X91.9662 Y355.6712 Z-4.5000 F1080.00
G1 X67.9662 Y331.6712 Z-4.5000 F1080.00
G1 X67.9662 Y339.7322 Z-4.5000 F1080.00
G1 X89.2340 Y361.0000 Z-4.5000 F1080.00
G1 X81.1730 Y361.0000 Z-4.5000 F1080.00
G1 X67.9662 Y347.7932 Z-4.5000 F1080.00
G1 X67.9662 Y355.8542 Z-4.5000 F1080.00
G1 X67.9662 Y361.0000 Z-4.5000 F1080.00
G1 X73.1120 Y361.0000 Z-4.5000 F1080.00
G1 X67.9662 Y355.8542 Z-4.5000 F1080.00
G1 X67.9662 Y355.8542 Z-5.2500 F1080.00
G1 X73.1120 Y361.0000 Z-5.2500 F1080.00
G1 X67.9662 Y361.0000 Z-5.2500 F1080.00
G1 X67.9662 Y355.8542 Z-5.2500 F1080.00
G1 X67.9662 Y347.7932 Z-5.2500 F1080.00
G1 X81.1730 Y361.0000 Z-5.2500 F1080.00
G1 X89.2340 Y361.0000 Z-5.2500 F1080.00
G1 X67.9662 Y339.7322 Z-5.2500 F1080.00
G1 X67.9662 Y331.6712 Z-5.2500 F1080.00
G1 X91.9662 Y355.6712 Z-5.2500 F1080.00
G1 X91.9662 Y347.6102 Z-5.2500 F1080.00
G1 X67.9662 Y323.6102 Z-5.2500 F1080.00
G1 X67.9662 Y315.5492 Z-5.2500 F1080.00
G1 X91.9662 Y339.5492 Z-5.2500 F1080.00
G1 X91.9662 Y331.4881 Z-5.2500 F1080.00
G1 X67.9662 Y307.4881 Z-5.2500 F1080.00
G1 X67.9662 Y299.4271 Z-5.2500 F1080.00
G1 X91.9662 Y323.4271 Z-5.2500 F1080.00
G1 X91.9662 Y315.3661 Z-5.2500 F1080.00
G1 X67.9662 Y291.3661 Z-5.2500 F1080.00
G1 X67.9662 Y283.3051 Z-5.2500 F1080.00
G1 X91.9662 Y307.3051 Z-5.2500 F1080.00
G1 X91.9662 Y299.2441 Z-5.2500 F1080.00
G1 X67.9662 Y275.2441 Z-5.2500 F1080.00
G1 X67.9662 Y267.1831 Z-5.2500 F1080.00
G1 X91.9662 Y291.1831 Z-5.2500 F1080.00
G1 X91.9662 Y283.1220 Z-5.2500 F1080.00
G1 X75.8442 Y267.0000 Z-5.2500 F1080.00
G1 X83.9052 Y267.0000 Z-5.2500 F1080.00
G1 X91.9662 Y275.0610 Z-5.2500 F1080.00
G1 X91.9662 Y267.0000 Z-5.2500 F1080.00
G1 X91.9662 Y267.0000 Z-5.2500 F1080.00
G1 X67.9662 Y267.0000 Z-5.2500 F1080.00
G1 X67.9662 Y361.0000 Z-5.2500 F1080.00
G1 X91.9662 Y361.0000 Z-5.2500 F1080.00
G1 X91.9662 Y267.0000 Z-5.2500 F1080.00
G1 X91.9662 Y267.0000 Z-6.0000 F1080.00
G1 X67.9662 Y267.0000 Z-6.0000 F1080.00
G1 X67.9662 Y361.0000 Z-6.0000 F1080.00
G1 X91.9662 Y361.0000 Z-6.0000 F1080.00
G1 X91.9662 Y267.0000 Z-6.0000 F1080.00
G1 X91.9662 Y267.0000 Z-6.0000 F1080.00
G1 X91.9662 Y275.0610 Z-6.0000 F1080.00
G1 X83.9052 Y267.0000 Z-6.0000 F1080.00
G1 X75.8442 Y267.0000 Z-6.0000 F1080.00
G1 X91.9662 Y283.1220 Z-6.0000 F1080.00
G1 X91.9662 Y291.1831 Z-6.0000 F1080.00
G1 X67.9662 Y267.1831 Z-6.0000 F1080.00
G1 X67.9662 Y275.2441 Z-6.0000 F1080.00
G1 X91.9662 Y299.2441 Z-6.0000 F1080.00
G1 X91.9662 Y307.3051 Z-6.0000 F1080.00
G1 X67.9662 Y283.3051 Z-6.0000 F1080.00
G1 X67.9662 Y291.3661 Z-6.0000 F1080.00
G1 X91.9662 Y315.3661 Z-6.0000 F1080.00
G1 X91.9662 Y323.4271 Z-6.0000 F1080.00
G1 X67.9662 Y299.4271 Z-6.0000 F1080.00
G1 X67.9662 Y307.4881 Z-6.0000 F1080.00
G1 X91.9662 Y331.4881 Z-6.0000 F1080.00
G1 X91.9662 Y339.5492 Z-6.0000 F1080.00
G1 X67.9662 Y315.5492 Z-6.0000 F1080.00
G1 X67.9662 Y323.6102 Z-6.0000 F1080.00
G1 X91.9662 Y347.6102 Z-6.0000 F1080.00
G1 X91.9662 Y355.6712 Z-6.0000 F1080.00
G1 X67.9662 Y331.6712 Z-6.0000 F1080.00
G1 X67.9662 Y339.7322 Z-6.0000 F1080.00
G1 X89.2340 Y361.0000 Z-6.0000 F1080.00
G1 X81.1730 Y361.0000 Z-6.0000 F1080.00
G1 X67.9662 Y347.7932 Z-6.0000 F1080.00
G1 X67.9662 Y355.8542 Z-6.0000 F1080.00
G1 X67.9662 Y361.0000 Z-6.0000 F1080.00
G1 X73.1120 Y361.0000 Z-6.0000 F1080.00
G1 X67.9662 Y355.8542 Z-6.0000 F1080.00
G1 X67.9662 Y355.8542 Z-6.7500 F1080.00
G1 X73.1120 Y361.0000 Z-6.7500 F1080.00
G1 X67.9662 Y361.0000 Z-6.7500 F1080.00
G1 X67.9662 Y355.8542 Z-6.7500 F1080.00
G1 X67.9662 Y347.7932 Z-6.7500 F1080.00
G1 X81.1730 Y361.0000 Z-6.7500 F1080.00
G1 X89.2340 Y361.0000 Z-6.7500 F1080.00
G1 X67.9662 Y339.7322 Z-6.7500 F1080.00
G1 X67.9662 Y331.6712 Z-6.7500 F1080.00
G1 X91.9662 Y355.6712 Z-6.7500 F1080.00
G1 X91.9662 Y347.6102 Z-6.7500 F1080.00
G1 X67.9662 Y323.6102 Z-6.7500 F1080.00
G1 X67.9662 Y315.5492 Z-6.7500 F1080.00
G1 X91.9662 Y339.5492 Z-6.7500 F1080.00
G1 X91.9662 Y331.4881 Z-6.7500 F1080.00
G1 X67.9662 Y307.4881 Z-6.7500 F1080.00
G1 X67.9662 Y299.4271 Z-6.7500 F1080.00
G1 X91.9662 Y323.4271 Z-6.7500 F1080.00
G1 X91.9662 Y315.3661 Z-6.7500 F1080.00
G1 X67.9662 Y291.3661 Z-6.7500 F1080.00
G1 X67.9662 Y283.3051 Z-6.7500 F1080.00
G1 X91.9662 Y307.3051 Z-6.7500 F1080.00
G1 X91.9662 Y299.2441 Z-6.7500 F1080.00
G1 X67.9662 Y275.2441 Z-6.7500 F1080.00
G1 X67.9662 Y267.1831 Z-6.7500 F1080.00
G1 X91.9662 Y291.1831 Z-6.7500 F1080.00
G1 X91.9662 Y283.1220 Z-6.7500 F1080.00
G1 X75.8442 Y267.0000 Z-6.7500 F1080.00
G1 X83.9052 Y267.0000 Z-6.7500 F1080.00
G1 X91.9662 Y275.0610 Z-6.7500 F1080.00
G1 X91.9662 Y267.0000 Z-6.7500 F1080.00
G1 X91.9662 Y267.0000 Z-6.7500 F1080.00
G1 X67.9662 Y267.0000 Z-6.7500 F1080.00
G1 X67.9662 Y361.0000 Z-6.7500 F1080.00
G1 X91.9662 Y361.0000 Z-6.7500 F1080.00
G1 X91.9662 Y267.0000 Z-6.7500 F1080.00
G1 X91.9662 Y267.0000 Z-7.5000 F1080.00
G1 X67.9662 Y267.0000 Z-7.5000 F1080.00
G1 X67.9662 Y361.0000 Z-7.5000 F1080.00
G1 X91.9662 Y361.0000 Z-7.5000 F1080.00
G1 X91.9662 Y267.0000 Z-7.5000 F1080.00
G1 X91.9662 Y267.0000 Z-7.5000 F1080.00
G1 X91.9662 Y275.0610 Z-7.5000 F1080.00
G1 X83.9052 Y267.0000 Z-7.5000 F1080.00
G1 X75.8442 Y267.0000 Z-7.5000 F1080.00
G1 X91.9662 Y283.1220 Z-7.5000 F1080.00
G1 X91.9662 Y291.1831 Z-7.5000 F1080.00
G1 X67.9662 Y267.1831 Z-7.5000 F1080.00
G1 X67.9662 Y275.2441 Z-7.5000 F1080.00
G1 X91.9662 Y299.2441 Z-7.5000 F1080.00
G1 X91.9662 Y307.3051 Z-7.5000 F1080.00
G1 X67.9662 Y283.3051 Z-7.5000 F1080.00
G1 X67.9662 Y291.3661 Z-7.5000 F1080.00
G1 X91.9662 Y315.3661 Z-7.5000 F1080.00
G1 X91.9662 Y323.4271 Z-7.5000 F1080.00
G1 X67.9662 Y299.4271 Z-7.5000 F1080.00
G1 X67.9662 Y307.4881 Z-7.5000 F1080.00
G1 X91.9662 Y331.4881 Z-7.5000 F1080.00
G1 X91.9662 Y339.5492 Z-7.5000 F1080.00
G1 X67.9662 Y315.5492 Z-7.5000 F1080.00
G1 X67.9662 Y323.6102 Z-7.5000 F1080.00
G1 X91.9662 Y347.6102 Z-7.5000 F1080.00
G1 X91.9662 Y355.6712 Z-7.5000 F1080.00
G1 X67.9662 Y331.6712 Z-7.5000 F1080.00
G1 X67.9662 Y339.7322 Z-7.5000 F1080.00
G1 X89.2340 Y361.0000 Z-7.5000 F1080.00
G1 X81.1730 Y361.0000 Z-7.5000 F1080.00
G1 X67.9662 Y347.7932 Z-7.5000 F1080.00
G1 X67.9662 Y355.8542 Z-7.5000 F1080.00
G1 X67.9662 Y361.0000 Z-7.5000 F1080.00
G1 X73.1120 Y361.0000 Z-7.5000 F1080.00
G1 X67.9662 Y355.8542 Z-7.5000 F1080.00
G1 X67.9662 Y355.8542 Z-8.2500 F1080.00
G1 X73.1120 Y361.0000 Z-8.2500 F1080.00
G1 X67.9662 Y361.0000 Z-8.2500 F1080.00
G1 X67.9662 Y355.8542 Z-8.2500 F1080.00
G1 X67.9662 Y347.7932 Z-8.2500 F1080.00
G1 X81.1730 Y361.0000 Z-8.2500 F1080.00
G1 X89.2340 Y361.0000 Z-8.2500 F1080.00
G1 X67.9662 Y339.7322 Z-8.2500 F1080.00
G1 X67.9662 Y331.6712 Z-8.2500 F1080.00
G1 X91.9662 Y355.6712 Z-8.2500 F1080.00
G1 X91.9662 Y347.6102 Z-8.2500 F1080.00
G1 X67.9662 Y323.6102 Z-8.2500 F1080.00
G1 X67.9662 Y315.5492 Z-8.2500 F1080.00
G1 X91.9662 Y339.5492 Z-8.2500 F1080.00
G1 X91.9662 Y331.4881 Z-8.2500 F1080.00
G1 X67.9662 Y307.4881 Z-8.2500 F1080.00
G1 X67.9662 Y299.4271 Z-8.2500 F1080.00
G1 X91.9662 Y323.4271 Z-8.2500 F1080.00
G1 X91.9662 Y315.3661 Z-8.2500 F1080.00
G1 X67.9662 Y291.3661 Z-8.2500 F1080.00
G1 X67.9662 Y283.3051 Z-8.2500 F1080.00
G1 X91.9662 Y307.3051 Z-8.2500 F1080.00
G1 X91.9662 Y299.2441 Z-8.2500 F1080.00
G1 X67.9662 Y275.2441 Z-8.2500 F1080.00
G1 X67.9662 Y267.1831 Z-8.2500 F1080.00
G1 X91.9662 Y291.1831 Z-8.2500 F1080.00
G1 X91.9662 Y283.1220 Z-8.2500 F1080.00
G1 X75.8442 Y267.0000 Z-8.2500 F1080.00
G1 X83.9052 Y267.0000 Z-8.2500 F1080.00
G1 X91.9662 Y275.0610 Z-8.2500 F1080.00
G1 X91.9662 Y267.0000 Z-8.2500 F1080.00
G1 X91.9662 Y267.0000 Z-8.2500 F1080.00
G1 X67.9662 Y267.0000 Z-8.2500 F1080.00
G1 X67.9662 Y361.0000 Z-8.2500 F1080.00
G1 X91.9662 Y361.0000 Z-8.2500 F1080.00
G1 X91.9662 Y267.0000 Z-8.2500 F1080.00
G1 X91.9662 Y267.0000 Z-9.0000 F1080.00
G1 X67.9662 Y267.0000 Z-9.0000 F1080.00
G1 X67.9662 Y361.0000 Z-9.0000 F1080.00
G1 X91.9662 Y361.0000 Z-9.0000 F1080.00
G1 X91.9662 Y267.0000 Z-9.0000 F1080.00
G1 X91.9662 Y267.0000 Z-9.0000 F1080.00
G1 X91.9662 Y275.0610 Z-9.0000 F1080.00
G1 X83.9052 Y267.0000 Z-9.0000 F1080.00
G1 X75.8442 Y267.0000 Z-9.0000 F1080.00
G1 X91.9662 Y283.1220 Z-9.0000 F1080.00
G1 X91.9662 Y291.1831 Z-9.0000 F1080.00
G1 X67.9662 Y267.1831 Z-9.0000 F1080.00
G1 X67.9662 Y275.2441 Z-9.0000 F1080.00
G1 X91.9662 Y299.2441 Z-9.0000 F1080.00
G1 X91.9662 Y307.3051 Z-9.0000 F1080.00
G1 X67.9662 Y283.3051 Z-9.0000 F1080.00
G1 X67.9662 Y291.3661 Z-9.0000 F1080.00
G1 X91.9662 Y315.3661 Z-9.0000 F1080.00
G1 X91.9662 Y323.4271 Z-9.0000 F1080.00
G1 X67.9662 Y299.4271 Z-9.0000 F1080.00
G1 X67.9662 Y307.4881 Z-9.0000 F1080.00
G1 X91.9662 Y331.4881 Z-9.0000 F1080.00
G1 X91.9662 Y339.5492 Z-9.0000 F1080.00
G1 X67.9662 Y315.5492 Z-9.0000 F1080.00
G1 X67.9662 Y323.6102 Z-9.0000 F1080.00
G1 X91.9662 Y347.6102 Z-9.0000 F1080.00
G1 X91.9662 Y355.6712 Z-9.0000 F1080.00
G1 X67.9662 Y331.6712 Z-9.0000 F1080.00
G1 X67.9662 Y339.7322 Z-9.0000 F1080.00
G1 X89.2340 Y361.0000 Z-9.0000 F1080.00
G1 X81.1730 Y361.0000 Z-9.0000 F1080.00
G1 X67.9662 Y347.7932 Z-9.0000 F1080.00
G1 X67.9662 Y355.8542 Z-9.0000 F1080.00
G1 X67.9662 Y361.0000 Z-9.0000 F1080.00
G1 X73.1120 Y361.0000 Z-9.0000 F1080.00
G1 X67.9662 Y355.8542 Z-9.0000 F1080.00
G1 X67.9662 Y355.8542 Z-9.7500 F1080.00
G1 X73.1120 Y361.0000 Z-9.7500 F1080.00
G1 X67.9662 Y361.0000 Z-9.7500 F1080.00
G1 X67.9662 Y355.8542 Z-9.7500 F1080.00
G1 X67.9662 Y347.7932 Z-9.7500 F1080.00
G1 X81.1730 Y361.0000 Z-9.7500 F1080.00
G1 X89.2340 Y361.0000 Z-9.7500 F1080.00
G1 X67.9662 Y339.7322 Z-9.7500 F1080.00
G1 X67.9662 Y331.6712 Z-9.7500 F1080.00
G1 X91.9662 Y355.6712 Z-9.7500 F1080.00
G1 X91.9662 Y347.6102 Z-9.7500 F1080.00
G1 X67.9662 Y323.6102 Z-9.7500 F1080.00
G1 X67.9662 Y315.5492 Z-9.7500 F1080.00
G1 X91.9662 Y339.5492 Z-9.7500 F1080.00
G1 X91.9662 Y331.4881 Z-9.7500 F1080.00
G1 X67.9662 Y307.4881 Z-9.7500 F1080.00
G1 X67.9662 Y299.4271 Z-9.7500 F1080.00
G1 X91.9662 Y323.4271 Z-9.7500 F1080.00
G1 X91.9662 Y315.3661 Z-9.7500 F1080.00
G1 X67.9662 Y291.3661 Z-9.7500 F1080.00
G1 X67.9662 Y283.3051 Z-9.7500 F1080.00
G1 X91.9662 Y307.3051 Z-9.7500 F1080.00
G1 X91.9662 Y299.2441 Z-9.7500 F1080.00
G1 X67.9662 Y275.2441 Z-9.7500 F1080.00
G1 X67.9662 Y267.1831 Z-9.7500 F1080.00
G1 X91.9662 Y291.1831 Z-9.7500 F1080.00
G1 X91.9662 Y283.1220 Z-9.7500 F1080.00
G1 X75.8442 Y267.0000 Z-9.7500 F1080.00
G1 X83.9052 Y267.0000 Z-9.7500 F1080.00
G1 X91.9662 Y275.0610 Z-9.7500 F1080.00
G1 X91.9662 Y267.0000 Z-9.7500 F1080.00
G1 X91.9662 Y267.0000 Z-9.7500 F1080.00
G1 X67.9662 Y267.0000 Z-9.7500 F1080.00
G1 X67.9662 Y361.0000 Z-9.7500 F1080.00
G1 X91.9662 Y361.0000 Z-9.7500 F1080.00
G1 X91.9662 Y267.0000 Z-9.7500 F1080.00
G1 X91.9662 Y267.0000 Z-10.5000 F1080.00
G1 X67.9662 Y267.0000 Z-10.5000 F1080.00
G1 X67.9662 Y361.0000 Z-10.5000 F1080.00
G1 X91.9662 Y361.0000 Z-10.5000 F1080.00
G1 X91.9662 Y267.0000 Z-10.5000 F1080.00
G1 X91.9662 Y267.0000 Z-10.5000 F1080.00
G1 X91.9662 Y275.0610 Z-10.5000 F1080.00
G1 X83.9052 Y267.0000 Z-10.5000 F1080.00
G1 X75.8442 Y267.0000 Z-10.5000 F1080.00
G1 X91.9662 Y283.1220 Z-10.5000 F1080.00
G1 X91.9662 Y291.1831 Z-10.5000 F1080.00
G1 X67.9662 Y267.1831 Z-10.5000 F1080.00
G1 X67.9662 Y275.2441 Z-10.5000 F1080.00
G1 X91.9662 Y299.2441 Z-10.5000 F1080.00
G1 X91.9662 Y307.3051 Z-10.5000 F1080.00
G1 X67.9662 Y283.3051 Z-10.5000 F1080.00
G1 X67.9662 Y291.3661 Z-10.5000 F1080.00
G1 X91.9662 Y315.3661 Z-10.5000 F1080.00
G1 X91.9662 Y323.4271 Z-10.5000 F1080.00
G1 X67.9662 Y299.4271 Z-10.5000 F1080.00
G1 X67.9662 Y307.4881 Z-10.5000 F1080.00
G1 X91.9662 Y331.4881 Z-10.5000 F1080.00
G1 X91.9662 Y339.5492 Z-10.5000 F1080.00
G1 X67.9662 Y315.5492 Z-10.5000 F1080.00
G1 X67.9662 Y323.6102 Z-10.5000 F1080.00
G1 X91.9662 Y347.6102 Z-10.5000 F1080.00
G1 X91.9662 Y355.6712 Z-10.5000 F1080.00
G1 X67.9662 Y331.6712 Z-10.5000 F1080.00
G1 X67.9662 Y339.7322 Z-10.5000 F1080.00
G1 X89.2340 Y361.0000 Z-10.5000 F1080.00
G1 X81.1730 Y361.0000 Z-10.5000 F1080.00
G1 X67.9662 Y347.7932 Z-10.5000 F1080.00
G1 X67.9662 Y355.8542 Z-10.5000 F1080.00
G1 X67.9662 Y361.0000 Z-10.5000 F1080.00
G1 X73.1120 Y361.0000 Z-10.5000 F1080.00
G1 X67.9662 Y355.8542 Z-10.5000 F1080.00
G1 X67.9662 Y355.8542 Z-11.2500 F1080.00
G1 X73.1120 Y361.0000 Z-11.2500 F1080.00
G1 X67.9662 Y361.0000 Z-11.2500 F1080.00
G1 X67.9662 Y355.8542 Z-11.2500 F1080.00
G1 X67.9662 Y347.7932 Z-11.2500 F1080.00
G1 X81.1730 Y361.0000 Z-11.2500 F1080.00
G1 X89.2340 Y361.0000 Z-11.2500 F1080.00
G1 X67.9662 Y339.7322 Z-11.2500 F1080.00
G1 X67.9662 Y331.6712 Z-11.2500 F1080.00
G1 X91.9662 Y355.6712 Z-11.2500 F1080.00
G1 X91.9662 Y347.6102 Z-11.2500 F1080.00
G1 X67.9662 Y323.6102 Z-11.2500 F1080.00
G1 X67.9662 Y315.5492 Z-11.2500 F1080.00
G1 X91.9662 Y339.5492 Z-11.2500 F1080.00
G1 X91.9662 Y331.4881 Z-11.2500 F1080.00
G1 X67.9662 Y307.4881 Z-11.2500 F1080.00
G1 X67.9662 Y299.4271 Z-11.2500 F1080.00
G1 X91.9662 Y323.4271 Z-11.2500 F1080.00
G1 X91.9662 Y315.3661 Z-11.2500 F1080.00
G1 X67.9662 Y291.3661 Z-11.2500 F1080.00
G1 X67.9662 Y283.3051 Z-11.2500 F1080.00
G1 X91.9662 Y307.3051 Z-11.2500 F1080.00
G1 X91.9662 Y299.2441 Z-11.2500 F1080.00
G1 X67.9662 Y275.2441 Z-11.2500 F1080.00
G1 X67.9662 Y267.1831 Z-11.2500 F1080.00
G1 X91.9662 Y291.1831 Z-11.2500 F1080.00
G1 X91.9662 Y283.1220 Z-11.2500 F1080.00
G1 X75.8442 Y267.0000 Z-11.2500 F1080.00
G1 X83.9052 Y267.0000 Z-11.2500 F1080.00
G1 X91.9662 Y275.0610 Z-11.2500 F1080.00
G1 X91.9662 Y267.0000 Z-11.2500 F1080.00
G1 X91.9662 Y267.0000 Z-11.2500 F1080.00
G1 X67.9662 Y267.0000 Z-11.2500 F1080.00
G1 X67.9662 Y361.0000 Z-11.2500 F1080.00
G1 X91.9662 Y361.0000 Z-11.2500 F1080.00
G1 X91.9662 Y267.0000 Z-11.2500 F1080.00
G1 X91.9662 Y267.0000 Z-12.0000 F1080.00
G1 X67.9662 Y267.0000 Z-12.0000 F1080.00
G1 X67.9662 Y361.0000 Z-12.0000 F1080.00
G1 X91.9662 Y361.0000 Z-12.0000 F1080.00
G1 X91.9662 Y267.0000 Z-12.0000 F1080.00
G1 X91.9662 Y267.0000 Z-12.0000 F1080.00
G1 X91.9662 Y275.0610 Z-12.0000 F1080.00
G1 X83.9052 Y267.0000 Z-12.0000 F1080.00
G1 X75.8442 Y267.0000 Z-12.0000 F1080.00
G1 X91.9662 Y283.1220 Z-12.0000 F1080.00
G1 X91.9662 Y291.1831 Z-12.0000 F1080.00
G1 X67.9662 Y267.1831 Z-12.0000 F1080.00
G1 X67.9662 Y275.2441 Z-12.0000 F1080.00
G1 X91.9662 Y299.2441 Z-12.0000 F1080.00
G1 X91.9662 Y307.3051 Z-12.0000 F1080.00
G1 X67.9662 Y283.3051 Z-12.0000 F1080.00
G1 X67.9662 Y291.3661 Z-12.0000 F1080.00
G1 X91.9662 Y315.3661 Z-12.0000 F1080.00
G1 X91.9662 Y323.4271 Z-12.0000 F1080.00
G1 X67.9662 Y299.4271 Z-12.0000 F1080.00
G1 X67.9662 Y307.4881 Z-12.0000 F1080.00
G1 X91.9662 Y331.4881 Z-12.0000 F1080.00
G1 X91.9662 Y339.5492 Z-12.0000 F1080.00
G1 X67.9662 Y315.5492 Z-12.0000 F1080.00
G1 X67.9662 Y323.6102 Z-12.0000 F1080.00
G1 X91.9662 Y347.6102 Z-12.0000 F1080.00
G1 X91.9662 Y355.6712 Z-12.0000 F1080.00
G1 X67.9662 Y331.6712 Z-12.0000 F1080.00
G1 X67.9662 Y339.7322 Z-12.0000 F1080.00
G1 X89.2340 Y361.0000 Z-12.0000 F1080.00
G1 X81.1730 Y361.0000 Z-12.0000 F1080.00
G1 X67.9662 Y347.7932 Z-12.0000 F1080.00
G1 X67.9662 Y355.8542 Z-12.0000 F1080.00
G1 X67.9662 Y361.0000 Z-12.0000 F1080.00
G1 X73.1120 Y361.0000 Z-12.0000 F1080.00
G1 X67.9662 Y355.8542 Z-12.0000 F1080.00
G1 X67.9662 Y355.8542 Z-12.7500 F1080.00
G1 X73.1120 Y361.0000 Z-12.7500 F1080.00
G1 X67.9662 Y361.0000 Z-12.7500 F1080.00
G1 X67.9662 Y355.8542 Z-12.7500 F1080.00
G1 X67.9662 Y347.7932 Z-12.7500 F1080.00
G1 X81.1730 Y361.0000 Z-12.7500 F1080.00
G1 X89.2340 Y361.0000 Z-12.7500 F1080.00
G1 X67.9662 Y339.7322 Z-12.7500 F1080.00
G1 X67.9662 Y331.6712 Z-12.7500 F1080.00
G1 X91.9662 Y355.6712 Z-12.7500 F1080.00
G1 X91.9662 Y347.6102 Z-12.7500 F1080.00
G1 X67.9662 Y323.6102 Z-12.7500 F1080.00
G1 X67.9662 Y315.5492 Z-12.7500 F1080.00
G1 X91.9662 Y339.5492 Z-12.7500 F1080.00
G1 X91.9662 Y331.4881 Z-12.7500 F1080.00
G1 X67.9662 Y307.4881 Z-12.7500 F1080.00
G1 X67.9662 Y299.4271 Z-12.7500 F1080.00
G1 X91.9662 Y323.4271 Z-12.7500 F1080.00
G1 X91.9662 Y315.3661 Z-12.7500 F1080.00
G1 X67.9662 Y291.3661 Z-12.7500 F1080.00
G1 X67.9662 Y283.3051 Z-12.7500 F1080.00
G1 X91.9662 Y307.3051 Z-12.7500 F1080.00
G1 X91.9662 Y299.2441 Z-12.7500 F1080.00
G1 X67.9662 Y275.2441 Z-12.7500 F1080.00
G1 X67.9662 Y267.1831 Z-12.7500 F1080.00
G1 X91.9662 Y291.1831 Z-12.7500 F1080.00
G1 X91.9662 Y283.1220 Z-12.7500 F1080.00
G1 X75.8442 Y267.0000 Z-12.7500 F1080.00
G1 X83.9052 Y267.0000 Z-12.7500 F1080.00
G1 X91.9662 Y275.0610 Z-12.7500 F1080.00
G1 X91.9662 Y267.0000 Z-12.7500 F1080.00
G1 X91.9662 Y267.0000 Z-12.7500 F1080.00
G1 X67.9662 Y267.0000 Z-12.7500 F1080.00
G1 X67.9662 Y361.0000 Z-12.7500 F1080.00
G1 X91.9662 Y361.0000 Z-12.7500 F1080.00
G1 X91.9662 Y267.0000 Z-12.7500 F1080.00
G1 X91.9662 Y267.0000 Z-13.5000 F1080.00
G1 X67.9662 Y267.0000 Z-13.5000 F1080.00
G1 X67.9662 Y361.0000 Z-13.5000 F1080.00
G1 X91.9662 Y361.0000 Z-13.5000 F1080.00
G1 X91.9662 Y267.0000 Z-13.5000 F1080.00
G1 X91.9662 Y267.0000 Z-13.5000 F1080.00
G1 X91.9662 Y275.0610 Z-13.5000 F1080.00
G1 X83.9052 Y267.0000 Z-13.5000 F1080.00
G1 X75.8442 Y267.0000 Z-13.5000 F1080.00
G1 X91.9662 Y283.1220 Z-13.5000 F1080.00
G1 X91.9662 Y291.1831 Z-13.5000 F1080.00
G1 X67.9662 Y267.1831 Z-13.5000 F1080.00
G1 X67.9662 Y275.2441 Z-13.5000 F1080.00
G1 X91.9662 Y299.2441 Z-13.5000 F1080.00
G1 X91.9662 Y307.3051 Z-13.5000 F1080.00
G1 X67.9662 Y283.3051 Z-13.5000 F1080.00
G1 X67.9662 Y291.3661 Z-13.5000 F1080.00
G1 X91.9662 Y315.3661 Z-13.5000 F1080.00
G1 X91.9662 Y323.4271 Z-13.5000 F1080.00
G1 X67.9662 Y299.4271 Z-13.5000 F1080.00
G1 X67.9662 Y307.4881 Z-13.5000 F1080.00
G1 X91.9662 Y331.4881 Z-13.5000 F1080.00
G1 X91.9662 Y339.5492 Z-13.5000 F1080.00
G1 X67.9662 Y315.5492 Z-13.5000 F1080.00
G1 X67.9662 Y323.6102 Z-13.5000 F1080.00
G1 X91.9662 Y347.6102 Z-13.5000 F1080.00
G1 X91.9662 Y355.6712 Z-13.5000 F1080.00
G1 X67.9662 Y331.6712 Z-13.5000 F1080.00
G1 X67.9662 Y339.7322 Z-13.5000 F1080.00
G1 X89.2340 Y361.0000 Z-13.5000 F1080.00
G1 X81.1730 Y361.0000 Z-13.5000 F1080.00
G1 X67.9662 Y347.7932 Z-13.5000 F1080.00
G1 X67.9662 Y355.8542 Z-13.5000 F1080.00
G1 X67.9662 Y361.0000 Z-13.5000 F1080.00
G1 X73.1120 Y361.0000 Z-13.5000 F1080.00
G1 X67.9662 Y355.8542 Z-13.5000 F1080.00
G1 X67.9662 Y355.8542 Z-14.2500 F1080.00
G1 X73.1120 Y361.0000 Z-14.2500 F1080.00
G1 X67.9662 Y361.0000 Z-14.2500 F1080.00
G1 X67.9662 Y355.8542 Z-14.2500 F1080.00
G1 X67.9662 Y347.7932 Z-14.2500 F1080.00
G1 X81.1730 Y361.0000 Z-14.2500 F1080.00
G1 X89.2340 Y361.0000 Z-14.2500 F1080.00
G1 X67.9662 Y339.7322 Z-14.2500 F1080.00
G1 X67.9662 Y331.6712 Z-14.2500 F1080.00
G1 X91.9662 Y355.6712 Z-14.2500 F1080.00
G1 X91.9662 Y347.6102 Z-14.2500 F1080.00
G1 X67.9662 Y323.6102 Z-14.2500 F1080.00
G1 X67.9662 Y315.5492 Z-14.2500 F1080.00
G1 X91.9662 Y339.5492 Z-14.2500 F1080.00
G1 X91.9662 Y331.4881 Z-14.2500 F1080.00
G1 X67.9662 Y307.4881 Z-14.2500 F1080.00
G1 X67.9662 Y299.4271 Z-14.2500 F1080.00
G1 X91.9662 Y323.4271 Z-14.2500 F1080.00
G1 X91.9662 Y315.3661 Z-14.2500 F1080.00
G1 X67.9662 Y291.3661 Z-14.2500 F1080.00
G1 X67.9662 Y283.3051 Z-14.2500 F1080.00
G1 X91.9662 Y307.3051 Z-14.2500 F1080.00
G1 X91.9662 Y299.2441 Z-14.2500 F1080.00
G1 X67.9662 Y275.2441 Z-14.2500 F1080.00
G1 X67.9662 Y267.1831 Z-14.2500 F1080.00
G1 X91.9662 Y291.1831 Z-14.2500 F1080.00
G1 X91.9662 Y283.1220 Z-14.2500 F1080.00
G1 X75.8442 Y267.0000 Z-14.2500 F1080.00
G1 X83.9052 Y267.0000 Z-14.2500 F1080.00
G1 X91.9662 Y275.0610 Z-14.2500 F1080.00
G1 X91.9662 Y267.0000 Z-14.2500 F1080.00
G1 X91.9662 Y267.0000 Z-14.2500 F1080.00
G1 X67.9662 Y267.0000 Z-14.2500 F1080.00
G1 X67.9662 Y361.0000 Z-14.2500 F1080.00
G1 X91.9662 Y361.0000 Z-14.2500 F1080.00
G1 X91.9662 Y267.0000 Z-14.2500 F1080.00
G1 X91.9662 Y267.0000 Z-15.0000 F1080.00
G1 X67.9662 Y267.0000 Z-15.0000 F1080.00
G1 X67.9662 Y361.0000 Z-15.0000 F1080.00
G1 X91.9662 Y361.0000 Z-15.0000 F1080.00
G1 X91.9662 Y267.0000 Z-15.0000 F1080.00
G1 X91.9662 Y267.0000 Z-15.0000 F1080.00
G1 X91.9662 Y275.0610 Z-15.0000 F1080.00
G1 X83.9052 Y267.0000 Z-15.0000 F1080.00
G1 X75.8442 Y267.0000 Z-15.0000 F1080.00
G1 X91.9662 Y283.1220 Z-15.0000 F1080.00
G1 X91.9662 Y291.1831 Z-15.0000 F1080.00
G1 X67.9662 Y267.1831 Z-15.0000 F1080.00
G1 X67.9662 Y275.2441 Z-15.0000 F1080.00
G1 X91.9662 Y299.2441 Z-15.0000 F1080.00
G1 X91.9662 Y307.3051 Z-15.0000 F1080.00
G1 X67.9662 Y283.3051 Z-15.0000 F1080.00
G1 X67.9662 Y291.3661 Z-15.0000 F1080.00
G1 X91.9662 Y315.3661 Z-15.0000 F1080.00
G1 X91.9662 Y323.4271 Z-15.0000 F1080.00
G1 X67.9662 Y299.4271 Z-15.0000 F1080.00
G1 X67.9662 Y307.4881 Z-15.0000 F1080.00
G1 X91.9662 Y331.4881 Z-15.0000 F1080.00
G1 X91.9662 Y339.5492 Z-15.0000 F1080.00
G1 X67.9662 Y315.5492 Z-15.0000 F1080.00
G1 X67.9662 Y323.6102 Z-15.0000 F1080.00
G1 X91.9662 Y347.6102 Z-15.0000 F1080.00
G1 X91.9662 Y355.6712 Z-15.0000 F1080.00
G1 X67.9662 Y331.6712 Z-15.0000 F1080.00
G1 X67.9662 Y339.7322 Z-15.0000 F1080.00
G1 X89.2340 Y361.0000 Z-15.0000 F1080.00
G1 X81.1730 Y361.0000 Z-15.0000 F1080.00
G1 X67.9662 Y347.7932 Z-15.0000 F1080.00
G1 X67.9662 Y355.8542 Z-15.0000 F1080.00
G1 X67.9662 Y361.0000 Z-15.0000 F1080.00
G1 X73.1120 Y361.0000 Z-15.0000 F1080.00
G1 X67.9662 Y355.8542 Z-15.0000 F1080.00
G1 X67.9662 Y355.8542 Z-15.7500 F1080.00
G1 X73.1120 Y361.0000 Z-15.7500 F1080.00
G1 X67.9662 Y361.0000 Z-15.7500 F1080.00
G1 X67.9662 Y355.8542 Z-15.7500 F1080.00
G1 X67.9662 Y347.7932 Z-15.7500 F1080.00
G1 X81.1730 Y361.0000 Z-15.7500 F1080.00
G1 X89.2340 Y361.0000 Z-15.7500 F1080.00
G1 X67.9662 Y339.7322 Z-15.7500 F1080.00
G1 X67.9662 Y331.6712 Z-15.7500 F1080.00
G1 X91.9662 Y355.6712 Z-15.7500 F1080.00
G1 X91.9662 Y347.6102 Z-15.7500 F1080.00
G1 X67.9662 Y323.6102 Z-15.7500 F1080.00
G1 X67.9662 Y315.5492 Z-15.7500 F1080.00
G1 X91.9662 Y339.5492 Z-15.7500 F1080.00
G1 X91.9662 Y331.4881 Z-15.7500 F1080.00
G1 X67.9662 Y307.4881 Z-15.7500 F1080.00
G1 X67.9662 Y299.4271 Z-15.7500 F1080.00
G1 X91.9662 Y323.4271 Z-15.7500 F1080.00
G1 X91.9662 Y315.3661 Z-15.7500 F1080.00
G1 X67.9662 Y291.3661 Z-15.7500 F1080.00
G1 X67.9662 Y283.3051 Z-15.7500 F1080.00
G1 X91.9662 Y307.3051 Z-15.7500 F1080.00
G1 X91.9662 Y299.2441 Z-15.7500 F1080.00
G1 X67.9662 Y275.2441 Z-15.7500 F1080.00
G1 X67.9662 Y267.1831 Z-15.7500 F1080.00
G1 X91.9662 Y291.1831 Z-15.7500 F1080.00
G1 X91.9662 Y283.1220 Z-15.7500 F1080.00
G1 X75.8442 Y267.0000 Z-15.7500 F1080.00
G1 X83.9052 Y267.0000 Z-15.7500 F1080.00
G1 X91.9662 Y275.0610 Z-15.7500 F1080.00
G1 X91.9662 Y267.0000 Z-15.7500 F1080.00
G1 X91.9662 Y267.0000 Z-15.7500 F1080.00
G1 X67.9662 Y267.0000 Z-15.7500 F1080.00
G1 X67.9662 Y361.0000 Z-15.7500 F1080.00
G1 X91.9662 Y361.0000 Z-15.7500 F1080.00
G1 X91.9662 Y267.0000 Z-15.7500 F1080.00
G1 X91.9662 Y267.0000 Z-16.5000 F1080.00
G1 X67.9662 Y267.0000 Z-16.5000 F1080.00
G1 X67.9662 Y361.0000 Z-16.5000 F1080.00
G1 X91.9662 Y361.0000 Z-16.5000 F1080.00
G1 X91.9662 Y267.0000 Z-16.5000 F1080.00
G1 X91.9662 Y267.0000 Z-16.5000 F1080.00
G1 X91.9662 Y275.0610 Z-16.5000 F1080.00
G1 X83.9052 Y267.0000 Z-16.5000 F1080.00
G1 X75.8442 Y267.0000 Z-16.5000 F1080.00
G1 X91.9662 Y283.1220 Z-16.5000 F1080.00
G1 X91.9662 Y291.1831 Z-16.5000 F1080.00
G1 X67.9662 Y267.1831 Z-16.5000 F1080.00
G1 X67.9662 Y275.2441 Z-16.5000 F1080.00
G1 X91.9662 Y299.2441 Z-16.5000 F1080.00
G1 X91.9662 Y307.3051 Z-16.5000 F1080.00
G1 X67.9662 Y283.3051 Z-16.5000 F1080.00
G1 X67.9662 Y291.3661 Z-16.5000 F1080.00
G1 X91.9662 Y315.3661 Z-16.5000 F1080.00
G1 X91.9662 Y323.4271 Z-16.5000 F1080.00
G1 X67.9662 Y299.4271 Z-16.5000 F1080.00
G1 X67.9662 Y307.4881 Z-16.5000 F1080.00
G1 X91.9662 Y331.4881 Z-16.5000 F1080.00
G1 X91.9662 Y339.5492 Z-16.5000 F1080.00
G1 X67.9662 Y315.5492 Z-16.5000 F1080.00
G1 X67.9662 Y323.6102 Z-16.5000 F1080.00
G1 X91.9662 Y347.6102 Z-16.5000 F1080.00
G1 X91.9662 Y355.6712 Z-16.5000 F1080.00
G1 X67.9662 Y331.6712 Z-16.5000 F1080.00
G1 X67.9662 Y339.7322 Z-16.5000 F1080.00
G1 X89.2340 Y361.0000 Z-16.5000 F1080.00
G1 X81.1730 Y361.0000 Z-16.5000 F1080.00
G1 X67.9662 Y347.7932 Z-16.5000 F1080.00
G1 X67.9662 Y355.8542 Z-16.5000 F1080.00
G1 X67.9662 Y361.0000 Z-16.5000 F1080.00
G1 X73.1120 Y361.0000 Z-16.5000 F1080.00
G1 X67.9662 Y355.8542 Z-16.5000 F1080.00
G1 X67.9662 Y355.8542 Z-17.2500 F1080.00
G1 X73.1120 Y361.0000 Z-17.2500 F1080.00
G1 X67.9662 Y361.0000 Z-17.2500 F1080.00
G1 X67.9662 Y355.8542 Z-17.2500 F1080.00
G1 X67.9662 Y347.7932 Z-17.2500 F1080.00
G1 X81.1730 Y361.0000 Z-17.2500 F1080.00
G1 X89.2340 Y361.0000 Z-17.2500 F1080.00
G1 X67.9662 Y339.7322 Z-17.2500 F1080.00
G1 X67.9662 Y331.6712 Z-17.2500 F1080.00
G1 X91.9662 Y355.6712 Z-17.2500 F1080.00
G1 X91.9662 Y347.6102 Z-17.2500 F1080.00
G1 X67.9662 Y323.6102 Z-17.2500 F1080.00
G1 X67.9662 Y315.5492 Z-17.2500 F1080.00
G1 X91.9662 Y339.5492 Z-17.2500 F1080.00
G1 X91.9662 Y331.4881 Z-17.2500 F1080.00
G1 X67.9662 Y307.4881 Z-17.2500 F1080.00
G1 X67.9662 Y299.4271 Z-17.2500 F1080.00
G1 X91.9662 Y323.4271 Z-17.2500 F1080.00
G1 X91.9662 Y315.3661 Z-17.2500 F1080.00
G1 X67.9662 Y291.3661 Z-17.2500 F1080.00
G1 X67.9662 Y283.3051 Z-17.2500 F1080.00
G1 X91.9662 Y307.3051 Z-17.2500 F1080.00
G1 X91.9662 Y299.2441 Z-17.2500 F1080.00
G1 X67.9662 Y275.2441 Z-17.2500 F1080.00
G1 X67.9662 Y267.1831 Z-17.2500 F1080.00
G1 X91.9662 Y291.1831 Z-17.2500 F1080.00
G1 X91.9662 Y283.1220 Z-17.2500 F1080.00
G1 X75.8442 Y267.0000 Z-17.2500 F1080.00
G1 X83.9052 Y267.0000 Z-17.2500 F1080.00
G1 X91.9662 Y275.0610 Z-17.2500 F1080.00
G1 X91.9662 Y267.0000 Z-17.2500 F1080.00
G1 X91.9662 Y267.0000 Z-17.2500 F1080.00
G1 X67.9662 Y267.0000 Z-17.2500 F1080.00
G1 X67.9662 Y361.0000 Z-17.2500 F1080.00
G1 X91.9662 Y361.0000 Z-17.2500 F1080.00
G1 X91.9662 Y267.0000 Z-17.2500 F1080.00
G1 X91.9662 Y267.0000 Z-18.0000 F1080.00
G1 X67.9662 Y267.0000 Z-18.0000 F1080.00
G1 X67.9662 Y361.0000 Z-18.0000 F1080.00
G1 X91.9662 Y361.0000 Z-18.0000 F1080.00
G1 X91.9662 Y267.0000 Z-18.0000 F1080.00
G1 X91.9662 Y267.0000 Z-18.0000 F1080.00
G1 X91.9662 Y275.0610 Z-18.0000 F1080.00
G1 X83.9052 Y267.0000 Z-18.0000 F1080.00
G1 X75.8442 Y267.0000 Z-18.0000 F1080.00
G1 X91.9662 Y283.1220 Z-18.0000 F1080.00
G1 X91.9662 Y291.1831 Z-18.0000 F1080.00
G1 X67.9662 Y267.1831 Z-18.0000 F1080.00
G1 X67.9662 Y275.2441 Z-18.0000 F1080.00
G1 X91.9662 Y299.2441 Z-18.0000 F1080.00
G1 X91.9662 Y307.3051 Z-18.0000 F1080.00
G1 X67.9662 Y283.3051 Z-18.0000 F1080.00
G1 X67.9662 Y291.3661 Z-18.0000 F1080.00
G1 X91.9662 Y315.3661 Z-18.0000 F1080.00
G1 X91.9662 Y323.4271 Z-18.0000 F1080.00
G1 X67.9662 Y299.4271 Z-18.0000 F1080.00
G1 X67.9662 Y307.4881 Z-18.0000 F1080.00
G1 X91.9662 Y331.4881 Z-18.0000 F1080.00
G1 X91.9662 Y339.5492 Z-18.0000 F1080.00
G1 X67.9662 Y315.5492 Z-18.0000 F1080.00
G1 X67.9662 Y323.6102 Z-18.0000 F1080.00
G1 X91.9662 Y347.6102 Z-18.0000 F1080.00
G1 X91.9662 Y355.6712 Z-18.0000 F1080.00
G1 X67.9662 Y331.6712 Z-18.0000 F1080.00
G1 X67.9662 Y339.7322 Z-18.0000 F1080.00
G1 X89.2340 Y361.0000 Z-18.0000 F1080.00
G1 X81.1730 Y361.0000 Z-18.0000 F1080.00
G1 X67.9662 Y347.7932 Z-18.0000 F1080.00
G1 X67.9662 Y355.8542 Z-18.0000 F1080.00
G1 X67.9662 Y361.0000 Z-18.0000 F1080.00
G1 X73.1120 Y361.0000 Z-18.0000 F1080.00
G1 X67.9662 Y355.8542 Z-18.0000 F1080.00
G1 X67.9662 Y355.8542 Z-18.7500 F1080.00
G1 X73.1120 Y361.0000 Z-18.7500 F1080.00
G1 X67.9662 Y361.0000 Z-18.7500 F1080.00
G1 X67.9662 Y355.8542 Z-18.7500 F1080.00
G1 X67.9662 Y347.7932 Z-18.7500 F1080.00
G1 X81.1730 Y361.0000 Z-18.7500 F1080.00
G1 X89.2340 Y361.0000 Z-18.7500 F1080.00
G1 X67.9662 Y339.7322 Z-18.7500 F1080.00
G1 X67.9662 Y331.6712 Z-18.7500 F1080.00
G1 X91.9662 Y355.6712 Z-18.7500 F1080.00
G1 X91.9662 Y347.6102 Z-18.7500 F1080.00
G1 X67.9662 Y323.6102 Z-18.7500 F1080.00
G1 X67.9662 Y315.5492 Z-18.7500 F1080.00
G1 X91.9662 Y339.5492 Z-18.7500 F1080.00
G1 X91.9662 Y331.4881 Z-18.7500 F1080.00
G1 X67.9662 Y307.4881 Z-18.7500 F1080.00
G1 X67.9662 Y299.4271 Z-18.7500 F1080.00
G1 X91.9662 Y323.4271 Z-18.7500 F1080.00
G1 X91.9662 Y315.3661 Z-18.7500 F1080.00
G1 X67.9662 Y291.3661 Z-18.7500 F1080.00
G1 X67.9662 Y283.3051 Z-18.7500 F1080.00
G1 X91.9662 Y307.3051 Z-18.7500 F1080.00
G1 X91.9662 Y299.2441 Z-18.7500 F1080.00
G1 X67.9662 Y275.2441 Z-18.7500 F1080.00
G1 X67.9662 Y267.1831 Z-18.7500 F1080.00
G1 X91.9662 Y291.1831 Z-18.7500 F1080.00
G1 X91.9662 Y283.1220 Z-18.7500 F1080.00
G1 X75.8442 Y267.0000 Z-18.7500 F1080.00
G1 X83.9052 Y267.0000 Z-18.7500 F1080.00
G1 X91.9662 Y275.0610 Z-18.7500 F1080.00
G1 X91.9662 Y267.0000 Z-18.7500 F1080.00
G1 X91.9662 Y267.0000 Z-18.7500 F1080.00
G1 X67.9662 Y267.0000 Z-18.7500 F1080.00
G1 X67.9662 Y361.0000 Z-18.7500 F1080.00
G1 X91.9662 Y361.0000 Z-18.7500 F1080.00
G1 X91.9662 Y267.0000 Z-18.7500 F1080.00
G1 X91.9662 Y267.0000 Z-19.5000 F1080.00
G1 X67.9662 Y267.0000 Z-19.5000 F1080.00
G1 X67.9662 Y361.0000 Z-19.5000 F1080.00
G1 X91.9662 Y361.0000 Z-19.5000 F1080.00
G1 X91.9662 Y267.0000 Z-19.5000 F1080.00
G1 X91.9662 Y267.0000 Z-19.5000 F1080.00
G1 X91.9662 Y275.0610 Z-19.5000 F1080.00
G1 X83.9052 Y267.0000 Z-19.5000 F1080.00
G1 X75.8442 Y267.0000 Z-19.5000 F1080.00
G1 X91.9662 Y283.1220 Z-19.5000 F1080.00
G1 X91.9662 Y291.1831 Z-19.5000 F1080.00
G1 X67.9662 Y267.1831 Z-19.5000 F1080.00
G1 X67.9662 Y275.2441 Z-19.5000 F1080.00
G1 X91.9662 Y299.2441 Z-19.5000 F1080.00
G1 X91.9662 Y307.3051 Z-19.5000 F1080.00
G1 X67.9662 Y283.3051 Z-19.5000 F1080.00
G1 X67.9662 Y291.3661 Z-19.5000 F1080.00
G1 X91.9662 Y315.3661 Z-19.5000 F1080.00
G1 X91.9662 Y323.4271 Z-19.5000 F1080.00
G1 X67.9662 Y299.4271 Z-19.5000 F1080.00
G1 X67.9662 Y307.4881 Z-19.5000 F1080.00
G1 X91.9662 Y331.4881 Z-19.5000 F1080.00
G1 X91.9662 Y339.5492 Z-19.5000 F1080.00
G1 X67.9662 Y315.5492 Z-19.5000 F1080.00
G1 X67.9662 Y323.6102 Z-19.5000 F1080.00
G1 X91.9662 Y347.6102 Z-19.5000 F1080.00
G1 X91.9662 Y355.6712 Z-19.5000 F1080.00
G1 X67.9662 Y331.6712 Z-19.5000 F1080.00
G1 X67.9662 Y339.7322 Z-19.5000 F1080.00
G1 X89.2340 Y361.0000 Z-19.5000 F1080.00
G1 X81.1730 Y361.0000 Z-19.5000 F1080.00
G1 X67.9662 Y347.7932 Z-19.5000 F1080.00
G1 X67.9662 Y355.8542 Z-19.5000 F1080.00
G1 X67.9662 Y361.0000 Z-19.5000 F1080.00
G1 X73.1120 Y361.0000 Z-19.5000 F1080.00
G1 X67.9662 Y355.8542 Z-19.5000 F1080.00
G1 X67.9662 Y355.8542 Z-20.0000 F1080.00
G1 X73.1120 Y361.0000 Z-20.0000 F1080.00
G1 X67.9662 Y361.0000 Z-20.0000 F1080.00
G1 X67.9662 Y355.8542 Z-20.0000 F1080.00
G1 X67.9662 Y347.7932 Z-20.0000 F1080.00
G1 X81.1730 Y361.0000 Z-20.0000 F1080.00
G1 X89.2340 Y361.0000 Z-20.0000 F1080.00
G1 X67.9662 Y339.7322 Z-20.0000 F1080.00
G1 X67.9662 Y331.6712 Z-20.0000 F1080.00
G1 X91.9662 Y355.6712 Z-20.0000 F1080.00
G1 X91.9662 Y347.6102 Z-20.0000 F1080.00
G1 X67.9662 Y323.6102 Z-20.0000 F1080.00
G1 X67.9662 Y315.5492 Z-20.0000 F1080.00
G1 X91.9662 Y339.5492 Z-20.0000 F1080.00
G1 X91.9662 Y331.4881 Z-20.0000 F1080.00
G1 X67.9662 Y307.4881 Z-20.0000 F1080.00
G1 X67.9662 Y299.4271 Z-20.0000 F1080.00
G1 X91.9662 Y323.4271 Z-20.0000 F1080.00
G1 X91.9662 Y315.3661 Z-20.0000 F1080.00
G1 X67.9662 Y291.3661 Z-20.0000 F1080.00
G1 X67.9662 Y283.3051 Z-20.0000 F1080.00
G1 X91.9662 Y307.3051 Z-20.0000 F1080.00
G1 X91.9662 Y299.2441 Z-20.0000 F1080.00
G1 X67.9662 Y275.2441 Z-20.0000 F1080.00
G1 X67.9662 Y267.1831 Z-20.0000 F1080.00
G1 X91.9662 Y291.1831 Z-20.0000 F1080.00
G1 X91.9662 Y283.1220 Z-20.0000 F1080.00
G1 X75.8442 Y267.0000 Z-20.0000 F1080.00
G1 X83.9052 Y267.0000 Z-20.0000 F1080.00
G1 X91.9662 Y275.0610 Z-20.0000 F1080.00
G1 X91.9662 Y267.0000 Z-20.0000 F1080.00
G1 X91.9662 Y267.0000 Z-20.0000 F1080.00
G1 X67.9662 Y267.0000 Z-20.0000 F1080.00
G1 X67.9662 Y361.0000 Z-20.0000 F1080.00
G1 X91.9662 Y361.0000 Z-20.0000 F1080.00
G1 X91.9662 Y267.0000 Z-20.0000 F1080.00
G0 Z5.0000
(finish operation: Pocket_Shape005)
(begin operation: Pocket_Shape006)
(Path: Pocket_Shape006)
(Pocket_Shape006)
G0 Z5.0000
G0 X66.9662 Y97.0000
G0 Z3.0000
G1 X66.9662 Y97.0000 Z-0.7500 F1080.00
G1 X66.9662 Y93.0000 Z-0.7500 F1080.00
G1 X62.9662 Y93.0000 Z-0.7500 F1080.00
G1 X62.9662 Y97.0000 Z-0.7500 F1080.00
G1 X66.9662 Y97.0000 Z-0.7500 F1080.00
G1 X66.9662 Y97.0000 Z-0.7500 F1080.00
G1 X66.9662 Y93.0000 Z-0.7500 F1080.00
G1 X62.9662 Y93.0000 Z-0.7500 F1080.00
G1 X62.9662 Y97.0000 Z-0.7500 F1080.00
G1 X66.9662 Y97.0000 Z-0.7500 F1080.00
G1 X66.9662 Y97.0000 Z-1.5000 F1080.00
G1 X66.9662 Y93.0000 Z-1.5000 F1080.00
G1 X62.9662 Y93.0000 Z-1.5000 F1080.00
G1 X62.9662 Y97.0000 Z-1.5000 F1080.00
G1 X66.9662 Y97.0000 Z-1.5000 F1080.00
G1 X66.9662 Y97.0000 Z-1.5000 F1080.00
G1 X66.9662 Y93.0000 Z-1.5000 F1080.00
G1 X62.9662 Y93.0000 Z-1.5000 F1080.00
G1 X62.9662 Y97.0000 Z-1.5000 F1080.00
G1 X66.9662 Y97.0000 Z-1.5000 F1080.00
G1 X66.9662 Y97.0000 Z-2.2500 F1080.00
G1 X66.9662 Y93.0000 Z-2.2500 F1080.00
G1 X62.9662 Y93.0000 Z-2.2500 F1080.00
G1 X62.9662 Y97.0000 Z-2.2500 F1080.00
G1 X66.9662 Y97.0000 Z-2.2500 F1080.00
G1 X66.9662 Y97.0000 Z-2.2500 F1080.00
G1 X66.9662 Y93.0000 Z-2.2500 F1080.00
G1 X62.9662 Y93.0000 Z-2.2500 F1080.00
G1 X62.9662 Y97.0000 Z-2.2500 F1080.00
G1 X66.9662 Y97.0000 Z-2.2500 F1080.00
G1 X66.9662 Y97.0000 Z-3.0000 F1080.00
G1 X66.9662 Y93.0000 Z-3.0000 F1080.00
G1 X62.9662 Y93.0000 Z-3.0000 F1080.00
G1 X62.9662 Y97.0000 Z-3.0000 F1080.00
G1 X66.9662 Y97.0000 Z-3.0000 F1080.00
G1 X66.9662 Y97.0000 Z-3.0000 F1080.00
G1 X66.9662 Y93.0000 Z-3.0000 F1080.00
G1 X62.9662 Y93.0000 Z-3.0000 F1080.00
G1 X62.9662 Y97.0000 Z-3.0000 F1080.00
G1 X66.9662 Y97.0000 Z-3.0000 F1080.00
G1 X66.9662 Y97.0000 Z-3.7500 F1080.00
G1 X66.9662 Y93.0000 Z-3.7500 F1080.00
G1 X62.9662 Y93.0000 Z-3.7500 F1080.00
G1 X62.9662 Y97.0000 Z-3.7500 F1080.00
G1 X66.9662 Y97.0000 Z-3.7500 F1080.00
G1 X66.9662 Y97.0000 Z-3.7500 F1080.00
G1 X66.9662 Y93.0000 Z-3.7500 F1080.00
G1 X62.9662 Y93.0000 Z-3.7500 F1080.00
G1 X62.9662 Y97.0000 Z-3.7500 F1080.00
G1 X66.9662 Y97.0000 Z-3.7500 F1080.00
G1 X66.9662 Y97.0000 Z-4.0000 F1080.00
G1 X66.9662 Y93.0000 Z-4.0000 F1080.00
G1 X62.9662 Y93.0000 Z-4.0000 F1080.00
G1 X62.9662 Y97.0000 Z-4.0000 F1080.00
G1 X66.9662 Y97.0000 Z-4.0000 F1080.00
G1 X66.9662 Y97.0000 Z-4.0000 F1080.00
G1 X66.9662 Y93.0000 Z-4.0000 F1080.00
G1 X62.9662 Y93.0000 Z-4.0000 F1080.00
G1 X62.9662 Y97.0000 Z-4.0000 F1080.00
G1 X66.9662 Y97.0000 Z-4.0000 F1080.00
G0 Z5.0000
G0 X96.9662 Y97.0000
G0 Z3.0000
G1 X96.9662 Y97.0000 Z-0.7500 F1080.00
G1 X96.9662 Y93.0000 Z-0.7500 F1080.00
G1 X92.9662 Y93.0000 Z-0.7500 F1080.00
G1 X92.9662 Y97.0000 Z-0.7500 F1080.00
G1 X96.9662 Y97.0000 Z-0.7500 F1080.00
G1 X96.9662 Y97.0000 Z-0.7500 F1080.00
G1 X96.9662 Y93.0000 Z-0.7500 F1080.00
G1 X92.9662 Y93.0000 Z-0.7500 F1080.00
G1 X92.9662 Y97.0000 Z-0.7500 F1080.00
G1 X96.9662 Y97.0000 Z-0.7500 F1080.00
G1 X96.9662 Y97.0000 Z-1.5000 F1080.00
G1 X96.9662 Y93.0000 Z-1.5000 F1080.00
G1 X92.9662 Y93.0000 Z-1.5000 F1080.00
G1 X92.9662 Y97.0000 Z-1.5000 F1080.00
G1 X96.9662 Y97.0000 Z-1.5000 F1080.00
G1 X96.9662 Y97.0000 Z-1.5000 F1080.00
G1 X96.9662 Y93.0000 Z-1.5000 F1080.00
G1 X92.9662 Y93.0000 Z-1.5000 F1080.00
G1 X92.9662 Y97.0000 Z-1.5000 F1080.00
G1 X96.9662 Y97.0000 Z-1.5000 F1080.00
G1 X96.9662 Y97.0000 Z-2.2500 F1080.00
G1 X96.9662 Y93.0000 Z-2.2500 F1080.00
G1 X92.9662 Y93.0000 Z-2.2500 F1080.00
G1 X92.9662 Y97.0000 Z-2.2500 F1080.00
G1 X96.9662 Y97.0000 Z-2.2500 F1080.00
G1 X96.9662 Y97.0000 Z-2.2500 F1080.00
G1 X96.9662 Y93.0000 Z-2.2500 F1080.00
G1 X92.9662 Y93.0000 Z-2.2500 F1080.00
G1 X92.9662 Y97.0000 Z-2.2500 F1080.00
G1 X96.9662 Y97.0000 Z-2.2500 F1080.00
G1 X96.9662 Y97.0000 Z-3.0000 F1080.00
G1 X96.9662 Y93.0000 Z-3.0000 F1080.00
G1 X92.9662 Y93.0000 Z-3.0000 F1080.00
G1 X92.9662 Y97.0000 Z-3.0000 F1080.00
G1 X96.9662 Y97.0000 Z-3.0000 F1080.00
G1 X96.9662 Y97.0000 Z-3.0000 F1080.00
G1 X96.9662 Y93.0000 Z-3.0000 F1080.00
G1 X92.9662 Y93.0000 Z-3.0000 F1080.00
G1 X92.9662 Y97.0000 Z-3.0000 F1080.00
G1 X96.9662 Y97.0000 Z-3.0000 F1080.00
G1 X96.9662 Y97.0000 Z-3.7500 F1080.00
G1 X96.9662 Y93.0000 Z-3.7500 F1080.00
G1 X92.9662 Y93.0000 Z-3.7500 F1080.00
G1 X92.9662 Y97.0000 Z-3.7500 F1080.00
G1 X96.9662 Y97.0000 Z-3.7500 F1080.00
G1 X96.9662 Y97.0000 Z-3.7500 F1080.00
G1 X96.9662 Y93.0000 Z-3.7500 F1080.00
G1 X92.9662 Y93.0000 Z-3.7500 F1080.00
G1 X92.9662 Y97.0000 Z-3.7500 F1080.00
G1 X96.9662 Y97.0000 Z-3.7500 F1080.00
G1 X96.9662 Y97.0000 Z-4.0000 F1080.00
G1 X96.9662 Y93.0000 Z-4.0000 F1080.00
G1 X92.9662 Y93.0000 Z-4.0000 F1080.00
G1 X92.9662 Y97.0000 Z-4.0000 F1080.00
G1 X96.9662 Y97.0000 Z-4.0000 F1080.00
G1 X96.9662 Y97.0000 Z-4.0000 F1080.00
G1 X96.9662 Y93.0000 Z-4.0000 F1080.00
G1 X92.9662 Y93.0000 Z-4.0000 F1080.00
G1 X92.9662 Y97.0000 Z-4.0000 F1080.00
G1 X96.9662 Y97.0000 Z-4.0000 F1080.00
G0 Z5.0000
G0 X93.6587 Y52.5124
G0 Z3.0000
G1 X93.6587 Y52.5124 Z-0.7500 F1080.00
G2 X93.9473 Y51.8781 Z-0.7500 I-0.7021 J-0.7021 F1080.00
G2 X91.9659 Y51.7425 Z-0.7500 I-0.9907 J-0.0678 F1080.00
G2 X93.6587 Y52.5124 Z-0.7500 I0.9907 J0.0678 F1080.00
G0 X93.6587 Y52.5124 Z5.0000
G0 X93.6587 Y52.5124 Z5.0000
G0 X93.6587 Y52.5124 Z2.2500
G1 X93.6587 Y52.5124 Z-0.7500 F1080.00
G2 X92.3299 Y51.0400 Z-0.7500 I-0.7021 J-0.7021 F1080.00
G2 X92.1863 Y52.4370 Z-0.7500 I0.6267 J0.7703 F1080.00
G2 X93.5832 Y52.5806 Z-0.7500 I0.7703 J-0.6267 F1080.00
G2 X93.6587 Y52.5124 Z-0.7500 I-0.6267 J-0.7703 F1080.00
G1 X93.6587 Y52.5124 Z-1.5000 F1080.00
G2 X92.3299 Y51.0400 Z-1.5000 I-0.7021 J-0.7021 F1080.00
G2 X92.1863 Y52.4370 Z-1.5000 I0.6267 J0.7703 F1080.00
G2 X93.5832 Y52.5806 Z-1.5000 I0.7703 J-0.6267 F1080.00
G2 X93.6587 Y52.5124 Z-1.5000 I-0.6267 J-0.7703 F1080.00
G0 X93.6587 Y52.5124 Z5.0000
G0 X93.6587 Y52.5124 Z5.0000
G0 X93.6587 Y52.5124 Z1.5000
G1 X93.6587 Y52.5124 Z-1.5000 F1080.00
G2 X93.9473 Y51.8781 Z-1.5000 I-0.7021 J-0.7021 F1080.00
G2 X91.9659 Y51.7425 Z-1.5000 I-0.9907 J-0.0678 F1080.00
G2 X93.6587 Y52.5124 Z-1.5000 I0.9907 J0.0678 F1080.00
G1 X93.6587 Y52.5124 Z-2.2500 F1080.00
G2 X93.9473 Y51.8781 Z-2.2500 I-0.7021 J-0.7021 F1080.00
G2 X91.9659 Y51.7425 Z-2.2500 I-0.9907 J-0.0678 F1080.00
G2 X93.6587 Y52.5124 Z-2.2500 I0.9907 J0.0678 F1080.00
G0 X93.6587 Y52.5124 Z5.0000
G0 X93.6587 Y52.5124 Z5.0000
G0 X93.6587 Y52.5124 Z0.7500
G1 X93.6587 Y52.5124 Z-2.2500 F1080.00
G2 X92.3299 Y51.0400 Z-2.2500 I-0.7021 J-0.7021 F1080.00
G2 X92.1863 Y52.4370 Z-2.2500 I0.6267 J0.7703 F1080.00
G2 X93.5832 Y52.5806 Z-2.2500 I0.7703 J-0.6267 F1080.00
G2 X93.6587 Y52.5124 Z-2.2500 I-0.6267 J-0.7703 F1080.00
G1 X93.6587 Y52.5124 Z-3.0000 F1080.00
G2 X92.3299 Y51.0400 Z-3.0000 I-0.7021 J-0.7021 F1080.00
G2 X92.1863 Y52.4370 Z-3.0000 I0.6267 J0.7703 F1080.00
G2 X93.5832 Y52.5806 Z-3.0000 I0.7703 J-0.6267 F1080.00
G2 X93.6587 Y52.5124 Z-3.0000 I-0.6267 J-0.7703 F1080.00
G0 X93.6587 Y52.5124 Z5.0000
G0 X93.6587 Y52.5124 Z5.0000
G0 X93.6587 Y52.5124 Z-0.0000
G1 X93.6587 Y52.5124 Z-3.0000 F1080.00
G2 X93.9473 Y51.8781 Z-3.0000 I-0.7021 J-0.7021 F1080.00
G2 X91.9659 Y51.7425 Z-3.0000 I-0.9907 J-0.0678 F1080.00
G2 X93.6587 Y52.5124 Z-3.0000 I0.9907 J0.0678 F1080.00
G1 X93.6587 Y52.5124 Z-3.7500 F1080.00
G2 X93.9473 Y51.8781 Z-3.7500 I-0.7021 J-0.7021 F1080.00
G2 X91.9659 Y51.7425 Z-3.7500 I-0.9907 J-0.0678 F1080.00
G2 X93.6587 Y52.5124 Z-3.7500 I0.9907 J0.0678 F1080.00
G0 X93.6587 Y52.5124 Z5.0000
G0 X93.6587 Y52.5124 Z5.0000
G0 X93.6587 Y52.5124 Z-0.7500
G1 X93.6587 Y52.5124 Z-3.7500 F1080.00
G2 X92.3299 Y51.0400 Z-3.7500 I-0.7021 J-0.7021 F1080.00
G2 X92.1863 Y52.4370 Z-3.7500 I0.6267 J0.7703 F1080.00
G2 X93.5832 Y52.5806 Z-3.7500 I0.7703 J-0.6267 F1080.00
G2 X93.6587 Y52.5124 Z-3.7500 I-0.6267 J-0.7703 F1080.00
G1 X93.6587 Y52.5124 Z-4.0000 F1080.00
G2 X92.3299 Y51.0400 Z-4.0000 I-0.7021 J-0.7021 F1080.00
G2 X92.1863 Y52.4370 Z-4.0000 I0.6267 J0.7703 F1080.00
G2 X93.5832 Y52.5806 Z-4.0000 I0.7703 J-0.6267 F1080.00
G2 X93.6587 Y52.5124 Z-4.0000 I-0.6267 J-0.7703 F1080.00
G0 X93.6587 Y52.5124 Z5.0000
G0 X93.6587 Y52.5124 Z5.0000
G0 X93.6587 Y52.5124 Z-1.0000
G1 X93.6587 Y52.5124 Z-4.0000 F1080.00
G2 X93.9473 Y51.8781 Z-4.0000 I-0.7021 J-0.7021 F1080.00
G2 X91.9659 Y51.7425 Z-4.0000 I-0.9907 J-0.0678 F1080.00
G2 X93.6587 Y52.5124 Z-4.0000 I0.9907 J0.0678 F1080.00
G0 Z5.0000
G0 X80.6683 Y60.0124
G0 Z3.0000
G1 X80.6683 Y60.0124 Z-0.7500 F1080.00
G2 X80.9569 Y59.3781 Z-0.7500 I-0.7021 J-0.7021 F1080.00
G2 X78.9755 Y59.2425 Z-0.7500 I-0.9907 J-0.0678 F1080.00
G2 X80.6683 Y60.0124 Z-0.7500 I0.9907 J0.0678 F1080.00
G0 X80.6683 Y60.0124 Z5.0000
G0 X80.6683 Y60.0124 Z5.0000
G0 X80.6683 Y60.0124 Z2.2500
G1 X80.6683 Y60.0124 Z-0.7500 F1080.00
G2 X79.3395 Y58.5400 Z-0.7500 I-0.7021 J-0.7021 F1080.00
G2 X79.1959 Y59.9370 Z-0.7500 I0.6267 J0.7703 F1080.00
G2 X80.5929 Y60.0806 Z-0.7500 I0.7703 J-0.6267 F1080.00
G2 X80.6683 Y60.0124 Z-0.7500 I-0.6267 J-0.7703 F1080.00
G1 X80.6683 Y60.0124 Z-1.5000 F1080.00
G2 X79.3395 Y58.5400 Z-1.5000 I-0.7021 J-0.7021 F1080.00
G2 X79.1959 Y59.9370 Z-1.5000 I0.6267 J0.7703 F1080.00
G2 X80.5929 Y60.0806 Z-1.5000 I0.7703 J-0.6267 F1080.00
G2 X80.6683 Y60.0124 Z-1.5000 I-0.6267 J-0.7703 F1080.00
G0 X80.6683 Y60.0124 Z5.0000
G0 X80.6683 Y60.0124 Z5.0000
G0 X80.6683 Y60.0124 Z1.5000
G1 X80.6683 Y60.0124 Z-1.5000 F1080.00
G2 X80.9569 Y59.3781 Z-1.5000 I-0.7021 J-0.7021 F1080.00
G2 X78.9755 Y59.2425 Z-1.5000 I-0.9907 J-0.0678 F1080.00
G2 X80.6683 Y60.0124 Z-1.5000 I0.9907 J0.0678 F1080.00
G1 X80.6683 Y60.0124 Z-2.2500 F1080.00
G2 X80.9569 Y59.3781 Z-2.2500 I-0.7021 J-0.7021 F1080.00
G2 X78.9755 Y59.2425 Z-2.2500 I-0.9907 J-0.0678 F1080.00
G2 X80.6683 Y60.0124 Z-2.2500 I0.9907 J0.0678 F1080.00
G0 X80.6683 Y60.0124 Z5.0000
G0 X80.6683 Y60.0124 Z5.0000
G0 X80.6683 Y60.0124 Z0.7500
G1 X80.6683 Y60.0124 Z-2.2500 F1080.00
G2 X79.3395 Y58.5400 Z-2.2500 I-0.7021 J-0.7021 F1080.00
G2 X79.1959 Y59.9370 Z-2.2500 I0.6267 J0.7703 F1080.00
G2 X80.5929 Y60.0806 Z-2.2500 I0.7703 J-0.6267 F1080.00
G2 X80.6683 Y60.0124 Z-2.2500 I-0.6267 J-0.7703 F1080.00
G1 X80.6683 Y60.0124 Z-3.0000 F1080.00
G2 X79.3395 Y58.5400 Z-3.0000 I-0.7021 J-0.7021 F1080.00
G2 X79.1959 Y59.9370 Z-3.0000 I0.6267 J0.7703 F1080.00
G2 X80.5929 Y60.0806 Z-3.0000 I0.7703 J-0.6267 F1080.00
G2 X80.6683 Y60.0124 Z-3.0000 I-0.6267 J-0.7703 F1080.00
G0 X80.6683 Y60.0124 Z5.0000
G0 X80.6683 Y60.0124 Z5.0000
G0 X80.6683 Y60.0124 Z-0.0000
G1 X80.6683 Y60.0124 Z-3.0000 F1080.00
G2 X80.9569 Y59.3781 Z-3.0000 I-0.7021 J-0.7021 F1080.00
G2 X78.9755 Y59.2425 Z-3.0000 I-0.9907 J-0.0678 F1080.00
G2 X80.6683 Y60.0124 Z-3.0000 I0.9907 J0.0678 F1080.00
G1 X80.6683 Y60.0124 Z-3.7500 F1080.00
G2 X80.9569 Y59.3781 Z-3.7500 I-0.7021 J-0.7021 F1080.00
G2 X78.9755 Y59.2425 Z-3.7500 I-0.9907 J-0.0678 F1080.00
G2 X80.6683 Y60.0124 Z-3.7500 I0.9907 J0.0678 F1080.00
G0 X80.6683 Y60.0124 Z5.0000
G0 X80.6683 Y60.0124 Z5.0000
G0 X80.6683 Y60.0124 Z-0.7500
G1 X80.6683 Y60.0124 Z-3.7500 F1080.00
G2 X79.3395 Y58.5400 Z-3.7500 I-0.7021 J-0.7021 F1080.00
G2 X79.1959 Y59.9370 Z-3.7500 I0.6267 J0.7703 F1080.00
G2 X80.5929 Y60.0806 Z-3.7500 I0.7703 J-0.6267 F1080.00
G2 X80.6683 Y60.0124 Z-3.7500 I-0.6267 J-0.7703 F1080.00
G1 X80.6683 Y60.0124 Z-4.0000 F1080.00
G2 X79.3395 Y58.5400 Z-4.0000 I-0.7021 J-0.7021 F1080.00
G2 X79.1959 Y59.9370 Z-4.0000 I0.6267 J0.7703 F1080.00
G2 X80.5929 Y60.0806 Z-4.0000 I0.7703 J-0.6267 F1080.00
G2 X80.6683 Y60.0124 Z-4.0000 I-0.6267 J-0.7703 F1080.00
G0 X80.6683 Y60.0124 Z5.0000
G0 X80.6683 Y60.0124 Z5.0000
G0 X80.6683 Y60.0124 Z-1.0000
G1 X80.6683 Y60.0124 Z-4.0000 F1080.00
G2 X80.9569 Y59.3781 Z-4.0000 I-0.7021 J-0.7021 F1080.00
G2 X78.9755 Y59.2425 Z-4.0000 I-0.9907 J-0.0678 F1080.00
G2 X80.6683 Y60.0124 Z-4.0000 I0.9907 J0.0678 F1080.00
G0 Z5.0000
G0 X67.6780 Y52.5124
G0 Z3.0000
G1 X67.6780 Y52.5124 Z-0.7500 F1080.00
G2 X66.9758 Y50.8173 Z-0.7500 I-0.7021 J-0.7021 F1080.00
G2 X66.9758 Y52.8033 Z-0.7500 I0.0000 J0.9930 F1080.00
G2 X67.6780 Y52.5124 Z-0.7500 I-0.0000 J-0.9930 F1080.00
G1 X67.6780 Y52.5124 Z-0.7500 F1080.00
G2 X67.7871 Y51.2377 Z-0.7500 I-0.7021 J-0.7021 F1080.00
G2 X66.4032 Y50.9991 Z-0.7500 I-0.8112 J0.5726 F1080.00
G2 X66.1646 Y52.3829 Z-0.7500 I0.5726 J0.8112 F1080.00
G2 X67.6780 Y52.5124 Z-0.7500 I0.8112 J-0.5726 F1080.00
G1 X67.6780 Y52.5124 Z-1.5000 F1080.00
G2 X67.7871 Y51.2377 Z-1.5000 I-0.7021 J-0.7021 F1080.00
G2 X66.4032 Y50.9991 Z-1.5000 I-0.8112 J0.5726 F1080.00
G2 X66.1646 Y52.3829 Z-1.5000 I0.5726 J0.8112 F1080.00
G2 X67.6780 Y52.5124 Z-1.5000 I0.8112 J-0.5726 F1080.00
G1 X67.6780 Y52.5124 Z-1.5000 F1080.00
G2 X66.9758 Y50.8173 Z-1.5000 I-0.7021 J-0.7021 F1080.00
G2 X66.9758 Y52.8033 Z-1.5000 I0.0000 J0.9930 F1080.00
G2 X67.6780 Y52.5124 Z-1.5000 I-0.0000 J-0.9930 F1080.00
G1 X67.6780 Y52.5124 Z-2.2500 F1080.00
G2 X66.9758 Y50.8173 Z-2.2500 I-0.7021 J-0.7021 F1080.00
G2 X66.9758 Y52.8033 Z-2.2500 I0.0000 J0.9930 F1080.00
G2 X67.6780 Y52.5124 Z-2.2500 I-0.0000 J-0.9930 F1080.00
G1 X67.6780 Y52.5124 Z-2.2500 F1080.00
G2 X67.7871 Y51.2377 Z-2.2500 I-0.7021 J-0.7021 F1080.00
G2 X66.4032 Y50.9991 Z-2.2500 I-0.8112 J0.5726 F1080.00
G2 X66.1646 Y52.3829 Z-2.2500 I0.5726 J0.8112 F1080.00
G2 X67.6780 Y52.5124 Z-2.2500 I0.8112 J-0.5726 F1080.00
G1 X67.6780 Y52.5124 Z-3.0000 F1080.00
G2 X67.7871 Y51.2377 Z-3.0000 I-0.7021 J-0.7021 F1080.00
G2 X66.4032 Y50.9991 Z-3.0000 I-0.8112 J0.5726 F1080.00
G2 X66.1646 Y52.3829 Z-3.0000 I0.5726 J0.8112 F1080.00
G2 X67.6780 Y52.5124 Z-3.0000 I0.8112 J-0.5726 F1080.00
G1 X67.6780 Y52.5124 Z-3.0000 F1080.00
G2 X66.9758 Y50.8173 Z-3.0000 I-0.7021 J-0.7021 F1080.00
G2 X66.9758 Y52.8033 Z-3.0000 I0.0000 J0.9930 F1080.00
G2 X67.6780 Y52.5124 Z-3.0000 I-0.0000 J-0.9930 F1080.00
G1 X67.6780 Y52.5124 Z-3.7500 F1080.00
G2 X66.9758 Y50.8173 Z-3.7500 I-0.7021 J-0.7021 F1080.00
G2 X66.9758 Y52.8033 Z-3.7500 I0.0000 J0.9930 F1080.00
G2 X67.6780 Y52.5124 Z-3.7500 I-0.0000 J-0.9930 F1080.00
G1 X67.6780 Y52.5124 Z-3.7500 F1080.00
G2 X67.7871 Y51.2377 Z-3.7500 I-0.7021 J-0.7021 F1080.00
G2 X66.4032 Y50.9991 Z-3.7500 I-0.8112 J0.5726 F1080.00
G2 X66.1646 Y52.3829 Z-3.7500 I0.5726 J0.8112 F1080.00
G2 X67.6780 Y52.5124 Z-3.7500 I0.8112 J-0.5726 F1080.00
G1 X67.6780 Y52.5124 Z-4.0000 F1080.00
G2 X67.7871 Y51.2377 Z-4.0000 I-0.7021 J-0.7021 F1080.00
G2 X66.4032 Y50.9991 Z-4.0000 I-0.8112 J0.5726 F1080.00
G2 X66.1646 Y52.3829 Z-4.0000 I0.5726 J0.8112 F1080.00
G2 X67.6780 Y52.5124 Z-4.0000 I0.8112 J-0.5726 F1080.00
G1 X67.6780 Y52.5124 Z-4.0000 F1080.00
G2 X66.9758 Y50.8173 Z-4.0000 I-0.7021 J-0.7021 F1080.00
G2 X66.9758 Y52.8033 Z-4.0000 I0.0000 J0.9930 F1080.00
G2 X67.6780 Y52.5124 Z-4.0000 I-0.0000 J-0.9930 F1080.00
G0 Z5.0000
(finish operation: Pocket_Shape006)
(begin operation: Helix003)
(Path: Helix003)
(Helix003)
(helix cut operation)
G0 Z5.0000
G0 X133.6565 Y76.3326
G0 Z3.0000
G1 Z0.0000 F1080.00
G2 X132.7075 Y76.3326 Z-0.3750 I-0.4745 J0.0000 F1080.00
G2 X133.6565 Y76.3326 Z-0.7500 I0.4745 J0.0000 F1080.00
G2 X132.7075 Y76.3326 Z-1.1250 I-0.4745 J0.0000 F1080.00
G2 X133.6565 Y76.3326 Z-1.5000 I0.4745 J0.0000 F1080.00
G2 X132.7075 Y76.3326 Z-1.8750 I-0.4745 J0.0000 F1080.00
G2 X133.6565 Y76.3326 Z-2.2500 I0.4745 J0.0000 F1080.00
G2 X132.7075 Y76.3326 Z-2.6250 I-0.4745 J0.0000 F1080.00
G2 X133.6565 Y76.3326 Z-3.0000 I0.4745 J0.0000 F1080.00
G2 X132.7075 Y76.3326 Z-3.3750 I-0.4745 J0.0000 F1080.00
G2 X133.6565 Y76.3326 Z-3.7500 I0.4745 J0.0000 F1080.00
G2 X132.7075 Y76.3326 Z-4.1250 I-0.4745 J0.0000 F1080.00
G2 X133.6565 Y76.3326 Z-4.5000 I0.4745 J0.0000 F1080.00
G2 X132.7075 Y76.3326 Z-4.8750 I-0.4745 J0.0000 F1080.00
G2 X133.6565 Y76.3326 Z-5.2500 I0.4745 J0.0000 F1080.00
G2 X132.7075 Y76.3326 Z-5.6250 I-0.4745 J0.0000 F1080.00
G2 X133.6565 Y76.3326 Z-6.0000 I0.4745 J0.0000 F1080.00
G2 X132.7075 Y76.3326 Z-6.3750 I-0.4745 J0.0000 F1080.00
G2 X133.6565 Y76.3326 Z-6.7500 I0.4745 J0.0000 F1080.00
G2 X132.7075 Y76.3326 Z-7.1250 I-0.4745 J0.0000 F1080.00
G2 X133.6565 Y76.3326 Z-7.5000 I0.4745 J0.0000 F1080.00
G2 X132.7075 Y76.3326 Z-7.8750 I-0.4745 J0.0000 F1080.00
G2 X133.6565 Y76.3326 Z-8.2500 I0.4745 J0.0000 F1080.00
G2 X132.7075 Y76.3326 Z-8.6250 I-0.4745 J0.0000 F1080.00
G2 X133.6565 Y76.3326 Z-9.0000 I0.4745 J0.0000 F1080.00
G2 X132.7075 Y76.3326 Z-9.3750 I-0.4745 J0.0000 F1080.00
G2 X133.6565 Y76.3326 Z-9.7500 I0.4745 J0.0000 F1080.00
G2 X132.7075 Y76.3326 Z-10.1250 I-0.4745 J0.0000 F1080.00
G2 X133.6565 Y76.3326 Z-10.5000 I0.4745 J0.0000 F1080.00
G2 X132.7075 Y76.3326 Z-10.8750 I-0.4745 J0.0000 F1080.00
G2 X133.6565 Y76.3326 Z-11.2500 I0.4745 J0.0000 F1080.00
G2 X132.7075 Y76.3326 Z-11.6250 I-0.4745 J0.0000 F1080.00
G2 X133.6565 Y76.3326 Z-12.0000 I0.4745 J0.0000 F1080.00
G2 X132.7075 Y76.3326 Z-12.3750 I-0.4745 J0.0000 F1080.00
G2 X133.6565 Y76.3326 Z-12.7500 I0.4745 J0.0000 F1080.00
G2 X132.7075 Y76.3326 Z-13.1250 I-0.4745 J0.0000 F1080.00
G2 X133.6565 Y76.3326 Z-13.5000 I0.4745 J0.0000 F1080.00
G2 X132.7075 Y76.3326 Z-13.8750 I-0.4745 J0.0000 F1080.00
G2 X133.6565 Y76.3326 Z-14.2500 I0.4745 J0.0000 F1080.00
G2 X132.7075 Y76.3326 Z-14.6250 I-0.4745 J0.0000 F1080.00
G2 X133.6565 Y76.3326 Z-15.0000 I0.4745 J0.0000 F1080.00
G2 X132.7075 Y76.3326 Z-15.0000 I-0.4745 J0.0000 F1080.00
G2 X133.6565 Y76.3326 Z-15.0000 I0.4745 J0.0000 F1080.00
G0 Z3.0000
G0 Z5.0000
(finish operation: Helix003)
(begin operation: Pocket_Shape007)
(Path: Pocket_Shape007)
(Pocket_Shape007)
G0 Z5.0000
G0 X105.9662 Y139.0000
G0 Z3.0000
G1 X105.9662 Y139.0000 Z-0.7500 F1080.00
G1 X105.9662 Y123.0000 Z-0.7500 F1080.00
G1 X53.9662 Y123.0000 Z-0.7500 F1080.00
G1 X53.9662 Y139.0000 Z-0.7500 F1080.00
G1 X105.9662 Y139.0000 Z-0.7500 F1080.00
G1 X105.9662 Y139.0000 Z-0.7500 F1080.00
G1 X97.9052 Y139.0000 Z-0.7500 F1080.00
G1 X105.9662 Y130.9390 Z-0.7500 F1080.00
G1 X105.9662 Y123.0000 Z-0.7500 F1080.00
G1 X105.8442 Y123.0000 Z-0.7500 F1080.00
G1 X89.8442 Y139.0000 Z-0.7500 F1080.00
G1 X81.7831 Y139.0000 Z-0.7500 F1080.00
G1 X97.7831 Y123.0000 Z-0.7500 F1080.00
G1 X89.7221 Y123.0000 Z-0.7500 F1080.00
G1 X73.7221 Y139.0000 Z-0.7500 F1080.00
G1 X65.6611 Y139.0000 Z-0.7500 F1080.00
G1 X81.6611 Y123.0000 Z-0.7500 F1080.00
G1 X73.6001 Y123.0000 Z-0.7500 F1080.00
G1 X57.6001 Y139.0000 Z-0.7500 F1080.00
G1 X53.9662 Y139.0000 Z-0.7500 F1080.00
G1 X53.9662 Y134.5729 Z-0.7500 F1080.00
G1 X65.5391 Y123.0000 Z-0.7500 F1080.00
G1 X57.4781 Y123.0000 Z-0.7500 F1080.00
G1 X53.9662 Y126.5119 Z-0.7500 F1080.00
G1 X53.9662 Y123.0000 Z-0.7500 F1080.00
G1 X57.4781 Y123.0000 Z-0.7500 F1080.00
G1 X57.4781 Y123.0000 Z-1.5000 F1080.00
G1 X53.9662 Y123.0000 Z-1.5000 F1080.00
G1 X53.9662 Y126.5119 Z-1.5000 F1080.00
G1 X57.4781 Y123.0000 Z-1.5000 F1080.00
G1 X65.5391 Y123.0000 Z-1.5000 F1080.00
G1 X53.9662 Y134.5729 Z-1.5000 F1080.00
G1 X53.9662 Y139.0000 Z-1.5000 F1080.00
G1 X57.6001 Y139.0000 Z-1.5000 F1080.00
G1 X73.6001 Y123.0000 Z-1.5000 F1080.00
G1 X81.6611 Y123.0000 Z-1.5000 F1080.00
G1 X65.6611 Y139.0000 Z-1.5000 F1080.00
G1 X73.7221 Y139.0000 Z-1.5000 F1080.00
G1 X89.7221 Y123.0000 Z-1.5000 F1080.00
G1 X97.7831 Y123.0000 Z-1.5000 F1080.00
G1 X81.7831 Y139.0000 Z-1.5000 F1080.00
G1 X89.8442 Y139.0000 Z-1.5000 F1080.00
G1 X105.8442 Y123.0000 Z-1.5000 F1080.00
G1 X105.9662 Y123.0000 Z-1.5000 F1080.00
G1 X105.9662 Y130.9390 Z-1.5000 F1080.00
G1 X97.9052 Y139.0000 Z-1.5000 F1080.00
G1 X105.9662 Y139.0000 Z-1.5000 F1080.00
G1 X105.9662 Y139.0000 Z-1.5000 F1080.00
G1 X105.9662 Y123.0000 Z-1.5000 F1080.00
G1 X53.9662 Y123.0000 Z-1.5000 F1080.00
G1 X53.9662 Y139.0000 Z-1.5000 F1080.00
G1 X105.9662 Y139.0000 Z-1.5000 F1080.00
G1 X105.9662 Y139.0000 Z-2.2500 F1080.00
G1 X105.9662 Y123.0000 Z-2.2500 F1080.00
G1 X53.9662 Y123.0000 Z-2.2500 F1080.00
G1 X53.9662 Y139.0000 Z-2.2500 F1080.00
G1 X105.9662 Y139.0000 Z-2.2500 F1080.00
G1 X105.9662 Y139.0000 Z-2.2500 F1080.00
G1 X97.9052 Y139.0000 Z-2.2500 F1080.00
G1 X105.9662 Y130.9390 Z-2.2500 F1080.00
G1 X105.9662 Y123.0000 Z-2.2500 F1080.00
G1 X105.8442 Y123.0000 Z-2.2500 F1080.00
G1 X89.8442 Y139.0000 Z-2.2500 F1080.00
G1 X81.7831 Y139.0000 Z-2.2500 F1080.00
G1 X97.7831 Y123.0000 Z-2.2500 F1080.00
G1 X89.7221 Y123.0000 Z-2.2500 F1080.00
G1 X73.7221 Y139.0000 Z-2.2500 F1080.00
G1 X65.6611 Y139.0000 Z-2.2500 F1080.00
G1 X81.6611 Y123.0000 Z-2.2500 F1080.00
G1 X73.6001 Y123.0000 Z-2.2500 F1080.00
G1 X57.6001 Y139.0000 Z-2.2500 F1080.00
G1 X53.9662 Y139.0000 Z-2.2500 F1080.00
G1 X53.9662 Y134.5729 Z-2.2500 F1080.00
G1 X65.5391 Y123.0000 Z-2.2500 F1080.00
G1 X57.4781 Y123.0000 Z-2.2500 F1080.00
G1 X53.9662 Y126.5119 Z-2.2500 F1080.00
G1 X53.9662 Y123.0000 Z-2.2500 F1080.00
G1 X57.4781 Y123.0000 Z-2.2500 F1080.00
G1 X57.4781 Y123.0000 Z-3.0000 F1080.00
G1 X53.9662 Y123.0000 Z-3.0000 F1080.00
G1 X53.9662 Y126.5119 Z-3.0000 F1080.00
G1 X57.4781 Y123.0000 Z-3.0000 F1080.00
G1 X65.5391 Y123.0000 Z-3.0000 F1080.00
G1 X53.9662 Y134.5729 Z-3.0000 F1080.00
G1 X53.9662 Y139.0000 Z-3.0000 F1080.00
G1 X57.6001 Y139.0000 Z-3.0000 F1080.00
G1 X73.6001 Y123.0000 Z-3.0000 F1080.00
G1 X81.6611 Y123.0000 Z-3.0000 F1080.00
G1 X65.6611 Y139.0000 Z-3.0000 F1080.00
G1 X73.7221 Y139.0000 Z-3.0000 F1080.00
G1 X89.7221 Y123.0000 Z-3.0000 F1080.00
G1 X97.7831 Y123.0000 Z-3.0000 F1080.00
G1 X81.7831 Y139.0000 Z-3.0000 F1080.00
G1 X89.8442 Y139.0000 Z-3.0000 F1080.00
G1 X105.8442 Y123.0000 Z-3.0000 F1080.00
G1 X105.9662 Y123.0000 Z-3.0000 F1080.00
G1 X105.9662 Y130.9390 Z-3.0000 F1080.00
G1 X97.9052 Y139.0000 Z-3.0000 F1080.00
G1 X105.9662 Y139.0000 Z-3.0000 F1080.00
G1 X105.9662 Y139.0000 Z-3.0000 F1080.00
G1 X105.9662 Y123.0000 Z-3.0000 F1080.00
G1 X53.9662 Y123.0000 Z-3.0000 F1080.00
G1 X53.9662 Y139.0000 Z-3.0000 F1080.00
G1 X105.9662 Y139.0000 Z-3.0000 F1080.00
G1 X105.9662 Y139.0000 Z-3.7500 F1080.00
G1 X105.9662 Y123.0000 Z-3.7500 F1080.00
G1 X53.9662 Y123.0000 Z-3.7500 F1080.00
G1 X53.9662 Y139.0000 Z-3.7500 F1080.00
G1 X105.9662 Y139.0000 Z-3.7500 F1080.00
G1 X105.9662 Y139.0000 Z-3.7500 F1080.00
G1 X97.9052 Y139.0000 Z-3.7500 F1080.00
G1 X105.9662 Y130.9390 Z-3.7500 F1080.00
G1 X105.9662 Y123.0000 Z-3.7500 F1080.00
G1 X105.8442 Y123.0000 Z-3.7500 F1080.00
G1 X89.8442 Y139.0000 Z-3.7500 F1080.00
G1 X81.7831 Y139.0000 Z-3.7500 F1080.00
G1 X97.7831 Y123.0000 Z-3.7500 F1080.00
G1 X89.7221 Y123.0000 Z-3.7500 F1080.00
G1 X73.7221 Y139.0000 Z-3.7500 F1080.00
G1 X65.6611 Y139.0000 Z-3.7500 F1080.00
G1 X81.6611 Y123.0000 Z-3.7500 F1080.00
G1 X73.6001 Y123.0000 Z-3.7500 F1080.00
G1 X57.6001 Y139.0000 Z-3.7500 F1080.00
G1 X53.9662 Y139.0000 Z-3.7500 F1080.00
G1 X53.9662 Y134.5729 Z-3.7500 F1080.00
G1 X65.5391 Y123.0000 Z-3.7500 F1080.00
G1 X57.4781 Y123.0000 Z-3.7500 F1080.00
G1 X53.9662 Y126.5119 Z-3.7500 F1080.00
G1 X53.9662 Y123.0000 Z-3.7500 F1080.00
G1 X57.4781 Y123.0000 Z-3.7500 F1080.00
G1 X57.4781 Y123.0000 Z-4.5000 F1080.00
G1 X53.9662 Y123.0000 Z-4.5000 F1080.00
G1 X53.9662 Y139.0000 Z-4.5000 F1080.00
G1 X105.9662 Y139.0000 Z-4.5000 F1080.00
G1 X105.9662 Y123.0000 Z-4.5000 F1080.00
G1 X57.4781 Y123.0000 Z-4.5000 F1080.00
G1 X57.4781 Y123.0000 Z-4.5000 F1080.00
G1 X53.9662 Y123.0000 Z-4.5000 F1080.00
G1 X53.9662 Y126.5119 Z-4.5000 F1080.00
G1 X57.4781 Y123.0000 Z-4.5000 F1080.00
G1 X65.5391 Y123.0000 Z-4.5000 F1080.00
G1 X53.9662 Y134.5729 Z-4.5000 F1080.00
G1 X53.9662 Y139.0000 Z-4.5000 F1080.00
G1 X57.6001 Y139.0000 Z-4.5000 F1080.00
G1 X73.6001 Y123.0000 Z-4.5000 F1080.00
G1 X81.6611 Y123.0000 Z-4.5000 F1080.00
G1 X65.6611 Y139.0000 Z-4.5000 F1080.00
G1 X73.7221 Y139.0000 Z-4.5000 F1080.00
G1 X89.7221 Y123.0000 Z-4.5000 F1080.00
G1 X97.7831 Y123.0000 Z-4.5000 F1080.00
G1 X81.7831 Y139.0000 Z-4.5000 F1080.00
G1 X89.8442 Y139.0000 Z-4.5000 F1080.00
G1 X105.8442 Y123.0000 Z-4.5000 F1080.00
G1 X105.9662 Y123.0000 Z-4.5000 F1080.00
G1 X105.9662 Y130.9390 Z-4.5000 F1080.00
G1 X97.9052 Y139.0000 Z-4.5000 F1080.00
G1 X105.9662 Y139.0000 Z-4.5000 F1080.00
G1 X105.9662 Y139.0000 Z-5.2500 F1080.00
G1 X105.9662 Y123.0000 Z-5.2500 F1080.00
G1 X53.9662 Y123.0000 Z-5.2500 F1080.00
G1 X53.9662 Y139.0000 Z-5.2500 F1080.00
G1 X105.9662 Y139.0000 Z-5.2500 F1080.00
G1 X105.9662 Y139.0000 Z-5.2500 F1080.00
G1 X97.9052 Y139.0000 Z-5.2500 F1080.00
G1 X105.9662 Y130.9390 Z-5.2500 F1080.00
G1 X105.9662 Y123.0000 Z-5.2500 F1080.00
G1 X105.8442 Y123.0000 Z-5.2500 F1080.00
G1 X89.8442 Y139.0000 Z-5.2500 F1080.00
G1 X81.7831 Y139.0000 Z-5.2500 F1080.00
G1 X97.7831 Y123.0000 Z-5.2500 F1080.00
G1 X89.7221 Y123.0000 Z-5.2500 F1080.00
G1 X73.7221 Y139.0000 Z-5.2500 F1080.00
G1 X65.6611 Y139.0000 Z-5.2500 F1080.00
G1 X81.6611 Y123.0000 Z-5.2500 F1080.00
G1 X73.6001 Y123.0000 Z-5.2500 F1080.00
G1 X57.6001 Y139.0000 Z-5.2500 F1080.00
G1 X53.9662 Y139.0000 Z-5.2500 F1080.00
G1 X53.9662 Y134.5729 Z-5.2500 F1080.00
G1 X65.5391 Y123.0000 Z-5.2500 F1080.00
G1 X57.4781 Y123.0000 Z-5.2500 F1080.00
G1 X53.9662 Y126.5119 Z-5.2500 F1080.00
G1 X53.9662 Y123.0000 Z-5.2500 F1080.00
G1 X57.4781 Y123.0000 Z-5.2500 F1080.00
G1 X57.4781 Y123.0000 Z-6.0000 F1080.00
G1 X53.9662 Y123.0000 Z-6.0000 F1080.00
G1 X53.9662 Y126.5119 Z-6.0000 F1080.00
G1 X57.4781 Y123.0000 Z-6.0000 F1080.00
G1 X65.5391 Y123.0000 Z-6.0000 F1080.00
G1 X53.9662 Y134.5729 Z-6.0000 F1080.00
G1 X53.9662 Y139.0000 Z-6.0000 F1080.00
G1 X57.6001 Y139.0000 Z-6.0000 F1080.00
G1 X73.6001 Y123.0000 Z-6.0000 F1080.00
G1 X81.6611 Y123.0000 Z-6.0000 F1080.00
G1 X65.6611 Y139.0000 Z-6.0000 F1080.00
G1 X73.7221 Y139.0000 Z-6.0000 F1080.00
G1 X89.7221 Y123.0000 Z-6.0000 F1080.00
G1 X97.7831 Y123.0000 Z-6.0000 F1080.00
G1 X81.7831 Y139.0000 Z-6.0000 F1080.00
G1 X89.8442 Y139.0000 Z-6.0000 F1080.00
G1 X105.8442 Y123.0000 Z-6.0000 F1080.00
G1 X105.9662 Y123.0000 Z-6.0000 F1080.00
G1 X105.9662 Y130.9390 Z-6.0000 F1080.00
G1 X97.9052 Y139.0000 Z-6.0000 F1080.00
G1 X105.9662 Y139.0000 Z-6.0000 F1080.00
G1 X105.9662 Y139.0000 Z-6.0000 F1080.00
G1 X105.9662 Y123.0000 Z-6.0000 F1080.00
G1 X53.9662 Y123.0000 Z-6.0000 F1080.00
G1 X53.9662 Y139.0000 Z-6.0000 F1080.00
G1 X105.9662 Y139.0000 Z-6.0000 F1080.00
G1 X105.9662 Y139.0000 Z-6.7500 F1080.00
G1 X105.9662 Y123.0000 Z-6.7500 F1080.00
G1 X53.9662 Y123.0000 Z-6.7500 F1080.00
G1 X53.9662 Y139.0000 Z-6.7500 F1080.00
G1 X105.9662 Y139.0000 Z-6.7500 F1080.00
G1 X105.9662 Y139.0000 Z-6.7500 F1080.00
G1 X97.9052 Y139.0000 Z-6.7500 F1080.00
G1 X105.9662 Y130.9390 Z-6.7500 F1080.00
G1 X105.9662 Y123.0000 Z-6.7500 F1080.00
G1 X105.8442 Y123.0000 Z-6.7500 F1080.00
G1 X89.8442 Y139.0000 Z-6.7500 F1080.00
G1 X81.7831 Y139.0000 Z-6.7500 F1080.00
G1 X97.7831 Y123.0000 Z-6.7500 F1080.00
G1 X89.7221 Y123.0000 Z-6.7500 F1080.00
G1 X73.7221 Y139.0000 Z-6.7500 F1080.00
G1 X65.6611 Y139.0000 Z-6.7500 F1080.00
G1 X81.6611 Y123.0000 Z-6.7500 F1080.00
G1 X73.6001 Y123.0000 Z-6.7500 F1080.00
G1 X57.6001 Y139.0000 Z-6.7500 F1080.00
G1 X53.9662 Y139.0000 Z-6.7500 F1080.00
G1 X53.9662 Y134.5729 Z-6.7500 F1080.00
G1 X65.5391 Y123.0000 Z-6.7500 F1080.00
G1 X57.4781 Y123.0000 Z-6.7500 F1080.00
G1 X53.9662 Y126.5119 Z-6.7500 F1080.00
G1 X53.9662 Y123.0000 Z-6.7500 F1080.00
G1 X57.4781 Y123.0000 Z-6.7500 F1080.00
G1 X57.4781 Y123.0000 Z-7.5000 F1080.00
G1 X53.9662 Y123.0000 Z-7.5000 F1080.00
G1 X53.9662 Y139.0000 Z-7.5000 F1080.00
G1 X105.9662 Y139.0000 Z-7.5000 F1080.00
G1 X105.9662 Y123.0000 Z-7.5000 F1080.00
G1 X57.4781 Y123.0000 Z-7.5000 F1080.00
G1 X57.4781 Y123.0000 Z-7.5000 F1080.00
G1 X53.9662 Y123.0000 Z-7.5000 F1080.00
G1 X53.9662 Y126.5119 Z-7.5000 F1080.00
G1 X57.4781 Y123.0000 Z-7.5000 F1080.00
G1 X65.5391 Y123.0000 Z-7.5000 F1080.00
G1 X53.9662 Y134.5729 Z-7.5000 F1080.00
G1 X53.9662 Y139.0000 Z-7.5000 F1080.00
G1 X57.6001 Y139.0000 Z-7.5000 F1080.00
G1 X73.6001 Y123.0000 Z-7.5000 F1080.00
G1 X81.6611 Y123.0000 Z-7.5000 F1080.00
G1 X65.6611 Y139.0000 Z-7.5000 F1080.00
G1 X73.7221 Y139.0000 Z-7.5000 F1080.00
G1 X89.7221 Y123.0000 Z-7.5000 F1080.00
G1 X97.7831 Y123.0000 Z-7.5000 F1080.00
G1 X81.7831 Y139.0000 Z-7.5000 F1080.00
G1 X89.8442 Y139.0000 Z-7.5000 F1080.00
G1 X105.8442 Y123.0000 Z-7.5000 F1080.00
G1 X105.9662 Y123.0000 Z-7.5000 F1080.00
G1 X105.9662 Y130.9390 Z-7.5000 F1080.00
G1 X97.9052 Y139.0000 Z-7.5000 F1080.00
G1 X105.9662 Y139.0000 Z-7.5000 F1080.00
G1 X105.9662 Y139.0000 Z-8.2500 F1080.00
G1 X97.9052 Y139.0000 Z-8.2500 F1080.00
G1 X105.9662 Y130.9390 Z-8.2500 F1080.00
G1 X105.9662 Y123.0000 Z-8.2500 F1080.00
G1 X105.8442 Y123.0000 Z-8.2500 F1080.00
G1 X89.8442 Y139.0000 Z-8.2500 F1080.00
G1 X81.7831 Y139.0000 Z-8.2500 F1080.00
G1 X97.7831 Y123.0000 Z-8.2500 F1080.00
G1 X89.7221 Y123.0000 Z-8.2500 F1080.00
G1 X73.7221 Y139.0000 Z-8.2500 F1080.00
G1 X65.6611 Y139.0000 Z-8.2500 F1080.00
G1 X81.6611 Y123.0000 Z-8.2500 F1080.00
G1 X73.6001 Y123.0000 Z-8.2500 F1080.00
G1 X57.6001 Y139.0000 Z-8.2500 F1080.00
G1 X53.9662 Y139.0000 Z-8.2500 F1080.00
G1 X53.9662 Y134.5729 Z-8.2500 F1080.00
G1 X65.5391 Y123.0000 Z-8.2500 F1080.00
G1 X57.4781 Y123.0000 Z-8.2500 F1080.00
G1 X53.9662 Y126.5119 Z-8.2500 F1080.00
G1 X53.9662 Y123.0000 Z-8.2500 F1080.00
G1 X57.4781 Y123.0000 Z-8.2500 F1080.00
G1 X57.4781 Y123.0000 Z-8.2500 F1080.00
G1 X53.9662 Y123.0000 Z-8.2500 F1080.00
G1 X53.9662 Y139.0000 Z-8.2500 F1080.00
G1 X105.9662 Y139.0000 Z-8.2500 F1080.00
G1 X105.9662 Y123.0000 Z-8.2500 F1080.00
G1 X57.4781 Y123.0000 Z-8.2500 F1080.00
G1 X57.4781 Y123.0000 Z-9.0000 F1080.00
G1 X53.9662 Y123.0000 Z-9.0000 F1080.00
G1 X53.9662 Y126.5119 Z-9.0000 F1080.00
G1 X57.4781 Y123.0000 Z-9.0000 F1080.00
G1 X65.5391 Y123.0000 Z-9.0000 F1080.00
G1 X53.9662 Y134.5729 Z-9.0000 F1080.00
G1 X53.9662 Y139.0000 Z-9.0000 F1080.00
G1 X57.6001 Y139.0000 Z-9.0000 F1080.00
G1 X73.6001 Y123.0000 Z-9.0000 F1080.00
G1 X81.6611 Y123.0000 Z-9.0000 F1080.00
G1 X65.6611 Y139.0000 Z-9.0000 F1080.00
G1 X73.7221 Y139.0000 Z-9.0000 F1080.00
G1 X89.7221 Y123.0000 Z-9.0000 F1080.00
G1 X97.7831 Y123.0000 Z-9.0000 F1080.00
G1 X81.7831 Y139.0000 Z-9.0000 F1080.00
G1 X89.8442 Y139.0000 Z-9.0000 F1080.00
G1 X105.8442 Y123.0000 Z-9.0000 F1080.00
G1 X105.9662 Y123.0000 Z-9.0000 F1080.00
G1 X105.9662 Y130.9390 Z-9.0000 F1080.00
G1 X97.9052 Y139.0000 Z-9.0000 F1080.00
G1 X105.9662 Y139.0000 Z-9.0000 F1080.00
G1 X105.9662 Y139.0000 Z-9.0000 F1080.00
G1 X105.9662 Y123.0000 Z-9.0000 F1080.00
G1 X53.9662 Y123.0000 Z-9.0000 F1080.00
G1 X53.9662 Y139.0000 Z-9.0000 F1080.00
G1 X105.9662 Y139.0000 Z-9.0000 F1080.00
G1 X105.9662 Y139.0000 Z-9.7500 F1080.00
G1 X105.9662 Y123.0000 Z-9.7500 F1080.00
G1 X53.9662 Y123.0000 Z-9.7500 F1080.00
G1 X53.9662 Y139.0000 Z-9.7500 F1080.00
G1 X105.9662 Y139.0000 Z-9.7500 F1080.00
G1 X105.9662 Y139.0000 Z-9.7500 F1080.00
G1 X97.9052 Y139.0000 Z-9.7500 F1080.00
G1 X105.9662 Y130.9390 Z-9.7500 F1080.00
G1 X105.9662 Y123.0000 Z-9.7500 F1080.00
G1 X105.8442 Y123.0000 Z-9.7500 F1080.00
G1 X89.8442 Y139.0000 Z-9.7500 F1080.00
G1 X81.7831 Y139.0000 Z-9.7500 F1080.00
G1 X97.7831 Y123.0000 Z-9.7500 F1080.00
G1 X89.7221 Y123.0000 Z-9.7500 F1080.00
G1 X73.7221 Y139.0000 Z-9.7500 F1080.00
G1 X65.6611 Y139.0000 Z-9.7500 F1080.00
G1 X81.6611 Y123.0000 Z-9.7500 F1080.00
G1 X73.6001 Y123.0000 Z-9.7500 F1080.00
G1 X57.6001 Y139.0000 Z-9.7500 F1080.00
G1 X53.9662 Y139.0000 Z-9.7500 F1080.00
G1 X53.9662 Y134.5729 Z-9.7500 F1080.00
G1 X65.5391 Y123.0000 Z-9.7500 F1080.00
G1 X57.4781 Y123.0000 Z-9.7500 F1080.00
G1 X53.9662 Y126.5119 Z-9.7500 F1080.00
G1 X53.9662 Y123.0000 Z-9.7500 F1080.00
G1 X57.4781 Y123.0000 Z-9.7500 F1080.00
G1 X57.4781 Y123.0000 Z-10.5000 F1080.00
G1 X53.9662 Y123.0000 Z-10.5000 F1080.00
G1 X53.9662 Y126.5119 Z-10.5000 F1080.00
G1 X57.4781 Y123.0000 Z-10.5000 F1080.00
G1 X65.5391 Y123.0000 Z-10.5000 F1080.00
G1 X53.9662 Y134.5729 Z-10.5000 F1080.00
G1 X53.9662 Y139.0000 Z-10.5000 F1080.00
G1 X57.6001 Y139.0000 Z-10.5000 F1080.00
G1 X73.6001 Y123.0000 Z-10.5000 F1080.00
G1 X81.6611 Y123.0000 Z-10.5000 F1080.00
G1 X65.6611 Y139.0000 Z-10.5000 F1080.00
G1 X73.7221 Y139.0000 Z-10.5000 F1080.00
G1 X89.7221 Y123.0000 Z-10.5000 F1080.00
G1 X97.7831 Y123.0000 Z-10.5000 F1080.00
G1 X81.7831 Y139.0000 Z-10.5000 F1080.00
G1 X89.8442 Y139.0000 Z-10.5000 F1080.00
G1 X105.8442 Y123.0000 Z-10.5000 F1080.00
G1 X105.9662 Y123.0000 Z-10.5000 F1080.00
G1 X105.9662 Y130.9390 Z-10.5000 F1080.00
G1 X97.9052 Y139.0000 Z-10.5000 F1080.00
G1 X105.9662 Y139.0000 Z-10.5000 F1080.00
G1 X105.9662 Y139.0000 Z-10.5000 F1080.00
G1 X105.9662 Y123.0000 Z-10.5000 F1080.00
G1 X53.9662 Y123.0000 Z-10.5000 F1080.00
G1 X53.9662 Y139.0000 Z-10.5000 F1080.00
G1 X105.9662 Y139.0000 Z-10.5000 F1080.00
G1 X105.9662 Y139.0000 Z-11.2500 F1080.00
G1 X105.9662 Y123.0000 Z-11.2500 F1080.00
G1 X53.9662 Y123.0000 Z-11.2500 F1080.00
G1 X53.9662 Y139.0000 Z-11.2500 F1080.00
G1 X105.9662 Y139.0000 Z-11.2500 F1080.00
G1 X105.9662 Y139.0000 Z-11.2500 F1080.00
G1 X97.9052 Y139.0000 Z-11.2500 F1080.00
G1 X105.9662 Y130.9390 Z-11.2500 F1080.00
G1 X105.9662 Y123.0000 Z-11.2500 F1080.00
G1 X105.8442 Y123.0000 Z-11.2500 F1080.00
G1 X89.8442 Y139.0000 Z-11.2500 F1080.00
G1 X81.7831 Y139.0000 Z-11.2500 F1080.00
G1 X97.7831 Y123.0000 Z-11.2500 F1080.00
G1 X89.7221 Y123.0000 Z-11.2500 F1080.00
G1 X73.7221 Y139.0000 Z-11.2500 F1080.00
G1 X65.6611 Y139.0000 Z-11.2500 F1080.00
G1 X81.6611 Y123.0000 Z-11.2500 F1080.00
G1 X73.6001 Y123.0000 Z-11.2500 F1080.00
G1 X57.6001 Y139.0000 Z-11.2500 F1080.00
G1 X53.9662 Y139.0000 Z-11.2500 F1080.00
G1 X53.9662 Y134.5729 Z-11.2500 F1080.00
G1 X65.5391 Y123.0000 Z-11.2500 F1080.00
G1 X57.4781 Y123.0000 Z-11.2500 F1080.00
G1 X53.9662 Y126.5119 Z-11.2500 F1080.00
G1 X53.9662 Y123.0000 Z-11.2500 F1080.00
G1 X57.4781 Y123.0000 Z-11.2500 F1080.00
G1 X57.4781 Y123.0000 Z-12.0000 F1080.00
G1 X53.9662 Y123.0000 Z-12.0000 F1080.00
G1 X53.9662 Y126.5119 Z-12.0000 F1080.00
G1 X57.4781 Y123.0000 Z-12.0000 F1080.00
G1 X65.5391 Y123.0000 Z-12.0000 F1080.00
G1 X53.9662 Y134.5729 Z-12.0000 F1080.00
G1 X53.9662 Y139.0000 Z-12.0000 F1080.00
G1 X57.6001 Y139.0000 Z-12.0000 F1080.00
G1 X73.6001 Y123.0000 Z-12.0000 F1080.00
G1 X81.6611 Y123.0000 Z-12.0000 F1080.00
G1 X65.6611 Y139.0000 Z-12.0000 F1080.00
G1 X73.7221 Y139.0000 Z-12.0000 F1080.00
G1 X89.7221 Y123.0000 Z-12.0000 F1080.00
G1 X97.7831 Y123.0000 Z-12.0000 F1080.00
G1 X81.7831 Y139.0000 Z-12.0000 F1080.00
G1 X89.8442 Y139.0000 Z-12.0000 F1080.00
G1 X105.8442 Y123.0000 Z-12.0000 F1080.00
G1 X105.9662 Y123.0000 Z-12.0000 F1080.00
G1 X105.9662 Y130.9390 Z-12.0000 F1080.00
G1 X97.9052 Y139.0000 Z-12.0000 F1080.00
G1 X105.9662 Y139.0000 Z-12.0000 F1080.00
G1 X105.9662 Y139.0000 Z-12.0000 F1080.00
G1 X105.9662 Y123.0000 Z-12.0000 F1080.00
G1 X53.9662 Y123.0000 Z-12.0000 F1080.00
G1 X53.9662 Y139.0000 Z-12.0000 F1080.00
G1 X105.9662 Y139.0000 Z-12.0000 F1080.00
G0 Z5.0000
(finish operation: Pocket_Shape007)
(begin operation: Pocket_Shape008)
(Path: Pocket_Shape008)
(Pocket_Shape008)
G0 Z5.0000
G0 X96.9662 Y133.0000
G0 Z3.0000
G1 X96.9662 Y133.0000 Z-0.7500 F1080.00
G1 X96.9662 Y124.0000 Z-0.7500 F1080.00
G1 X87.9662 Y124.0000 Z-0.7500 F1080.00
G1 X87.9662 Y133.0000 Z-0.7500 F1080.00
G1 X96.9662 Y133.0000 Z-0.7500 F1080.00
G1 X96.9662 Y133.0000 Z-0.7500 F1080.00
G1 X88.9052 Y133.0000 Z-0.7500 F1080.00
G1 X96.9662 Y124.9390 Z-0.7500 F1080.00
G1 X96.9662 Y124.0000 Z-0.7500 F1080.00
G1 X89.8442 Y124.0000 Z-0.7500 F1080.00
G1 X87.9662 Y124.0000 Z-0.7500 F1080.00
G1 X87.9662 Y125.8780 Z-0.7500 F1080.00
G1 X89.8442 Y124.0000 Z-0.7500 F1080.00
G1 X89.8442 Y124.0000 Z-1.5000 F1080.00
G1 X87.9662 Y125.8780 Z-1.5000 F1080.00
G1 X87.9662 Y124.0000 Z-1.5000 F1080.00
G1 X89.8442 Y124.0000 Z-1.5000 F1080.00
G1 X96.9662 Y124.0000 Z-1.5000 F1080.00
G1 X96.9662 Y124.9390 Z-1.5000 F1080.00
G1 X88.9052 Y133.0000 Z-1.5000 F1080.00
G1 X96.9662 Y133.0000 Z-1.5000 F1080.00
G1 X96.9662 Y133.0000 Z-1.5000 F1080.00
G1 X96.9662 Y124.0000 Z-1.5000 F1080.00
G1 X87.9662 Y124.0000 Z-1.5000 F1080.00
G1 X87.9662 Y133.0000 Z-1.5000 F1080.00
G1 X96.9662 Y133.0000 Z-1.5000 F1080.00
G1 X96.9662 Y133.0000 Z-2.2500 F1080.00
G1 X96.9662 Y124.0000 Z-2.2500 F1080.00
G1 X87.9662 Y124.0000 Z-2.2500 F1080.00
G1 X87.9662 Y133.0000 Z-2.2500 F1080.00
G1 X96.9662 Y133.0000 Z-2.2500 F1080.00
G1 X96.9662 Y133.0000 Z-2.2500 F1080.00
G1 X88.9052 Y133.0000 Z-2.2500 F1080.00
G1 X96.9662 Y124.9390 Z-2.2500 F1080.00
G1 X96.9662 Y124.0000 Z-2.2500 F1080.00
G1 X89.8442 Y124.0000 Z-2.2500 F1080.00
G1 X87.9662 Y124.0000 Z-2.2500 F1080.00
G1 X87.9662 Y125.8780 Z-2.2500 F1080.00
G1 X89.8442 Y124.0000 Z-2.2500 F1080.00
G1 X89.8442 Y124.0000 Z-3.0000 F1080.00
G1 X87.9662 Y125.8780 Z-3.0000 F1080.00
G1 X87.9662 Y124.0000 Z-3.0000 F1080.00
G1 X89.8442 Y124.0000 Z-3.0000 F1080.00
G1 X96.9662 Y124.0000 Z-3.0000 F1080.00
G1 X96.9662 Y124.9390 Z-3.0000 F1080.00
G1 X88.9052 Y133.0000 Z-3.0000 F1080.00
G1 X96.9662 Y133.0000 Z-3.0000 F1080.00
G1 X96.9662 Y133.0000 Z-3.0000 F1080.00
G1 X96.9662 Y124.0000 Z-3.0000 F1080.00
G1 X87.9662 Y124.0000 Z-3.0000 F1080.00
G1 X87.9662 Y133.0000 Z-3.0000 F1080.00
G1 X96.9662 Y133.0000 Z-3.0000 F1080.00
G1 X96.9662 Y133.0000 Z-3.7500 F1080.00
G1 X96.9662 Y124.0000 Z-3.7500 F1080.00
G1 X87.9662 Y124.0000 Z-3.7500 F1080.00
G1 X87.9662 Y133.0000 Z-3.7500 F1080.00
G1 X96.9662 Y133.0000 Z-3.7500 F1080.00
G1 X96.9662 Y133.0000 Z-3.7500 F1080.00
G1 X88.9052 Y133.0000 Z-3.7500 F1080.00
G1 X96.9662 Y124.9390 Z-3.7500 F1080.00
G1 X96.9662 Y124.0000 Z-3.7500 F1080.00
G1 X89.8442 Y124.0000 Z-3.7500 F1080.00
G1 X87.9662 Y124.0000 Z-3.7500 F1080.00
G1 X87.9662 Y125.8780 Z-3.7500 F1080.00
G1 X89.8442 Y124.0000 Z-3.7500 F1080.00
G1 X89.8442 Y124.0000 Z-4.5000 F1080.00
G1 X87.9662 Y125.8780 Z-4.5000 F1080.00
G1 X87.9662 Y124.0000 Z-4.5000 F1080.00
G1 X89.8442 Y124.0000 Z-4.5000 F1080.00
G1 X96.9662 Y124.0000 Z-4.5000 F1080.00
G1 X96.9662 Y124.9390 Z-4.5000 F1080.00
G1 X88.9052 Y133.0000 Z-4.5000 F1080.00
G1 X96.9662 Y133.0000 Z-4.5000 F1080.00
G1 X96.9662 Y133.0000 Z-4.5000 F1080.00
G1 X96.9662 Y124.0000 Z-4.5000 F1080.00
G1 X87.9662 Y124.0000 Z-4.5000 F1080.00
G1 X87.9662 Y133.0000 Z-4.5000 F1080.00
G1 X96.9662 Y133.0000 Z-4.5000 F1080.00
G1 X96.9662 Y133.0000 Z-5.2500 F1080.00
G1 X96.9662 Y124.0000 Z-5.2500 F1080.00
G1 X87.9662 Y124.0000 Z-5.2500 F1080.00
G1 X87.9662 Y133.0000 Z-5.2500 F1080.00
G1 X96.9662 Y133.0000 Z-5.2500 F1080.00
G1 X96.9662 Y133.0000 Z-5.2500 F1080.00
G1 X88.9052 Y133.0000 Z-5.2500 F1080.00
G1 X96.9662 Y124.9390 Z-5.2500 F1080.00
G1 X96.9662 Y124.0000 Z-5.2500 F1080.00
G1 X89.8442 Y124.0000 Z-5.2500 F1080.00
G1 X87.9662 Y124.0000 Z-5.2500 F1080.00
G1 X87.9662 Y125.8780 Z-5.2500 F1080.00
G1 X89.8442 Y124.0000 Z-5.2500 F1080.00
G1 X89.8442 Y124.0000 Z-6.0000 F1080.00
G1 X87.9662 Y125.8780 Z-6.0000 F1080.00
G1 X87.9662 Y124.0000 Z-6.0000 F1080.00
G1 X89.8442 Y124.0000 Z-6.0000 F1080.00
G1 X96.9662 Y124.0000 Z-6.0000 F1080.00
G1 X96.9662 Y124.9390 Z-6.0000 F1080.00
G1 X88.9052 Y133.0000 Z-6.0000 F1080.00
G1 X96.9662 Y133.0000 Z-6.0000 F1080.00
G1 X96.9662 Y133.0000 Z-6.0000 F1080.00
G1 X96.9662 Y124.0000 Z-6.0000 F1080.00
G1 X87.9662 Y124.0000 Z-6.0000 F1080.00
G1 X87.9662 Y133.0000 Z-6.0000 F1080.00
G1 X96.9662 Y133.0000 Z-6.0000 F1080.00
G1 X96.9662 Y133.0000 Z-6.7500 F1080.00
G1 X96.9662 Y124.0000 Z-6.7500 F1080.00
G1 X87.9662 Y124.0000 Z-6.7500 F1080.00
G1 X87.9662 Y133.0000 Z-6.7500 F1080.00
G1 X96.9662 Y133.0000 Z-6.7500 F1080.00
G1 X96.9662 Y133.0000 Z-6.7500 F1080.00
G1 X88.9052 Y133.0000 Z-6.7500 F1080.00
G1 X96.9662 Y124.9390 Z-6.7500 F1080.00
G1 X96.9662 Y124.0000 Z-6.7500 F1080.00
G1 X89.8442 Y124.0000 Z-6.7500 F1080.00
G1 X87.9662 Y124.0000 Z-6.7500 F1080.00
G1 X87.9662 Y125.8780 Z-6.7500 F1080.00
G1 X89.8442 Y124.0000 Z-6.7500 F1080.00
G1 X89.8442 Y124.0000 Z-7.5000 F1080.00
G1 X87.9662 Y125.8780 Z-7.5000 F1080.00
G1 X87.9662 Y124.0000 Z-7.5000 F1080.00
G1 X89.8442 Y124.0000 Z-7.5000 F1080.00
G1 X96.9662 Y124.0000 Z-7.5000 F1080.00
G1 X96.9662 Y124.9390 Z-7.5000 F1080.00
G1 X88.9052 Y133.0000 Z-7.5000 F1080.00
G1 X96.9662 Y133.0000 Z-7.5000 F1080.00
G1 X96.9662 Y133.0000 Z-7.5000 F1080.00
G1 X96.9662 Y124.0000 Z-7.5000 F1080.00
G1 X87.9662 Y124.0000 Z-7.5000 F1080.00
G1 X87.9662 Y133.0000 Z-7.5000 F1080.00
G1 X96.9662 Y133.0000 Z-7.5000 F1080.00
G1 X96.9662 Y133.0000 Z-8.2500 F1080.00
G1 X96.9662 Y124.0000 Z-8.2500 F1080.00
G1 X87.9662 Y124.0000 Z-8.2500 F1080.00
G1 X87.9662 Y133.0000 Z-8.2500 F1080.00
G1 X96.9662 Y133.0000 Z-8.2500 F1080.00
G1 X96.9662 Y133.0000 Z-8.2500 F1080.00
G1 X88.9052 Y133.0000 Z-8.2500 F1080.00
G1 X96.9662 Y124.9390 Z-8.2500 F1080.00
G1 X96.9662 Y124.0000 Z-8.2500 F1080.00
G1 X89.8442 Y124.0000 Z-8.2500 F1080.00
G1 X87.9662 Y124.0000 Z-8.2500 F1080.00
G1 X87.9662 Y125.8780 Z-8.2500 F1080.00
G1 X89.8442 Y124.0000 Z-8.2500 F1080.00
G1 X89.8442 Y124.0000 Z-9.0000 F1080.00
G1 X87.9662 Y125.8780 Z-9.0000 F1080.00
G1 X87.9662 Y124.0000 Z-9.0000 F1080.00
G1 X89.8442 Y124.0000 Z-9.0000 F1080.00
G1 X96.9662 Y124.0000 Z-9.0000 F1080.00
G1 X96.9662 Y124.9390 Z-9.0000 F1080.00
G1 X88.9052 Y133.0000 Z-9.0000 F1080.00
G1 X96.9662 Y133.0000 Z-9.0000 F1080.00
G1 X96.9662 Y133.0000 Z-9.0000 F1080.00
G1 X96.9662 Y124.0000 Z-9.0000 F1080.00
G1 X87.9662 Y124.0000 Z-9.0000 F1080.00
G1 X87.9662 Y133.0000 Z-9.0000 F1080.00
G1 X96.9662 Y133.0000 Z-9.0000 F1080.00
G1 X96.9662 Y133.0000 Z-9.7500 F1080.00
G1 X96.9662 Y124.0000 Z-9.7500 F1080.00
G1 X87.9662 Y124.0000 Z-9.7500 F1080.00
G1 X87.9662 Y133.0000 Z-9.7500 F1080.00
G1 X96.9662 Y133.0000 Z-9.7500 F1080.00
G1 X96.9662 Y133.0000 Z-9.7500 F1080.00
G1 X88.9052 Y133.0000 Z-9.7500 F1080.00
G1 X96.9662 Y124.9390 Z-9.7500 F1080.00
G1 X96.9662 Y124.0000 Z-9.7500 F1080.00
G1 X89.8442 Y124.0000 Z-9.7500 F1080.00
G1 X87.9662 Y124.0000 Z-9.7500 F1080.00
G1 X87.9662 Y125.8780 Z-9.7500 F1080.00
G1 X89.8442 Y124.0000 Z-9.7500 F1080.00
G1 X89.8442 Y124.0000 Z-10.5000 F1080.00
G1 X87.9662 Y125.8780 Z-10.5000 F1080.00
G1 X87.9662 Y124.0000 Z-10.5000 F1080.00
G1 X89.8442 Y124.0000 Z-10.5000 F1080.00
G1 X96.9662 Y124.0000 Z-10.5000 F1080.00
G1 X96.9662 Y124.9390 Z-10.5000 F1080.00
G1 X88.9052 Y133.0000 Z-10.5000 F1080.00
G1 X96.9662 Y133.0000 Z-10.5000 F1080.00
G1 X96.9662 Y133.0000 Z-10.5000 F1080.00
G1 X96.9662 Y124.0000 Z-10.5000 F1080.00
G1 X87.9662 Y124.0000 Z-10.5000 F1080.00
G1 X87.9662 Y133.0000 Z-10.5000 F1080.00
G1 X96.9662 Y133.0000 Z-10.5000 F1080.00
G1 X96.9662 Y133.0000 Z-11.2500 F1080.00
G1 X96.9662 Y124.0000 Z-11.2500 F1080.00
G1 X87.9662 Y124.0000 Z-11.2500 F1080.00
G1 X87.9662 Y133.0000 Z-11.2500 F1080.00
G1 X96.9662 Y133.0000 Z-11.2500 F1080.00
G1 X96.9662 Y133.0000 Z-11.2500 F1080.00
G1 X88.9052 Y133.0000 Z-11.2500 F1080.00
G1 X96.9662 Y124.9390 Z-11.2500 F1080.00
G1 X96.9662 Y124.0000 Z-11.2500 F1080.00
G1 X89.8442 Y124.0000 Z-11.2500 F1080.00
G1 X87.9662 Y124.0000 Z-11.2500 F1080.00
G1 X87.9662 Y125.8780 Z-11.2500 F1080.00
G1 X89.8442 Y124.0000 Z-11.2500 F1080.00
G1 X89.8442 Y124.0000 Z-12.0000 F1080.00
G1 X87.9662 Y125.8780 Z-12.0000 F1080.00
G1 X87.9662 Y124.0000 Z-12.0000 F1080.00
G1 X89.8442 Y124.0000 Z-12.0000 F1080.00
G1 X96.9662 Y124.0000 Z-12.0000 F1080.00
G1 X96.9662 Y124.9390 Z-12.0000 F1080.00
G1 X88.9052 Y133.0000 Z-12.0000 F1080.00
G1 X96.9662 Y133.0000 Z-12.0000 F1080.00
G1 X96.9662 Y133.0000 Z-12.0000 F1080.00
G1 X96.9662 Y124.0000 Z-12.0000 F1080.00
G1 X87.9662 Y124.0000 Z-12.0000 F1080.00
G1 X87.9662 Y133.0000 Z-12.0000 F1080.00
G1 X96.9662 Y133.0000 Z-12.0000 F1080.00
G1 X96.9662 Y133.0000 Z-12.7500 F1080.00
G1 X96.9662 Y124.0000 Z-12.7500 F1080.00
G1 X87.9662 Y124.0000 Z-12.7500 F1080.00
G1 X87.9662 Y133.0000 Z-12.7500 F1080.00
G1 X96.9662 Y133.0000 Z-12.7500 F1080.00
G1 X96.9662 Y133.0000 Z-12.7500 F1080.00
G1 X88.9052 Y133.0000 Z-12.7500 F1080.00
G1 X96.9662 Y124.9390 Z-12.7500 F1080.00
G1 X96.9662 Y124.0000 Z-12.7500 F1080.00
G1 X89.8442 Y124.0000 Z-12.7500 F1080.00
G1 X87.9662 Y124.0000 Z-12.7500 F1080.00
G1 X87.9662 Y125.8780 Z-12.7500 F1080.00
G1 X89.8442 Y124.0000 Z-12.7500 F1080.00
G1 X89.8442 Y124.0000 Z-13.5000 F1080.00
G1 X87.9662 Y125.8780 Z-13.5000 F1080.00
G1 X87.9662 Y124.0000 Z-13.5000 F1080.00
G1 X89.8442 Y124.0000 Z-13.5000 F1080.00
G1 X96.9662 Y124.0000 Z-13.5000 F1080.00
G1 X96.9662 Y124.9390 Z-13.5000 F1080.00
G1 X88.9052 Y133.0000 Z-13.5000 F1080.00
G1 X96.9662 Y133.0000 Z-13.5000 F1080.00
G1 X96.9662 Y133.0000 Z-13.5000 F1080.00
G1 X96.9662 Y124.0000 Z-13.5000 F1080.00
G1 X87.9662 Y124.0000 Z-13.5000 F1080.00
G1 X87.9662 Y133.0000 Z-13.5000 F1080.00
G1 X96.9662 Y133.0000 Z-13.5000 F1080.00
G1 X96.9662 Y133.0000 Z-14.2500 F1080.00
G1 X96.9662 Y124.0000 Z-14.2500 F1080.00
G1 X87.9662 Y124.0000 Z-14.2500 F1080.00
G1 X87.9662 Y133.0000 Z-14.2500 F1080.00
G1 X96.9662 Y133.0000 Z-14.2500 F1080.00
G1 X96.9662 Y133.0000 Z-14.2500 F1080.00
G1 X88.9052 Y133.0000 Z-14.2500 F1080.00
G1 X96.9662 Y124.9390 Z-14.2500 F1080.00
G1 X96.9662 Y124.0000 Z-14.2500 F1080.00
G1 X89.8442 Y124.0000 Z-14.2500 F1080.00
G1 X87.9662 Y124.0000 Z-14.2500 F1080.00
G1 X87.9662 Y125.8780 Z-14.2500 F1080.00
G1 X89.8442 Y124.0000 Z-14.2500 F1080.00
G1 X89.8442 Y124.0000 Z-15.0000 F1080.00
G1 X87.9662 Y125.8780 Z-15.0000 F1080.00
G1 X87.9662 Y124.0000 Z-15.0000 F1080.00
G1 X89.8442 Y124.0000 Z-15.0000 F1080.00
G1 X96.9662 Y124.0000 Z-15.0000 F1080.00
G1 X96.9662 Y124.9390 Z-15.0000 F1080.00
G1 X88.9052 Y133.0000 Z-15.0000 F1080.00
G1 X96.9662 Y133.0000 Z-15.0000 F1080.00
G1 X96.9662 Y133.0000 Z-15.0000 F1080.00
G1 X96.9662 Y124.0000 Z-15.0000 F1080.00
G1 X87.9662 Y124.0000 Z-15.0000 F1080.00
G1 X87.9662 Y133.0000 Z-15.0000 F1080.00
G1 X96.9662 Y133.0000 Z-15.0000 F1080.00
G1 X96.9662 Y133.0000 Z-15.7500 F1080.00
G1 X96.9662 Y124.0000 Z-15.7500 F1080.00
G1 X87.9662 Y124.0000 Z-15.7500 F1080.00
G1 X87.9662 Y133.0000 Z-15.7500 F1080.00
G1 X96.9662 Y133.0000 Z-15.7500 F1080.00
G1 X96.9662 Y133.0000 Z-15.7500 F1080.00
G1 X88.9052 Y133.0000 Z-15.7500 F1080.00
G1 X96.9662 Y124.9390 Z-15.7500 F1080.00
G1 X96.9662 Y124.0000 Z-15.7500 F1080.00
G1 X89.8442 Y124.0000 Z-15.7500 F1080.00
G1 X87.9662 Y124.0000 Z-15.7500 F1080.00
G1 X87.9662 Y125.8780 Z-15.7500 F1080.00
G1 X89.8442 Y124.0000 Z-15.7500 F1080.00
G1 X89.8442 Y124.0000 Z-16.5000 F1080.00
G1 X87.9662 Y125.8780 Z-16.5000 F1080.00
G1 X87.9662 Y124.0000 Z-16.5000 F1080.00
G1 X89.8442 Y124.0000 Z-16.5000 F1080.00
G1 X96.9662 Y124.0000 Z-16.5000 F1080.00
G1 X96.9662 Y124.9390 Z-16.5000 F1080.00
G1 X88.9052 Y133.0000 Z-16.5000 F1080.00
G1 X96.9662 Y133.0000 Z-16.5000 F1080.00
G1 X96.9662 Y133.0000 Z-16.5000 F1080.00
G1 X96.9662 Y124.0000 Z-16.5000 F1080.00
G1 X87.9662 Y124.0000 Z-16.5000 F1080.00
G1 X87.9662 Y133.0000 Z-16.5000 F1080.00
G1 X96.9662 Y133.0000 Z-16.5000 F1080.00
G1 X96.9662 Y133.0000 Z-17.2500 F1080.00
G1 X96.9662 Y124.0000 Z-17.2500 F1080.00
G1 X87.9662 Y124.0000 Z-17.2500 F1080.00
G1 X87.9662 Y133.0000 Z-17.2500 F1080.00
G1 X96.9662 Y133.0000 Z-17.2500 F1080.00
G1 X96.9662 Y133.0000 Z-17.2500 F1080.00
G1 X88.9052 Y133.0000 Z-17.2500 F1080.00
G1 X96.9662 Y124.9390 Z-17.2500 F1080.00
G1 X96.9662 Y124.0000 Z-17.2500 F1080.00
G1 X89.8442 Y124.0000 Z-17.2500 F1080.00
G1 X87.9662 Y124.0000 Z-17.2500 F1080.00
G1 X87.9662 Y125.8780 Z-17.2500 F1080.00
G1 X89.8442 Y124.0000 Z-17.2500 F1080.00
G1 X89.8442 Y124.0000 Z-18.0000 F1080.00
G1 X87.9662 Y125.8780 Z-18.0000 F1080.00
G1 X87.9662 Y124.0000 Z-18.0000 F1080.00
G1 X89.8442 Y124.0000 Z-18.0000 F1080.00
G1 X96.9662 Y124.0000 Z-18.0000 F1080.00
G1 X96.9662 Y124.9390 Z-18.0000 F1080.00
G1 X88.9052 Y133.0000 Z-18.0000 F1080.00
G1 X96.9662 Y133.0000 Z-18.0000 F1080.00
G1 X96.9662 Y133.0000 Z-18.0000 F1080.00
G1 X96.9662 Y124.0000 Z-18.0000 F1080.00
G1 X87.9662 Y124.0000 Z-18.0000 F1080.00
G1 X87.9662 Y133.0000 Z-18.0000 F1080.00
G1 X96.9662 Y133.0000 Z-18.0000 F1080.00
G1 X96.9662 Y133.0000 Z-18.7500 F1080.00
G1 X96.9662 Y124.0000 Z-18.7500 F1080.00
G1 X87.9662 Y124.0000 Z-18.7500 F1080.00
G1 X87.9662 Y133.0000 Z-18.7500 F1080.00
G1 X96.9662 Y133.0000 Z-18.7500 F1080.00
G1 X96.9662 Y133.0000 Z-18.7500 F1080.00
G1 X88.9052 Y133.0000 Z-18.7500 F1080.00
G1 X96.9662 Y124.9390 Z-18.7500 F1080.00
G1 X96.9662 Y124.0000 Z-18.7500 F1080.00
G1 X89.8442 Y124.0000 Z-18.7500 F1080.00
G1 X87.9662 Y124.0000 Z-18.7500 F1080.00
G1 X87.9662 Y125.8780 Z-18.7500 F1080.00
G1 X89.8442 Y124.0000 Z-18.7500 F1080.00
G1 X89.8442 Y124.0000 Z-19.5000 F1080.00
G1 X87.9662 Y125.8780 Z-19.5000 F1080.00
G1 X87.9662 Y124.0000 Z-19.5000 F1080.00
G1 X89.8442 Y124.0000 Z-19.5000 F1080.00
G1 X96.9662 Y124.0000 Z-19.5000 F1080.00
G1 X96.9662 Y124.9390 Z-19.5000 F1080.00
G1 X88.9052 Y133.0000 Z-19.5000 F1080.00
G1 X96.9662 Y133.0000 Z-19.5000 F1080.00
G1 X96.9662 Y133.0000 Z-19.5000 F1080.00
G1 X96.9662 Y124.0000 Z-19.5000 F1080.00
G1 X87.9662 Y124.0000 Z-19.5000 F1080.00
G1 X87.9662 Y133.0000 Z-19.5000 F1080.00
G1 X96.9662 Y133.0000 Z-19.5000 F1080.00
G1 X96.9662 Y133.0000 Z-20.2500 F1080.00
G1 X96.9662 Y124.0000 Z-20.2500 F1080.00
G1 X87.9662 Y124.0000 Z-20.2500 F1080.00
G1 X87.9662 Y133.0000 Z-20.2500 F1080.00
G1 X96.9662 Y133.0000 Z-20.2500 F1080.00
G1 X96.9662 Y133.0000 Z-20.2500 F1080.00
G1 X88.9052 Y133.0000 Z-20.2500 F1080.00
G1 X96.9662 Y124.9390 Z-20.2500 F1080.00
G1 X96.9662 Y124.0000 Z-20.2500 F1080.00
G1 X89.8442 Y124.0000 Z-20.2500 F1080.00
G1 X87.9662 Y124.0000 Z-20.2500 F1080.00
G1 X87.9662 Y125.8780 Z-20.2500 F1080.00
G1 X89.8442 Y124.0000 Z-20.2500 F1080.00
G1 X89.8442 Y124.0000 Z-21.0000 F1080.00
G1 X87.9662 Y125.8780 Z-21.0000 F1080.00
G1 X87.9662 Y124.0000 Z-21.0000 F1080.00
G1 X89.8442 Y124.0000 Z-21.0000 F1080.00
G1 X96.9662 Y124.0000 Z-21.0000 F1080.00
G1 X96.9662 Y124.9390 Z-21.0000 F1080.00
G1 X88.9052 Y133.0000 Z-21.0000 F1080.00
G1 X96.9662 Y133.0000 Z-21.0000 F1080.00
G1 X96.9662 Y133.0000 Z-21.0000 F1080.00
G1 X96.9662 Y124.0000 Z-21.0000 F1080.00
G1 X87.9662 Y124.0000 Z-21.0000 F1080.00
G1 X87.9662 Y133.0000 Z-21.0000 F1080.00
G1 X96.9662 Y133.0000 Z-21.0000 F1080.00
G1 X96.9662 Y133.0000 Z-21.7500 F1080.00
G1 X96.9662 Y124.0000 Z-21.7500 F1080.00
G1 X87.9662 Y124.0000 Z-21.7500 F1080.00
G1 X87.9662 Y133.0000 Z-21.7500 F1080.00
G1 X96.9662 Y133.0000 Z-21.7500 F1080.00
G1 X96.9662 Y133.0000 Z-21.7500 F1080.00
G1 X88.9052 Y133.0000 Z-21.7500 F1080.00
G1 X96.9662 Y124.9390 Z-21.7500 F1080.00
G1 X96.9662 Y124.0000 Z-21.7500 F1080.00
G1 X89.8442 Y124.0000 Z-21.7500 F1080.00
G1 X87.9662 Y124.0000 Z-21.7500 F1080.00
G1 X87.9662 Y125.8780 Z-21.7500 F1080.00
G1 X89.8442 Y124.0000 Z-21.7500 F1080.00
G1 X89.8442 Y124.0000 Z-22.0000 F1080.00
G1 X87.9662 Y125.8780 Z-22.0000 F1080.00
G1 X87.9662 Y124.0000 Z-22.0000 F1080.00
G1 X89.8442 Y124.0000 Z-22.0000 F1080.00
G1 X96.9662 Y124.0000 Z-22.0000 F1080.00
G1 X96.9662 Y124.9390 Z-22.0000 F1080.00
G1 X88.9052 Y133.0000 Z-22.0000 F1080.00
G1 X96.9662 Y133.0000 Z-22.0000 F1080.00
G1 X96.9662 Y133.0000 Z-22.0000 F1080.00
G1 X96.9662 Y124.0000 Z-22.0000 F1080.00
G1 X87.9662 Y124.0000 Z-22.0000 F1080.00
G1 X87.9662 Y133.0000 Z-22.0000 F1080.00
G1 X96.9662 Y133.0000 Z-22.0000 F1080.00
G0 Z5.0000
(finish operation: Pocket_Shape008)
(begin postamble)
M5
G17 G90
; M2
