(Exported by FreeCAD)
(Post Processor: grbl_post)
(Output Time:2021-11-28 05:19:09.952175)
(begin preamble)
G17 G90
G21
(begin operation: T2: 1/4inENDMILL)
(Path: T2: 1/4inENDMILL)
(T2: 1/4inENDMILL)
(begin toolchange)
; M6 T2
M3 S0.0000
(finish operation: T2: 1/4inENDMILL)
(begin operation: Contour)
(Path: Contour)
(Contour)
(Compensated Tool Path. Diameter: 6.0)
G0 Z5.0000
G0 X150.7866 Y327.4529
G0 Z3.0000
G1 X150.7866 Y327.4529 Z-0.5000 F1020.00
G2 X156.8565 Y322.2133 Z-0.5000 I-2.9384 J-9.5396 F1020.00
G2 X160.0117 Y269.0717 Z-0.5000 I-76.6709 J-31.2168 F1020.00
G2 X159.5419 Y268.0694 Z-0.5000 I-2.9046 J0.7504 F1020.00
G3 X157.4431 Y96.4269 Z-0.5000 I118.2865 J-87.2805 F1020.00
G2 X157.7947 Y95.7341 Z-0.5000 I-2.4769 J-1.6926 F1020.00
G2 X125.5254 Y-2.4825 Z-0.5000 I-77.8285 J-28.8386 F1020.00
G2 X124.6857 Y-2.8786 Z-0.5000 I-1.6844 J2.4825 F1020.00
G2 X120.9307 Y-0.7281 Z-0.5000 I-0.8447 J2.8786 F1020.00
G3 X39.0017 Y-0.7281 Z-0.5000 I-40.9645 J-9.2737 F1020.00
G2 X34.4070 Y-2.4825 Z-0.5000 I-2.9103 J0.7281 F1020.00
G2 X2.1377 Y95.7341 Z-0.5000 I45.5592 J69.3780 F1020.00
G2 X3.0648 Y97.0547 Z-0.5000 I2.8285 J-0.9998 F1020.00
G3 X5.6999 Y254.4932 Z-0.5000 I-63.5256 J79.8045 F1020.00
G2 X4.9475 Y255.5059 Z-0.5000 I1.9780 J2.2555 F1020.00
G2 X18.2553 Y346.5318 Z-0.5000 I75.0383 J35.5152 F1020.00
G2 X32.5669 Y346.7659 Z-0.5000 I7.2699 J-6.8614 F1020.00
G2 X33.8187 Y345.0935 Z-0.5000 I-3.7348 J-4.1002 F1020.00
G3 X61.9662 Y344.5662 Z-0.5000 I14.1706 J4.9032 F1020.00
G1 X61.9662 Y364.0000 Z-0.5000 F1020.00
G2 X64.9662 Y367.0000 Z-0.5000 I3.0000 J-0.0000 F1020.00
G1 X94.9662 Y367.0000 Z-0.5000 F1020.00
G2 X97.9662 Y364.0000 Z-0.5000 I-0.0000 J-3.0000 F1020.00
G1 X97.9662 Y324.9741 Z-0.5000 F1020.00
G3 X141.9753 Y325.7624 Z-0.5000 I21.7247 J16.0187 F1020.00
G2 X142.6521 Y326.4360 Z-0.5000 I2.4277 J-1.7624 F1020.00
G2 X150.7866 Y327.4529 Z-0.5000 I5.1962 J-8.5228 F1020.00
G1 X150.7866 Y327.4529 Z-1.0000 F1020.00
G2 X156.8565 Y322.2133 Z-1.0000 I-2.9384 J-9.5396 F1020.00
G2 X160.0117 Y269.0717 Z-1.0000 I-76.6709 J-31.2168 F1020.00
G2 X159.5419 Y268.0694 Z-1.0000 I-2.9046 J0.7504 F1020.00
G3 X157.4431 Y96.4269 Z-1.0000 I118.2865 J-87.2805 F1020.00
G2 X157.7947 Y95.7341 Z-1.0000 I-2.4769 J-1.6926 F1020.00
G2 X125.5254 Y-2.4825 Z-1.0000 I-77.8285 J-28.8386 F1020.00
G2 X124.6857 Y-2.8786 Z-1.0000 I-1.6844 J2.4825 F1020.00
G2 X120.9307 Y-0.7281 Z-1.0000 I-0.8447 J2.8786 F1020.00
G3 X39.0017 Y-0.7281 Z-1.0000 I-40.9645 J-9.2737 F1020.00
G2 X34.4070 Y-2.4825 Z-1.0000 I-2.9103 J0.7281 F1020.00
G2 X2.1377 Y95.7341 Z-1.0000 I45.5592 J69.3780 F1020.00
G2 X3.0648 Y97.0547 Z-1.0000 I2.8285 J-0.9998 F1020.00
G3 X5.6999 Y254.4932 Z-1.0000 I-63.5256 J79.8045 F1020.00
G2 X4.9475 Y255.5059 Z-1.0000 I1.9780 J2.2555 F1020.00
G2 X18.2553 Y346.5318 Z-1.0000 I75.0383 J35.5152 F1020.00
G2 X32.5669 Y346.7659 Z-1.0000 I7.2699 J-6.8614 F1020.00
G2 X33.8187 Y345.0935 Z-1.0000 I-3.7348 J-4.1002 F1020.00
G3 X61.9662 Y344.5662 Z-1.0000 I14.1706 J4.9032 F1020.00
G1 X61.9662 Y364.0000 Z-1.0000 F1020.00
G2 X64.9662 Y367.0000 Z-1.0000 I3.0000 J-0.0000 F1020.00
G1 X94.9662 Y367.0000 Z-1.0000 F1020.00
G2 X97.9662 Y364.0000 Z-1.0000 I-0.0000 J-3.0000 F1020.00
G1 X97.9662 Y324.9741 Z-1.0000 F1020.00
G3 X141.9753 Y325.7624 Z-1.0000 I21.7247 J16.0187 F1020.00
G2 X142.6521 Y326.4360 Z-1.0000 I2.4277 J-1.7624 F1020.00
G2 X150.7866 Y327.4529 Z-1.0000 I5.1962 J-8.5228 F1020.00
G1 X150.7866 Y327.4529 Z-1.5000 F1020.00
G2 X156.8565 Y322.2133 Z-1.5000 I-2.9384 J-9.5396 F1020.00
G2 X160.0117 Y269.0717 Z-1.5000 I-76.6709 J-31.2168 F1020.00
G2 X159.5419 Y268.0694 Z-1.5000 I-2.9046 J0.7504 F1020.00
G3 X157.4431 Y96.4269 Z-1.5000 I118.2865 J-87.2805 F1020.00
G2 X157.7947 Y95.7341 Z-1.5000 I-2.4769 J-1.6926 F1020.00
G2 X125.5254 Y-2.4825 Z-1.5000 I-77.8285 J-28.8386 F1020.00
G2 X124.6857 Y-2.8786 Z-1.5000 I-1.6844 J2.4825 F1020.00
G2 X120.9307 Y-0.7281 Z-1.5000 I-0.8447 J2.8786 F1020.00
G3 X39.0017 Y-0.7281 Z-1.5000 I-40.9645 J-9.2737 F1020.00
G2 X34.4070 Y-2.4825 Z-1.5000 I-2.9103 J0.7281 F1020.00
G2 X2.1377 Y95.7341 Z-1.5000 I45.5592 J69.3780 F1020.00
G2 X3.0648 Y97.0547 Z-1.5000 I2.8285 J-0.9998 F1020.00
G3 X5.6999 Y254.4932 Z-1.5000 I-63.5256 J79.8045 F1020.00
G2 X4.9475 Y255.5059 Z-1.5000 I1.9780 J2.2555 F1020.00
G2 X18.2553 Y346.5318 Z-1.5000 I75.0383 J35.5152 F1020.00
G2 X32.5669 Y346.7659 Z-1.5000 I7.2699 J-6.8614 F1020.00
G2 X33.8187 Y345.0935 Z-1.5000 I-3.7348 J-4.1002 F1020.00
G3 X61.9662 Y344.5662 Z-1.5000 I14.1706 J4.9032 F1020.00
G1 X61.9662 Y364.0000 Z-1.5000 F1020.00
G2 X64.9662 Y367.0000 Z-1.5000 I3.0000 J-0.0000 F1020.00
G1 X94.9662 Y367.0000 Z-1.5000 F1020.00
G2 X97.9662 Y364.0000 Z-1.5000 I-0.0000 J-3.0000 F1020.00
G1 X97.9662 Y324.9741 Z-1.5000 F1020.00
G3 X141.9753 Y325.7624 Z-1.5000 I21.7247 J16.0187 F1020.00
G2 X142.6521 Y326.4360 Z-1.5000 I2.4277 J-1.7624 F1020.00
G2 X150.7866 Y327.4529 Z-1.5000 I5.1962 J-8.5228 F1020.00
G1 X150.7866 Y327.4529 Z-2.0000 F1020.00
G2 X156.8565 Y322.2133 Z-2.0000 I-2.9384 J-9.5396 F1020.00
G2 X160.0117 Y269.0717 Z-2.0000 I-76.6709 J-31.2168 F1020.00
G2 X159.5419 Y268.0694 Z-2.0000 I-2.9046 J0.7504 F1020.00
G3 X157.4431 Y96.4269 Z-2.0000 I118.2865 J-87.2805 F1020.00
G2 X157.7947 Y95.7341 Z-2.0000 I-2.4769 J-1.6926 F1020.00
G2 X125.5254 Y-2.4825 Z-2.0000 I-77.8285 J-28.8386 F1020.00
G2 X124.6857 Y-2.8786 Z-2.0000 I-1.6844 J2.4825 F1020.00
G2 X120.9307 Y-0.7281 Z-2.0000 I-0.8447 J2.8786 F1020.00
G3 X39.0017 Y-0.7281 Z-2.0000 I-40.9645 J-9.2737 F1020.00
G2 X34.4070 Y-2.4825 Z-2.0000 I-2.9103 J0.7281 F1020.00
G2 X2.1377 Y95.7341 Z-2.0000 I45.5592 J69.3780 F1020.00
G2 X3.0648 Y97.0547 Z-2.0000 I2.8285 J-0.9998 F1020.00
G3 X5.6999 Y254.4932 Z-2.0000 I-63.5256 J79.8045 F1020.00
G2 X4.9475 Y255.5059 Z-2.0000 I1.9780 J2.2555 F1020.00
G2 X18.2553 Y346.5318 Z-2.0000 I75.0383 J35.5152 F1020.00
G2 X32.5669 Y346.7659 Z-2.0000 I7.2699 J-6.8614 F1020.00
G2 X33.8187 Y345.0935 Z-2.0000 I-3.7348 J-4.1002 F1020.00
G3 X61.9662 Y344.5662 Z-2.0000 I14.1706 J4.9032 F1020.00
G1 X61.9662 Y364.0000 Z-2.0000 F1020.00
G2 X64.9662 Y367.0000 Z-2.0000 I3.0000 J-0.0000 F1020.00
G1 X94.9662 Y367.0000 Z-2.0000 F1020.00
G2 X97.9662 Y364.0000 Z-2.0000 I-0.0000 J-3.0000 F1020.00
G1 X97.9662 Y324.9741 Z-2.0000 F1020.00
G3 X141.9753 Y325.7624 Z-2.0000 I21.7247 J16.0187 F1020.00
G2 X142.6521 Y326.4360 Z-2.0000 I2.4277 J-1.7624 F1020.00
G2 X150.7866 Y327.4529 Z-2.0000 I5.1962 J-8.5228 F1020.00
G1 X150.7866 Y327.4529 Z-2.5000 F1020.00
G2 X156.8565 Y322.2133 Z-2.5000 I-2.9384 J-9.5396 F1020.00
G2 X160.0117 Y269.0717 Z-2.5000 I-76.6709 J-31.2168 F1020.00
G2 X159.5419 Y268.0694 Z-2.5000 I-2.9046 J0.7504 F1020.00
G3 X157.4431 Y96.4269 Z-2.5000 I118.2865 J-87.2805 F1020.00
G2 X157.7947 Y95.7341 Z-2.5000 I-2.4769 J-1.6926 F1020.00
G2 X125.5254 Y-2.4825 Z-2.5000 I-77.8285 J-28.8386 F1020.00
G2 X124.6857 Y-2.8786 Z-2.5000 I-1.6844 J2.4825 F1020.00
G2 X120.9307 Y-0.7281 Z-2.5000 I-0.8447 J2.8786 F1020.00
G3 X39.0017 Y-0.7281 Z-2.5000 I-40.9645 J-9.2737 F1020.00
G2 X34.4070 Y-2.4825 Z-2.5000 I-2.9103 J0.7281 F1020.00
G2 X2.1377 Y95.7341 Z-2.5000 I45.5592 J69.3780 F1020.00
G2 X3.0648 Y97.0547 Z-2.5000 I2.8285 J-0.9998 F1020.00
G3 X5.6999 Y254.4932 Z-2.5000 I-63.5256 J79.8045 F1020.00
G2 X4.9475 Y255.5059 Z-2.5000 I1.9780 J2.2555 F1020.00
G2 X18.2553 Y346.5318 Z-2.5000 I75.0383 J35.5152 F1020.00
G2 X32.5669 Y346.7659 Z-2.5000 I7.2699 J-6.8614 F1020.00
G2 X33.8187 Y345.0935 Z-2.5000 I-3.7348 J-4.1002 F1020.00
G3 X61.9662 Y344.5662 Z-2.5000 I14.1706 J4.9032 F1020.00
G1 X61.9662 Y364.0000 Z-2.5000 F1020.00
G2 X64.9662 Y367.0000 Z-2.5000 I3.0000 J-0.0000 F1020.00
G1 X94.9662 Y367.0000 Z-2.5000 F1020.00
G2 X97.9662 Y364.0000 Z-2.5000 I-0.0000 J-3.0000 F1020.00
G1 X97.9662 Y324.9741 Z-2.5000 F1020.00
G3 X141.9753 Y325.7624 Z-2.5000 I21.7247 J16.0187 F1020.00
G2 X142.6521 Y326.4360 Z-2.5000 I2.4277 J-1.7624 F1020.00
G2 X150.7866 Y327.4529 Z-2.5000 I5.1962 J-8.5228 F1020.00
G1 X150.7866 Y327.4529 Z-3.0000 F1020.00
G2 X156.8565 Y322.2133 Z-3.0000 I-2.9384 J-9.5396 F1020.00
G2 X160.0117 Y269.0717 Z-3.0000 I-76.6709 J-31.2168 F1020.00
G2 X159.5419 Y268.0694 Z-3.0000 I-2.9046 J0.7504 F1020.00
G3 X157.4431 Y96.4269 Z-3.0000 I118.2865 J-87.2805 F1020.00
G2 X157.7947 Y95.7341 Z-3.0000 I-2.4769 J-1.6926 F1020.00
G2 X125.5254 Y-2.4825 Z-3.0000 I-77.8285 J-28.8386 F1020.00
G2 X124.6857 Y-2.8786 Z-3.0000 I-1.6844 J2.4825 F1020.00
G2 X120.9307 Y-0.7281 Z-3.0000 I-0.8447 J2.8786 F1020.00
G3 X39.0017 Y-0.7281 Z-3.0000 I-40.9645 J-9.2737 F1020.00
G2 X34.4070 Y-2.4825 Z-3.0000 I-2.9103 J0.7281 F1020.00
G2 X2.1377 Y95.7341 Z-3.0000 I45.5592 J69.3780 F1020.00
G2 X3.0648 Y97.0547 Z-3.0000 I2.8285 J-0.9998 F1020.00
G3 X5.6999 Y254.4932 Z-3.0000 I-63.5256 J79.8045 F1020.00
G2 X4.9475 Y255.5059 Z-3.0000 I1.9780 J2.2555 F1020.00
G2 X18.2553 Y346.5318 Z-3.0000 I75.0383 J35.5152 F1020.00
G2 X32.5669 Y346.7659 Z-3.0000 I7.2699 J-6.8614 F1020.00
G2 X33.8187 Y345.0935 Z-3.0000 I-3.7348 J-4.1002 F1020.00
G3 X61.9662 Y344.5662 Z-3.0000 I14.1706 J4.9032 F1020.00
G1 X61.9662 Y364.0000 Z-3.0000 F1020.00
G2 X64.9662 Y367.0000 Z-3.0000 I3.0000 J-0.0000 F1020.00
G1 X94.9662 Y367.0000 Z-3.0000 F1020.00
G2 X97.9662 Y364.0000 Z-3.0000 I-0.0000 J-3.0000 F1020.00
G1 X97.9662 Y324.9741 Z-3.0000 F1020.00
G3 X141.9753 Y325.7624 Z-3.0000 I21.7247 J16.0187 F1020.00
G2 X142.6521 Y326.4360 Z-3.0000 I2.4277 J-1.7624 F1020.00
G2 X150.7866 Y327.4529 Z-3.0000 I5.1962 J-8.5228 F1020.00
G1 X150.7866 Y327.4529 Z-3.5000 F1020.00
G2 X156.8565 Y322.2133 Z-3.5000 I-2.9384 J-9.5396 F1020.00
G2 X160.0117 Y269.0717 Z-3.5000 I-76.6709 J-31.2168 F1020.00
G2 X159.5419 Y268.0694 Z-3.5000 I-2.9046 J0.7504 F1020.00
G3 X157.4431 Y96.4269 Z-3.5000 I118.2865 J-87.2805 F1020.00
G2 X157.7947 Y95.7341 Z-3.5000 I-2.4769 J-1.6926 F1020.00
G2 X125.5254 Y-2.4825 Z-3.5000 I-77.8285 J-28.8386 F1020.00
G2 X124.6857 Y-2.8786 Z-3.5000 I-1.6844 J2.4825 F1020.00
G2 X120.9307 Y-0.7281 Z-3.5000 I-0.8447 J2.8786 F1020.00
G3 X39.0017 Y-0.7281 Z-3.5000 I-40.9645 J-9.2737 F1020.00
G2 X34.4070 Y-2.4825 Z-3.5000 I-2.9103 J0.7281 F1020.00
G2 X2.1377 Y95.7341 Z-3.5000 I45.5592 J69.3780 F1020.00
G2 X3.0648 Y97.0547 Z-3.5000 I2.8285 J-0.9998 F1020.00
G3 X5.6999 Y254.4932 Z-3.5000 I-63.5256 J79.8045 F1020.00
G2 X4.9475 Y255.5059 Z-3.5000 I1.9780 J2.2555 F1020.00
G2 X18.2553 Y346.5318 Z-3.5000 I75.0383 J35.5152 F1020.00
G2 X32.5669 Y346.7659 Z-3.5000 I7.2699 J-6.8614 F1020.00
G2 X33.8187 Y345.0935 Z-3.5000 I-3.7348 J-4.1002 F1020.00
G3 X61.9662 Y344.5662 Z-3.5000 I14.1706 J4.9032 F1020.00
G1 X61.9662 Y364.0000 Z-3.5000 F1020.00
G2 X64.9662 Y367.0000 Z-3.5000 I3.0000 J-0.0000 F1020.00
G1 X94.9662 Y367.0000 Z-3.5000 F1020.00
G2 X97.9662 Y364.0000 Z-3.5000 I-0.0000 J-3.0000 F1020.00
G1 X97.9662 Y324.9741 Z-3.5000 F1020.00
G3 X141.9753 Y325.7624 Z-3.5000 I21.7247 J16.0187 F1020.00
G2 X142.6521 Y326.4360 Z-3.5000 I2.4277 J-1.7624 F1020.00
G2 X150.7866 Y327.4529 Z-3.5000 I5.1962 J-8.5228 F1020.00
G1 X150.7866 Y327.4529 Z-4.0000 F1020.00
G2 X156.8565 Y322.2133 Z-4.0000 I-2.9384 J-9.5396 F1020.00
G2 X160.0117 Y269.0717 Z-4.0000 I-76.6709 J-31.2168 F1020.00
G2 X159.5419 Y268.0694 Z-4.0000 I-2.9046 J0.7504 F1020.00
G3 X157.4431 Y96.4269 Z-4.0000 I118.2865 J-87.2805 F1020.00
G2 X157.7947 Y95.7341 Z-4.0000 I-2.4769 J-1.6926 F1020.00
G2 X125.5254 Y-2.4825 Z-4.0000 I-77.8285 J-28.8386 F1020.00
G2 X124.6857 Y-2.8786 Z-4.0000 I-1.6844 J2.4825 F1020.00
G2 X120.9307 Y-0.7281 Z-4.0000 I-0.8447 J2.8786 F1020.00
G3 X39.0017 Y-0.7281 Z-4.0000 I-40.9645 J-9.2737 F1020.00
G2 X34.4070 Y-2.4825 Z-4.0000 I-2.9103 J0.7281 F1020.00
G2 X2.1377 Y95.7341 Z-4.0000 I45.5592 J69.3780 F1020.00
G2 X3.0648 Y97.0547 Z-4.0000 I2.8285 J-0.9998 F1020.00
G3 X5.6999 Y254.4932 Z-4.0000 I-63.5256 J79.8045 F1020.00
G2 X4.9475 Y255.5059 Z-4.0000 I1.9780 J2.2555 F1020.00
G2 X18.2553 Y346.5318 Z-4.0000 I75.0383 J35.5152 F1020.00
G2 X32.5669 Y346.7659 Z-4.0000 I7.2699 J-6.8614 F1020.00
G2 X33.8187 Y345.0935 Z-4.0000 I-3.7348 J-4.1002 F1020.00
G3 X61.9662 Y344.5662 Z-4.0000 I14.1706 J4.9032 F1020.00
G1 X61.9662 Y364.0000 Z-4.0000 F1020.00
G2 X64.9662 Y367.0000 Z-4.0000 I3.0000 J-0.0000 F1020.00
G1 X94.9662 Y367.0000 Z-4.0000 F1020.00
G2 X97.9662 Y364.0000 Z-4.0000 I-0.0000 J-3.0000 F1020.00
G1 X97.9662 Y324.9741 Z-4.0000 F1020.00
G3 X141.9753 Y325.7624 Z-4.0000 I21.7247 J16.0187 F1020.00
G2 X142.6521 Y326.4360 Z-4.0000 I2.4277 J-1.7624 F1020.00
G2 X150.7866 Y327.4529 Z-4.0000 I5.1962 J-8.5228 F1020.00
G1 X150.7866 Y327.4529 Z-4.5000 F1020.00
G2 X156.8565 Y322.2133 Z-4.5000 I-2.9384 J-9.5396 F1020.00
G2 X160.0117 Y269.0717 Z-4.5000 I-76.6709 J-31.2168 F1020.00
G2 X159.5419 Y268.0694 Z-4.5000 I-2.9046 J0.7504 F1020.00
G3 X157.4431 Y96.4269 Z-4.5000 I118.2865 J-87.2805 F1020.00
G2 X157.7947 Y95.7341 Z-4.5000 I-2.4769 J-1.6926 F1020.00
G2 X125.5254 Y-2.4825 Z-4.5000 I-77.8285 J-28.8386 F1020.00
G2 X124.6857 Y-2.8786 Z-4.5000 I-1.6844 J2.4825 F1020.00
G2 X120.9307 Y-0.7281 Z-4.5000 I-0.8447 J2.8786 F1020.00
G3 X39.0017 Y-0.7281 Z-4.5000 I-40.9645 J-9.2737 F1020.00
G2 X34.4070 Y-2.4825 Z-4.5000 I-2.9103 J0.7281 F1020.00
G2 X2.1377 Y95.7341 Z-4.5000 I45.5592 J69.3780 F1020.00
G2 X3.0648 Y97.0547 Z-4.5000 I2.8285 J-0.9998 F1020.00
G3 X5.6999 Y254.4932 Z-4.5000 I-63.5256 J79.8045 F1020.00
G2 X4.9475 Y255.5059 Z-4.5000 I1.9780 J2.2555 F1020.00
G2 X18.2553 Y346.5318 Z-4.5000 I75.0383 J35.5152 F1020.00
G2 X32.5669 Y346.7659 Z-4.5000 I7.2699 J-6.8614 F1020.00
G2 X33.8187 Y345.0935 Z-4.5000 I-3.7348 J-4.1002 F1020.00
G3 X61.9662 Y344.5662 Z-4.5000 I14.1706 J4.9032 F1020.00
G1 X61.9662 Y364.0000 Z-4.5000 F1020.00
G2 X64.9662 Y367.0000 Z-4.5000 I3.0000 J-0.0000 F1020.00
G1 X94.9662 Y367.0000 Z-4.5000 F1020.00
G2 X97.9662 Y364.0000 Z-4.5000 I-0.0000 J-3.0000 F1020.00
G1 X97.9662 Y324.9741 Z-4.5000 F1020.00
G3 X141.9753 Y325.7624 Z-4.5000 I21.7247 J16.0187 F1020.00
G2 X142.6521 Y326.4360 Z-4.5000 I2.4277 J-1.7624 F1020.00
G2 X150.7866 Y327.4529 Z-4.5000 I5.1962 J-8.5228 F1020.00
G1 X150.7866 Y327.4529 Z-5.0000 F1020.00
G2 X156.8565 Y322.2133 Z-5.0000 I-2.9384 J-9.5396 F1020.00
G2 X160.0117 Y269.0717 Z-5.0000 I-76.6709 J-31.2168 F1020.00
G2 X159.5419 Y268.0694 Z-5.0000 I-2.9046 J0.7504 F1020.00
G3 X157.4431 Y96.4269 Z-5.0000 I118.2865 J-87.2805 F1020.00
G2 X157.7947 Y95.7341 Z-5.0000 I-2.4769 J-1.6926 F1020.00
G2 X125.5254 Y-2.4825 Z-5.0000 I-77.8285 J-28.8386 F1020.00
G2 X124.6857 Y-2.8786 Z-5.0000 I-1.6844 J2.4825 F1020.00
G2 X120.9307 Y-0.7281 Z-5.0000 I-0.8447 J2.8786 F1020.00
G3 X39.0017 Y-0.7281 Z-5.0000 I-40.9645 J-9.2737 F1020.00
G2 X34.4070 Y-2.4825 Z-5.0000 I-2.9103 J0.7281 F1020.00
G2 X2.1377 Y95.7341 Z-5.0000 I45.5592 J69.3780 F1020.00
G2 X3.0648 Y97.0547 Z-5.0000 I2.8285 J-0.9998 F1020.00
G3 X5.6999 Y254.4932 Z-5.0000 I-63.5256 J79.8045 F1020.00
G2 X4.9475 Y255.5059 Z-5.0000 I1.9780 J2.2555 F1020.00
G2 X18.2553 Y346.5318 Z-5.0000 I75.0383 J35.5152 F1020.00
G2 X32.5669 Y346.7659 Z-5.0000 I7.2699 J-6.8614 F1020.00
G2 X33.8187 Y345.0935 Z-5.0000 I-3.7348 J-4.1002 F1020.00
G3 X61.9662 Y344.5662 Z-5.0000 I14.1706 J4.9032 F1020.00
G1 X61.9662 Y364.0000 Z-5.0000 F1020.00
G2 X64.9662 Y367.0000 Z-5.0000 I3.0000 J-0.0000 F1020.00
G1 X94.9662 Y367.0000 Z-5.0000 F1020.00
G2 X97.9662 Y364.0000 Z-5.0000 I-0.0000 J-3.0000 F1020.00
G1 X97.9662 Y324.9741 Z-5.0000 F1020.00
G3 X141.9753 Y325.7624 Z-5.0000 I21.7247 J16.0187 F1020.00
G2 X142.6521 Y326.4360 Z-5.0000 I2.4277 J-1.7624 F1020.00
G2 X150.7866 Y327.4529 Z-5.0000 I5.1962 J-8.5228 F1020.00
G1 X150.7866 Y327.4529 Z-5.5000 F1020.00
G2 X156.8565 Y322.2133 Z-5.5000 I-2.9384 J-9.5396 F1020.00
G2 X160.0117 Y269.0717 Z-5.5000 I-76.6709 J-31.2168 F1020.00
G2 X159.5419 Y268.0694 Z-5.5000 I-2.9046 J0.7504 F1020.00
G3 X157.4431 Y96.4269 Z-5.5000 I118.2865 J-87.2805 F1020.00
G2 X157.7947 Y95.7341 Z-5.5000 I-2.4769 J-1.6926 F1020.00
G2 X125.5254 Y-2.4825 Z-5.5000 I-77.8285 J-28.8386 F1020.00
G2 X124.6857 Y-2.8786 Z-5.5000 I-1.6844 J2.4825 F1020.00
G2 X120.9307 Y-0.7281 Z-5.5000 I-0.8447 J2.8786 F1020.00
G3 X39.0017 Y-0.7281 Z-5.5000 I-40.9645 J-9.2737 F1020.00
G2 X34.4070 Y-2.4825 Z-5.5000 I-2.9103 J0.7281 F1020.00
G2 X2.1377 Y95.7341 Z-5.5000 I45.5592 J69.3780 F1020.00
G2 X3.0648 Y97.0547 Z-5.5000 I2.8285 J-0.9998 F1020.00
G3 X5.6999 Y254.4932 Z-5.5000 I-63.5256 J79.8045 F1020.00
G2 X4.9475 Y255.5059 Z-5.5000 I1.9780 J2.2555 F1020.00
G2 X18.2553 Y346.5318 Z-5.5000 I75.0383 J35.5152 F1020.00
G2 X32.5669 Y346.7659 Z-5.5000 I7.2699 J-6.8614 F1020.00
G2 X33.8187 Y345.0935 Z-5.5000 I-3.7348 J-4.1002 F1020.00
G3 X61.9662 Y344.5662 Z-5.5000 I14.1706 J4.9032 F1020.00
G1 X61.9662 Y364.0000 Z-5.5000 F1020.00
G2 X64.9662 Y367.0000 Z-5.5000 I3.0000 J-0.0000 F1020.00
G1 X94.9662 Y367.0000 Z-5.5000 F1020.00
G2 X97.9662 Y364.0000 Z-5.5000 I-0.0000 J-3.0000 F1020.00
G1 X97.9662 Y324.9741 Z-5.5000 F1020.00
G3 X141.9753 Y325.7624 Z-5.5000 I21.7247 J16.0187 F1020.00
G2 X142.6521 Y326.4360 Z-5.5000 I2.4277 J-1.7624 F1020.00
G2 X150.7866 Y327.4529 Z-5.5000 I5.1962 J-8.5228 F1020.00
G1 X150.7866 Y327.4529 Z-6.0000 F1020.00
G2 X156.8565 Y322.2133 Z-6.0000 I-2.9384 J-9.5396 F1020.00
G2 X160.0117 Y269.0717 Z-6.0000 I-76.6709 J-31.2168 F1020.00
G2 X159.5419 Y268.0694 Z-6.0000 I-2.9046 J0.7504 F1020.00
G3 X157.4431 Y96.4269 Z-6.0000 I118.2865 J-87.2805 F1020.00
G2 X157.7947 Y95.7341 Z-6.0000 I-2.4769 J-1.6926 F1020.00
G2 X125.5254 Y-2.4825 Z-6.0000 I-77.8285 J-28.8386 F1020.00
G2 X124.6857 Y-2.8786 Z-6.0000 I-1.6844 J2.4825 F1020.00
G2 X120.9307 Y-0.7281 Z-6.0000 I-0.8447 J2.8786 F1020.00
G3 X39.0017 Y-0.7281 Z-6.0000 I-40.9645 J-9.2737 F1020.00
G2 X34.4070 Y-2.4825 Z-6.0000 I-2.9103 J0.7281 F1020.00
G2 X2.1377 Y95.7341 Z-6.0000 I45.5592 J69.3780 F1020.00
G2 X3.0648 Y97.0547 Z-6.0000 I2.8285 J-0.9998 F1020.00
G3 X5.6999 Y254.4932 Z-6.0000 I-63.5256 J79.8045 F1020.00
G2 X4.9475 Y255.5059 Z-6.0000 I1.9780 J2.2555 F1020.00
G2 X18.2553 Y346.5318 Z-6.0000 I75.0383 J35.5152 F1020.00
G2 X32.5669 Y346.7659 Z-6.0000 I7.2699 J-6.8614 F1020.00
G2 X33.8187 Y345.0935 Z-6.0000 I-3.7348 J-4.1002 F1020.00
G3 X61.9662 Y344.5662 Z-6.0000 I14.1706 J4.9032 F1020.00
G1 X61.9662 Y364.0000 Z-6.0000 F1020.00
G2 X64.9662 Y367.0000 Z-6.0000 I3.0000 J-0.0000 F1020.00
G1 X94.9662 Y367.0000 Z-6.0000 F1020.00
G2 X97.9662 Y364.0000 Z-6.0000 I-0.0000 J-3.0000 F1020.00
G1 X97.9662 Y324.9741 Z-6.0000 F1020.00
G3 X141.9753 Y325.7624 Z-6.0000 I21.7247 J16.0187 F1020.00
G2 X142.6521 Y326.4360 Z-6.0000 I2.4277 J-1.7624 F1020.00
G2 X150.7866 Y327.4529 Z-6.0000 I5.1962 J-8.5228 F1020.00
G1 X150.7866 Y327.4529 Z-6.5000 F1020.00
G2 X156.8565 Y322.2133 Z-6.5000 I-2.9384 J-9.5396 F1020.00
G2 X160.0117 Y269.0717 Z-6.5000 I-76.6709 J-31.2168 F1020.00
G2 X159.5419 Y268.0694 Z-6.5000 I-2.9046 J0.7504 F1020.00
G3 X157.4431 Y96.4269 Z-6.5000 I118.2865 J-87.2805 F1020.00
G2 X157.7947 Y95.7341 Z-6.5000 I-2.4769 J-1.6926 F1020.00
G2 X125.5254 Y-2.4825 Z-6.5000 I-77.8285 J-28.8386 F1020.00
G2 X124.6857 Y-2.8786 Z-6.5000 I-1.6844 J2.4825 F1020.00
G2 X120.9307 Y-0.7281 Z-6.5000 I-0.8447 J2.8786 F1020.00
G3 X39.0017 Y-0.7281 Z-6.5000 I-40.9645 J-9.2737 F1020.00
G2 X34.4070 Y-2.4825 Z-6.5000 I-2.9103 J0.7281 F1020.00
G2 X2.1377 Y95.7341 Z-6.5000 I45.5592 J69.3780 F1020.00
G2 X3.0648 Y97.0547 Z-6.5000 I2.8285 J-0.9998 F1020.00
G3 X5.6999 Y254.4932 Z-6.5000 I-63.5256 J79.8045 F1020.00
G2 X4.9475 Y255.5059 Z-6.5000 I1.9780 J2.2555 F1020.00
G2 X18.2553 Y346.5318 Z-6.5000 I75.0383 J35.5152 F1020.00
G2 X32.5669 Y346.7659 Z-6.5000 I7.2699 J-6.8614 F1020.00
G2 X33.8187 Y345.0935 Z-6.5000 I-3.7348 J-4.1002 F1020.00
G3 X61.9662 Y344.5662 Z-6.5000 I14.1706 J4.9032 F1020.00
G1 X61.9662 Y364.0000 Z-6.5000 F1020.00
G2 X64.9662 Y367.0000 Z-6.5000 I3.0000 J-0.0000 F1020.00
G1 X94.9662 Y367.0000 Z-6.5000 F1020.00
G2 X97.9662 Y364.0000 Z-6.5000 I-0.0000 J-3.0000 F1020.00
G1 X97.9662 Y324.9741 Z-6.5000 F1020.00
G3 X141.9753 Y325.7624 Z-6.5000 I21.7247 J16.0187 F1020.00
G2 X142.6521 Y326.4360 Z-6.5000 I2.4277 J-1.7624 F1020.00
G2 X150.7866 Y327.4529 Z-6.5000 I5.1962 J-8.5228 F1020.00
G1 X150.7866 Y327.4529 Z-7.0000 F1020.00
G2 X156.8565 Y322.2133 Z-7.0000 I-2.9384 J-9.5396 F1020.00
G2 X160.0117 Y269.0717 Z-7.0000 I-76.6709 J-31.2168 F1020.00
G2 X159.5419 Y268.0694 Z-7.0000 I-2.9046 J0.7504 F1020.00
G3 X157.4431 Y96.4269 Z-7.0000 I118.2865 J-87.2805 F1020.00
G2 X157.7947 Y95.7341 Z-7.0000 I-2.4769 J-1.6926 F1020.00
G2 X125.5254 Y-2.4825 Z-7.0000 I-77.8285 J-28.8386 F1020.00
G2 X124.6857 Y-2.8786 Z-7.0000 I-1.6844 J2.4825 F1020.00
G2 X120.9307 Y-0.7281 Z-7.0000 I-0.8447 J2.8786 F1020.00
G3 X39.0017 Y-0.7281 Z-7.0000 I-40.9645 J-9.2737 F1020.00
G2 X34.4070 Y-2.4825 Z-7.0000 I-2.9103 J0.7281 F1020.00
G2 X2.1377 Y95.7341 Z-7.0000 I45.5592 J69.3780 F1020.00
G2 X3.0648 Y97.0547 Z-7.0000 I2.8285 J-0.9998 F1020.00
G3 X5.6999 Y254.4932 Z-7.0000 I-63.5256 J79.8045 F1020.00
G2 X4.9475 Y255.5059 Z-7.0000 I1.9780 J2.2555 F1020.00
G2 X18.2553 Y346.5318 Z-7.0000 I75.0383 J35.5152 F1020.00
G2 X32.5669 Y346.7659 Z-7.0000 I7.2699 J-6.8614 F1020.00
G2 X33.8187 Y345.0935 Z-7.0000 I-3.7348 J-4.1002 F1020.00
G3 X61.9662 Y344.5662 Z-7.0000 I14.1706 J4.9032 F1020.00
G1 X61.9662 Y364.0000 Z-7.0000 F1020.00
G2 X64.9662 Y367.0000 Z-7.0000 I3.0000 J-0.0000 F1020.00
G1 X94.9662 Y367.0000 Z-7.0000 F1020.00
G2 X97.9662 Y364.0000 Z-7.0000 I-0.0000 J-3.0000 F1020.00
G1 X97.9662 Y324.9741 Z-7.0000 F1020.00
G3 X141.9753 Y325.7624 Z-7.0000 I21.7247 J16.0187 F1020.00
G2 X142.6521 Y326.4360 Z-7.0000 I2.4277 J-1.7624 F1020.00
G2 X150.7866 Y327.4529 Z-7.0000 I5.1962 J-8.5228 F1020.00
G1 X150.7866 Y327.4529 Z-7.5000 F1020.00
G2 X156.8565 Y322.2133 Z-7.5000 I-2.9384 J-9.5396 F1020.00
G2 X160.0117 Y269.0717 Z-7.5000 I-76.6709 J-31.2168 F1020.00
G2 X159.5419 Y268.0694 Z-7.5000 I-2.9046 J0.7504 F1020.00
G3 X157.4431 Y96.4269 Z-7.5000 I118.2865 J-87.2805 F1020.00
G2 X157.7947 Y95.7341 Z-7.5000 I-2.4769 J-1.6926 F1020.00
G2 X125.5254 Y-2.4825 Z-7.5000 I-77.8285 J-28.8386 F1020.00
G2 X124.6857 Y-2.8786 Z-7.5000 I-1.6844 J2.4825 F1020.00
G2 X120.9307 Y-0.7281 Z-7.5000 I-0.8447 J2.8786 F1020.00
G3 X39.0017 Y-0.7281 Z-7.5000 I-40.9645 J-9.2737 F1020.00
G2 X34.4070 Y-2.4825 Z-7.5000 I-2.9103 J0.7281 F1020.00
G2 X2.1377 Y95.7341 Z-7.5000 I45.5592 J69.3780 F1020.00
G2 X3.0648 Y97.0547 Z-7.5000 I2.8285 J-0.9998 F1020.00
G3 X5.6999 Y254.4932 Z-7.5000 I-63.5256 J79.8045 F1020.00
G2 X4.9475 Y255.5059 Z-7.5000 I1.9780 J2.2555 F1020.00
G2 X18.2553 Y346.5318 Z-7.5000 I75.0383 J35.5152 F1020.00
G2 X32.5669 Y346.7659 Z-7.5000 I7.2699 J-6.8614 F1020.00
G2 X33.8187 Y345.0935 Z-7.5000 I-3.7348 J-4.1002 F1020.00
G3 X61.9662 Y344.5662 Z-7.5000 I14.1706 J4.9032 F1020.00
G1 X61.9662 Y364.0000 Z-7.5000 F1020.00
G2 X64.9662 Y367.0000 Z-7.5000 I3.0000 J-0.0000 F1020.00
G1 X94.9662 Y367.0000 Z-7.5000 F1020.00
G2 X97.9662 Y364.0000 Z-7.5000 I-0.0000 J-3.0000 F1020.00
G1 X97.9662 Y324.9741 Z-7.5000 F1020.00
G3 X141.9753 Y325.7624 Z-7.5000 I21.7247 J16.0187 F1020.00
G2 X142.6521 Y326.4360 Z-7.5000 I2.4277 J-1.7624 F1020.00
G2 X150.7866 Y327.4529 Z-7.5000 I5.1962 J-8.5228 F1020.00
G1 X150.7866 Y327.4529 Z-8.0000 F1020.00
G2 X156.8565 Y322.2133 Z-8.0000 I-2.9384 J-9.5396 F1020.00
G2 X160.0117 Y269.0717 Z-8.0000 I-76.6709 J-31.2168 F1020.00
G2 X159.5419 Y268.0694 Z-8.0000 I-2.9046 J0.7504 F1020.00
G3 X157.4431 Y96.4269 Z-8.0000 I118.2865 J-87.2805 F1020.00
G2 X157.7947 Y95.7341 Z-8.0000 I-2.4769 J-1.6926 F1020.00
G2 X125.5254 Y-2.4825 Z-8.0000 I-77.8285 J-28.8386 F1020.00
G2 X124.6857 Y-2.8786 Z-8.0000 I-1.6844 J2.4825 F1020.00
G2 X120.9307 Y-0.7281 Z-8.0000 I-0.8447 J2.8786 F1020.00
G3 X39.0017 Y-0.7281 Z-8.0000 I-40.9645 J-9.2737 F1020.00
G2 X34.4070 Y-2.4825 Z-8.0000 I-2.9103 J0.7281 F1020.00
G2 X2.1377 Y95.7341 Z-8.0000 I45.5592 J69.3780 F1020.00
G2 X3.0648 Y97.0547 Z-8.0000 I2.8285 J-0.9998 F1020.00
G3 X5.6999 Y254.4932 Z-8.0000 I-63.5256 J79.8045 F1020.00
G2 X4.9475 Y255.5059 Z-8.0000 I1.9780 J2.2555 F1020.00
G2 X18.2553 Y346.5318 Z-8.0000 I75.0383 J35.5152 F1020.00
G2 X32.5669 Y346.7659 Z-8.0000 I7.2699 J-6.8614 F1020.00
G2 X33.8187 Y345.0935 Z-8.0000 I-3.7348 J-4.1002 F1020.00
G3 X61.9662 Y344.5662 Z-8.0000 I14.1706 J4.9032 F1020.00
G1 X61.9662 Y364.0000 Z-8.0000 F1020.00
G2 X64.9662 Y367.0000 Z-8.0000 I3.0000 J-0.0000 F1020.00
G1 X94.9662 Y367.0000 Z-8.0000 F1020.00
G2 X97.9662 Y364.0000 Z-8.0000 I-0.0000 J-3.0000 F1020.00
G1 X97.9662 Y324.9741 Z-8.0000 F1020.00
G3 X141.9753 Y325.7624 Z-8.0000 I21.7247 J16.0187 F1020.00
G2 X142.6521 Y326.4360 Z-8.0000 I2.4277 J-1.7624 F1020.00
G2 X150.7866 Y327.4529 Z-8.0000 I5.1962 J-8.5228 F1020.00
G1 X150.7866 Y327.4529 Z-8.5000 F1020.00
G2 X156.8565 Y322.2133 Z-8.5000 I-2.9384 J-9.5396 F1020.00
G2 X160.0117 Y269.0717 Z-8.5000 I-76.6709 J-31.2168 F1020.00
G2 X159.5419 Y268.0694 Z-8.5000 I-2.9046 J0.7504 F1020.00
G3 X157.4431 Y96.4269 Z-8.5000 I118.2865 J-87.2805 F1020.00
G2 X157.7947 Y95.7341 Z-8.5000 I-2.4769 J-1.6926 F1020.00
G2 X125.5254 Y-2.4825 Z-8.5000 I-77.8285 J-28.8386 F1020.00
G2 X124.6857 Y-2.8786 Z-8.5000 I-1.6844 J2.4825 F1020.00
G2 X120.9307 Y-0.7281 Z-8.5000 I-0.8447 J2.8786 F1020.00
G3 X39.0017 Y-0.7281 Z-8.5000 I-40.9645 J-9.2737 F1020.00
G2 X34.4070 Y-2.4825 Z-8.5000 I-2.9103 J0.7281 F1020.00
G2 X2.1377 Y95.7341 Z-8.5000 I45.5592 J69.3780 F1020.00
G2 X3.0648 Y97.0547 Z-8.5000 I2.8285 J-0.9998 F1020.00
G3 X5.6999 Y254.4932 Z-8.5000 I-63.5256 J79.8045 F1020.00
G2 X4.9475 Y255.5059 Z-8.5000 I1.9780 J2.2555 F1020.00
G2 X18.2553 Y346.5318 Z-8.5000 I75.0383 J35.5152 F1020.00
G2 X32.5669 Y346.7659 Z-8.5000 I7.2699 J-6.8614 F1020.00
G2 X33.8187 Y345.0935 Z-8.5000 I-3.7348 J-4.1002 F1020.00
G3 X61.9662 Y344.5662 Z-8.5000 I14.1706 J4.9032 F1020.00
G1 X61.9662 Y364.0000 Z-8.5000 F1020.00
G2 X64.9662 Y367.0000 Z-8.5000 I3.0000 J-0.0000 F1020.00
G1 X94.9662 Y367.0000 Z-8.5000 F1020.00
G2 X97.9662 Y364.0000 Z-8.5000 I-0.0000 J-3.0000 F1020.00
G1 X97.9662 Y324.9741 Z-8.5000 F1020.00
G3 X141.9753 Y325.7624 Z-8.5000 I21.7247 J16.0187 F1020.00
G2 X142.6521 Y326.4360 Z-8.5000 I2.4277 J-1.7624 F1020.00
G2 X150.7866 Y327.4529 Z-8.5000 I5.1962 J-8.5228 F1020.00
G1 X150.7866 Y327.4529 Z-9.0000 F1020.00
G2 X156.8565 Y322.2133 Z-9.0000 I-2.9384 J-9.5396 F1020.00
G2 X160.0117 Y269.0717 Z-9.0000 I-76.6709 J-31.2168 F1020.00
G2 X159.5419 Y268.0694 Z-9.0000 I-2.9046 J0.7504 F1020.00
G3 X157.4431 Y96.4269 Z-9.0000 I118.2865 J-87.2805 F1020.00
G2 X157.7947 Y95.7341 Z-9.0000 I-2.4769 J-1.6926 F1020.00
G2 X125.5254 Y-2.4825 Z-9.0000 I-77.8285 J-28.8386 F1020.00
G2 X124.6857 Y-2.8786 Z-9.0000 I-1.6844 J2.4825 F1020.00
G2 X120.9307 Y-0.7281 Z-9.0000 I-0.8447 J2.8786 F1020.00
G3 X39.0017 Y-0.7281 Z-9.0000 I-40.9645 J-9.2737 F1020.00
G2 X34.4070 Y-2.4825 Z-9.0000 I-2.9103 J0.7281 F1020.00
G2 X2.1377 Y95.7341 Z-9.0000 I45.5592 J69.3780 F1020.00
G2 X3.0648 Y97.0547 Z-9.0000 I2.8285 J-0.9998 F1020.00
G3 X5.6999 Y254.4932 Z-9.0000 I-63.5256 J79.8045 F1020.00
G2 X4.9475 Y255.5059 Z-9.0000 I1.9780 J2.2555 F1020.00
G2 X18.2553 Y346.5318 Z-9.0000 I75.0383 J35.5152 F1020.00
G2 X32.5669 Y346.7659 Z-9.0000 I7.2699 J-6.8614 F1020.00
G2 X33.8187 Y345.0935 Z-9.0000 I-3.7348 J-4.1002 F1020.00
G3 X61.9662 Y344.5662 Z-9.0000 I14.1706 J4.9032 F1020.00
G1 X61.9662 Y364.0000 Z-9.0000 F1020.00
G2 X64.9662 Y367.0000 Z-9.0000 I3.0000 J-0.0000 F1020.00
G1 X94.9662 Y367.0000 Z-9.0000 F1020.00
G2 X97.9662 Y364.0000 Z-9.0000 I-0.0000 J-3.0000 F1020.00
G1 X97.9662 Y324.9741 Z-9.0000 F1020.00
G3 X141.9753 Y325.7624 Z-9.0000 I21.7247 J16.0187 F1020.00
G2 X142.6521 Y326.4360 Z-9.0000 I2.4277 J-1.7624 F1020.00
G2 X150.7866 Y327.4529 Z-9.0000 I5.1962 J-8.5228 F1020.00
G1 X150.7866 Y327.4529 Z-9.5000 F1020.00
G2 X156.8565 Y322.2133 Z-9.5000 I-2.9384 J-9.5396 F1020.00
G2 X160.0117 Y269.0717 Z-9.5000 I-76.6709 J-31.2168 F1020.00
G2 X159.5419 Y268.0694 Z-9.5000 I-2.9046 J0.7504 F1020.00
G3 X157.4431 Y96.4269 Z-9.5000 I118.2865 J-87.2805 F1020.00
G2 X157.7947 Y95.7341 Z-9.5000 I-2.4769 J-1.6926 F1020.00
G2 X125.5254 Y-2.4825 Z-9.5000 I-77.8285 J-28.8386 F1020.00
G2 X124.6857 Y-2.8786 Z-9.5000 I-1.6844 J2.4825 F1020.00
G2 X120.9307 Y-0.7281 Z-9.5000 I-0.8447 J2.8786 F1020.00
G3 X39.0017 Y-0.7281 Z-9.5000 I-40.9645 J-9.2737 F1020.00
G2 X34.4070 Y-2.4825 Z-9.5000 I-2.9103 J0.7281 F1020.00
G2 X2.1377 Y95.7341 Z-9.5000 I45.5592 J69.3780 F1020.00
G2 X3.0648 Y97.0547 Z-9.5000 I2.8285 J-0.9998 F1020.00
G3 X5.6999 Y254.4932 Z-9.5000 I-63.5256 J79.8045 F1020.00
G2 X4.9475 Y255.5059 Z-9.5000 I1.9780 J2.2555 F1020.00
G2 X18.2553 Y346.5318 Z-9.5000 I75.0383 J35.5152 F1020.00
G2 X32.5669 Y346.7659 Z-9.5000 I7.2699 J-6.8614 F1020.00
G2 X33.8187 Y345.0935 Z-9.5000 I-3.7348 J-4.1002 F1020.00
G3 X61.9662 Y344.5662 Z-9.5000 I14.1706 J4.9032 F1020.00
G1 X61.9662 Y364.0000 Z-9.5000 F1020.00
G2 X64.9662 Y367.0000 Z-9.5000 I3.0000 J-0.0000 F1020.00
G1 X94.9662 Y367.0000 Z-9.5000 F1020.00
G2 X97.9662 Y364.0000 Z-9.5000 I-0.0000 J-3.0000 F1020.00
G1 X97.9662 Y324.9741 Z-9.5000 F1020.00
G3 X141.9753 Y325.7624 Z-9.5000 I21.7247 J16.0187 F1020.00
G2 X142.6521 Y326.4360 Z-9.5000 I2.4277 J-1.7624 F1020.00
G2 X150.7866 Y327.4529 Z-9.5000 I5.1962 J-8.5228 F1020.00
G1 X150.7866 Y327.4529 Z-10.0000 F1020.00
G2 X156.8565 Y322.2133 Z-10.0000 I-2.9384 J-9.5396 F1020.00
G2 X160.0117 Y269.0717 Z-10.0000 I-76.6709 J-31.2168 F1020.00
G2 X159.5419 Y268.0694 Z-10.0000 I-2.9046 J0.7504 F1020.00
G3 X157.4431 Y96.4269 Z-10.0000 I118.2865 J-87.2805 F1020.00
G2 X157.7947 Y95.7341 Z-10.0000 I-2.4769 J-1.6926 F1020.00
G2 X125.5254 Y-2.4825 Z-10.0000 I-77.8285 J-28.8386 F1020.00
G2 X124.6857 Y-2.8786 Z-10.0000 I-1.6844 J2.4825 F1020.00
G2 X120.9307 Y-0.7281 Z-10.0000 I-0.8447 J2.8786 F1020.00
G3 X39.0017 Y-0.7281 Z-10.0000 I-40.9645 J-9.2737 F1020.00
G2 X34.4070 Y-2.4825 Z-10.0000 I-2.9103 J0.7281 F1020.00
G2 X2.1377 Y95.7341 Z-10.0000 I45.5592 J69.3780 F1020.00
G2 X3.0648 Y97.0547 Z-10.0000 I2.8285 J-0.9998 F1020.00
G3 X5.6999 Y254.4932 Z-10.0000 I-63.5256 J79.8045 F1020.00
G2 X4.9475 Y255.5059 Z-10.0000 I1.9780 J2.2555 F1020.00
G2 X18.2553 Y346.5318 Z-10.0000 I75.0383 J35.5152 F1020.00
G2 X32.5669 Y346.7659 Z-10.0000 I7.2699 J-6.8614 F1020.00
G2 X33.8187 Y345.0935 Z-10.0000 I-3.7348 J-4.1002 F1020.00
G3 X61.9662 Y344.5662 Z-10.0000 I14.1706 J4.9032 F1020.00
G1 X61.9662 Y364.0000 Z-10.0000 F1020.00
G2 X64.9662 Y367.0000 Z-10.0000 I3.0000 J-0.0000 F1020.00
G1 X94.9662 Y367.0000 Z-10.0000 F1020.00
G2 X97.9662 Y364.0000 Z-10.0000 I-0.0000 J-3.0000 F1020.00
G1 X97.9662 Y324.9741 Z-10.0000 F1020.00
G3 X141.9753 Y325.7624 Z-10.0000 I21.7247 J16.0187 F1020.00
G2 X142.6521 Y326.4360 Z-10.0000 I2.4277 J-1.7624 F1020.00
G2 X150.7866 Y327.4529 Z-10.0000 I5.1962 J-8.5228 F1020.00
G1 X150.7866 Y327.4529 Z-10.5000 F1020.00
G2 X156.8565 Y322.2133 Z-10.5000 I-2.9384 J-9.5396 F1020.00
G2 X160.0117 Y269.0717 Z-10.5000 I-76.6709 J-31.2168 F1020.00
G2 X159.5419 Y268.0694 Z-10.5000 I-2.9046 J0.7504 F1020.00
G3 X157.4431 Y96.4269 Z-10.5000 I118.2865 J-87.2805 F1020.00
G2 X157.7947 Y95.7341 Z-10.5000 I-2.4769 J-1.6926 F1020.00
G2 X125.5254 Y-2.4825 Z-10.5000 I-77.8285 J-28.8386 F1020.00
G2 X124.6857 Y-2.8786 Z-10.5000 I-1.6844 J2.4825 F1020.00
G2 X120.9307 Y-0.7281 Z-10.5000 I-0.8447 J2.8786 F1020.00
G3 X39.0017 Y-0.7281 Z-10.5000 I-40.9645 J-9.2737 F1020.00
G2 X34.4070 Y-2.4825 Z-10.5000 I-2.9103 J0.7281 F1020.00
G2 X2.1377 Y95.7341 Z-10.5000 I45.5592 J69.3780 F1020.00
G2 X3.0648 Y97.0547 Z-10.5000 I2.8285 J-0.9998 F1020.00
G3 X5.6999 Y254.4932 Z-10.5000 I-63.5256 J79.8045 F1020.00
G2 X4.9475 Y255.5059 Z-10.5000 I1.9780 J2.2555 F1020.00
G2 X18.2553 Y346.5318 Z-10.5000 I75.0383 J35.5152 F1020.00
G2 X32.5669 Y346.7659 Z-10.5000 I7.2699 J-6.8614 F1020.00
G2 X33.8187 Y345.0935 Z-10.5000 I-3.7348 J-4.1002 F1020.00
G3 X61.9662 Y344.5662 Z-10.5000 I14.1706 J4.9032 F1020.00
G1 X61.9662 Y364.0000 Z-10.5000 F1020.00
G2 X64.9662 Y367.0000 Z-10.5000 I3.0000 J-0.0000 F1020.00
G1 X94.9662 Y367.0000 Z-10.5000 F1020.00
G2 X97.9662 Y364.0000 Z-10.5000 I-0.0000 J-3.0000 F1020.00
G1 X97.9662 Y324.9741 Z-10.5000 F1020.00
G3 X141.9753 Y325.7624 Z-10.5000 I21.7247 J16.0187 F1020.00
G2 X142.6521 Y326.4360 Z-10.5000 I2.4277 J-1.7624 F1020.00
G2 X150.7866 Y327.4529 Z-10.5000 I5.1962 J-8.5228 F1020.00
G1 X150.7866 Y327.4529 Z-11.0000 F1020.00
G2 X156.8565 Y322.2133 Z-11.0000 I-2.9384 J-9.5396 F1020.00
G2 X160.0117 Y269.0717 Z-11.0000 I-76.6709 J-31.2168 F1020.00
G2 X159.5419 Y268.0694 Z-11.0000 I-2.9046 J0.7504 F1020.00
G3 X157.4431 Y96.4269 Z-11.0000 I118.2865 J-87.2805 F1020.00
G2 X157.7947 Y95.7341 Z-11.0000 I-2.4769 J-1.6926 F1020.00
G2 X125.5254 Y-2.4825 Z-11.0000 I-77.8285 J-28.8386 F1020.00
G2 X124.6857 Y-2.8786 Z-11.0000 I-1.6844 J2.4825 F1020.00
G2 X120.9307 Y-0.7281 Z-11.0000 I-0.8447 J2.8786 F1020.00
G3 X39.0017 Y-0.7281 Z-11.0000 I-40.9645 J-9.2737 F1020.00
G2 X34.4070 Y-2.4825 Z-11.0000 I-2.9103 J0.7281 F1020.00
G2 X2.1377 Y95.7341 Z-11.0000 I45.5592 J69.3780 F1020.00
G2 X3.0648 Y97.0547 Z-11.0000 I2.8285 J-0.9998 F1020.00
G3 X5.6999 Y254.4932 Z-11.0000 I-63.5256 J79.8045 F1020.00
G2 X4.9475 Y255.5059 Z-11.0000 I1.9780 J2.2555 F1020.00
G2 X18.2553 Y346.5318 Z-11.0000 I75.0383 J35.5152 F1020.00
G2 X32.5669 Y346.7659 Z-11.0000 I7.2699 J-6.8614 F1020.00
G2 X33.8187 Y345.0935 Z-11.0000 I-3.7348 J-4.1002 F1020.00
G3 X61.9662 Y344.5662 Z-11.0000 I14.1706 J4.9032 F1020.00
G1 X61.9662 Y364.0000 Z-11.0000 F1020.00
G2 X64.9662 Y367.0000 Z-11.0000 I3.0000 J-0.0000 F1020.00
G1 X94.9662 Y367.0000 Z-11.0000 F1020.00
G2 X97.9662 Y364.0000 Z-11.0000 I-0.0000 J-3.0000 F1020.00
G1 X97.9662 Y324.9741 Z-11.0000 F1020.00
G3 X141.9753 Y325.7624 Z-11.0000 I21.7247 J16.0187 F1020.00
G2 X142.6521 Y326.4360 Z-11.0000 I2.4277 J-1.7624 F1020.00
G2 X150.7866 Y327.4529 Z-11.0000 I5.1962 J-8.5228 F1020.00
G1 X150.7866 Y327.4529 Z-11.5000 F1020.00
G2 X156.8565 Y322.2133 Z-11.5000 I-2.9384 J-9.5396 F1020.00
G2 X160.0117 Y269.0717 Z-11.5000 I-76.6709 J-31.2168 F1020.00
G2 X159.5419 Y268.0694 Z-11.5000 I-2.9046 J0.7504 F1020.00
G3 X157.4431 Y96.4269 Z-11.5000 I118.2865 J-87.2805 F1020.00
G2 X157.7947 Y95.7341 Z-11.5000 I-2.4769 J-1.6926 F1020.00
G2 X125.5254 Y-2.4825 Z-11.5000 I-77.8285 J-28.8386 F1020.00
G2 X124.6857 Y-2.8786 Z-11.5000 I-1.6844 J2.4825 F1020.00
G2 X120.9307 Y-0.7281 Z-11.5000 I-0.8447 J2.8786 F1020.00
G3 X39.0017 Y-0.7281 Z-11.5000 I-40.9645 J-9.2737 F1020.00
G2 X34.4070 Y-2.4825 Z-11.5000 I-2.9103 J0.7281 F1020.00
G2 X2.1377 Y95.7341 Z-11.5000 I45.5592 J69.3780 F1020.00
G2 X3.0648 Y97.0547 Z-11.5000 I2.8285 J-0.9998 F1020.00
G3 X5.6999 Y254.4932 Z-11.5000 I-63.5256 J79.8045 F1020.00
G2 X4.9475 Y255.5059 Z-11.5000 I1.9780 J2.2555 F1020.00
G2 X18.2553 Y346.5318 Z-11.5000 I75.0383 J35.5152 F1020.00
G2 X32.5669 Y346.7659 Z-11.5000 I7.2699 J-6.8614 F1020.00
G2 X33.8187 Y345.0935 Z-11.5000 I-3.7348 J-4.1002 F1020.00
G3 X61.9662 Y344.5662 Z-11.5000 I14.1706 J4.9032 F1020.00
G1 X61.9662 Y364.0000 Z-11.5000 F1020.00
G2 X64.9662 Y367.0000 Z-11.5000 I3.0000 J-0.0000 F1020.00
G1 X94.9662 Y367.0000 Z-11.5000 F1020.00
G2 X97.9662 Y364.0000 Z-11.5000 I-0.0000 J-3.0000 F1020.00
G1 X97.9662 Y324.9741 Z-11.5000 F1020.00
G3 X141.9753 Y325.7624 Z-11.5000 I21.7247 J16.0187 F1020.00
G2 X142.6521 Y326.4360 Z-11.5000 I2.4277 J-1.7624 F1020.00
G2 X150.7866 Y327.4529 Z-11.5000 I5.1962 J-8.5228 F1020.00
G1 X150.7866 Y327.4529 Z-12.0000 F1020.00
G2 X156.8565 Y322.2133 Z-12.0000 I-2.9384 J-9.5396 F1020.00
G2 X160.0117 Y269.0717 Z-12.0000 I-76.6709 J-31.2168 F1020.00
G2 X159.5419 Y268.0694 Z-12.0000 I-2.9046 J0.7504 F1020.00
G3 X157.4431 Y96.4269 Z-12.0000 I118.2865 J-87.2805 F1020.00
G2 X157.7947 Y95.7341 Z-12.0000 I-2.4769 J-1.6926 F1020.00
G2 X125.5254 Y-2.4825 Z-12.0000 I-77.8285 J-28.8386 F1020.00
G2 X124.6857 Y-2.8786 Z-12.0000 I-1.6844 J2.4825 F1020.00
G2 X120.9307 Y-0.7281 Z-12.0000 I-0.8447 J2.8786 F1020.00
G3 X39.0017 Y-0.7281 Z-12.0000 I-40.9645 J-9.2737 F1020.00
G2 X34.4070 Y-2.4825 Z-12.0000 I-2.9103 J0.7281 F1020.00
G2 X2.1377 Y95.7341 Z-12.0000 I45.5592 J69.3780 F1020.00
G2 X3.0648 Y97.0547 Z-12.0000 I2.8285 J-0.9998 F1020.00
G3 X5.6999 Y254.4932 Z-12.0000 I-63.5256 J79.8045 F1020.00
G2 X4.9475 Y255.5059 Z-12.0000 I1.9780 J2.2555 F1020.00
G2 X18.2553 Y346.5318 Z-12.0000 I75.0383 J35.5152 F1020.00
G2 X32.5669 Y346.7659 Z-12.0000 I7.2699 J-6.8614 F1020.00
G2 X33.8187 Y345.0935 Z-12.0000 I-3.7348 J-4.1002 F1020.00
G3 X61.9662 Y344.5662 Z-12.0000 I14.1706 J4.9032 F1020.00
G1 X61.9662 Y364.0000 Z-12.0000 F1020.00
G2 X64.9662 Y367.0000 Z-12.0000 I3.0000 J-0.0000 F1020.00
G1 X94.9662 Y367.0000 Z-12.0000 F1020.00
G2 X97.9662 Y364.0000 Z-12.0000 I-0.0000 J-3.0000 F1020.00
G1 X97.9662 Y324.9741 Z-12.0000 F1020.00
G3 X141.9753 Y325.7624 Z-12.0000 I21.7247 J16.0187 F1020.00
G2 X142.6521 Y326.4360 Z-12.0000 I2.4277 J-1.7624 F1020.00
G2 X150.7866 Y327.4529 Z-12.0000 I5.1962 J-8.5228 F1020.00
G1 X150.7866 Y327.4529 Z-12.5000 F1020.00
G2 X156.8565 Y322.2133 Z-12.5000 I-2.9384 J-9.5396 F1020.00
G2 X160.0117 Y269.0717 Z-12.5000 I-76.6709 J-31.2168 F1020.00
G2 X159.5419 Y268.0694 Z-12.5000 I-2.9046 J0.7504 F1020.00
G3 X157.4431 Y96.4269 Z-12.5000 I118.2865 J-87.2805 F1020.00
G2 X157.7947 Y95.7341 Z-12.5000 I-2.4769 J-1.6926 F1020.00
G2 X125.5254 Y-2.4825 Z-12.5000 I-77.8285 J-28.8386 F1020.00
G2 X124.6857 Y-2.8786 Z-12.5000 I-1.6844 J2.4825 F1020.00
G2 X120.9307 Y-0.7281 Z-12.5000 I-0.8447 J2.8786 F1020.00
G3 X39.0017 Y-0.7281 Z-12.5000 I-40.9645 J-9.2737 F1020.00
G2 X34.4070 Y-2.4825 Z-12.5000 I-2.9103 J0.7281 F1020.00
G2 X2.1377 Y95.7341 Z-12.5000 I45.5592 J69.3780 F1020.00
G2 X3.0648 Y97.0547 Z-12.5000 I2.8285 J-0.9998 F1020.00
G3 X5.6999 Y254.4932 Z-12.5000 I-63.5256 J79.8045 F1020.00
G2 X4.9475 Y255.5059 Z-12.5000 I1.9780 J2.2555 F1020.00
G2 X18.2553 Y346.5318 Z-12.5000 I75.0383 J35.5152 F1020.00
G2 X32.5669 Y346.7659 Z-12.5000 I7.2699 J-6.8614 F1020.00
G2 X33.8187 Y345.0935 Z-12.5000 I-3.7348 J-4.1002 F1020.00
G3 X61.9662 Y344.5662 Z-12.5000 I14.1706 J4.9032 F1020.00
G1 X61.9662 Y364.0000 Z-12.5000 F1020.00
G2 X64.9662 Y367.0000 Z-12.5000 I3.0000 J-0.0000 F1020.00
G1 X94.9662 Y367.0000 Z-12.5000 F1020.00
G2 X97.9662 Y364.0000 Z-12.5000 I-0.0000 J-3.0000 F1020.00
G1 X97.9662 Y324.9741 Z-12.5000 F1020.00
G3 X141.9753 Y325.7624 Z-12.5000 I21.7247 J16.0187 F1020.00
G2 X142.6521 Y326.4360 Z-12.5000 I2.4277 J-1.7624 F1020.00
G2 X150.7866 Y327.4529 Z-12.5000 I5.1962 J-8.5228 F1020.00
G1 X150.7866 Y327.4529 Z-13.0000 F1020.00
G2 X156.8565 Y322.2133 Z-13.0000 I-2.9384 J-9.5396 F1020.00
G2 X160.0117 Y269.0717 Z-13.0000 I-76.6709 J-31.2168 F1020.00
G2 X159.5419 Y268.0694 Z-13.0000 I-2.9046 J0.7504 F1020.00
G3 X157.4431 Y96.4269 Z-13.0000 I118.2865 J-87.2805 F1020.00
G2 X157.7947 Y95.7341 Z-13.0000 I-2.4769 J-1.6926 F1020.00
G2 X125.5254 Y-2.4825 Z-13.0000 I-77.8285 J-28.8386 F1020.00
G2 X124.6857 Y-2.8786 Z-13.0000 I-1.6844 J2.4825 F1020.00
G2 X120.9307 Y-0.7281 Z-13.0000 I-0.8447 J2.8786 F1020.00
G3 X39.0017 Y-0.7281 Z-13.0000 I-40.9645 J-9.2737 F1020.00
G2 X34.4070 Y-2.4825 Z-13.0000 I-2.9103 J0.7281 F1020.00
G2 X2.1377 Y95.7341 Z-13.0000 I45.5592 J69.3780 F1020.00
G2 X3.0648 Y97.0547 Z-13.0000 I2.8285 J-0.9998 F1020.00
G3 X5.6999 Y254.4932 Z-13.0000 I-63.5256 J79.8045 F1020.00
G2 X4.9475 Y255.5059 Z-13.0000 I1.9780 J2.2555 F1020.00
G2 X18.2553 Y346.5318 Z-13.0000 I75.0383 J35.5152 F1020.00
G2 X32.5669 Y346.7659 Z-13.0000 I7.2699 J-6.8614 F1020.00
G2 X33.8187 Y345.0935 Z-13.0000 I-3.7348 J-4.1002 F1020.00
G3 X61.9662 Y344.5662 Z-13.0000 I14.1706 J4.9032 F1020.00
G1 X61.9662 Y364.0000 Z-13.0000 F1020.00
G2 X64.9662 Y367.0000 Z-13.0000 I3.0000 J-0.0000 F1020.00
G1 X94.9662 Y367.0000 Z-13.0000 F1020.00
G2 X97.9662 Y364.0000 Z-13.0000 I-0.0000 J-3.0000 F1020.00
G1 X97.9662 Y324.9741 Z-13.0000 F1020.00
G3 X141.9753 Y325.7624 Z-13.0000 I21.7247 J16.0187 F1020.00
G2 X142.6521 Y326.4360 Z-13.0000 I2.4277 J-1.7624 F1020.00
G2 X150.7866 Y327.4529 Z-13.0000 I5.1962 J-8.5228 F1020.00
G1 X150.7866 Y327.4529 Z-13.5000 F1020.00
G2 X156.8565 Y322.2133 Z-13.5000 I-2.9384 J-9.5396 F1020.00
G2 X160.0117 Y269.0717 Z-13.5000 I-76.6709 J-31.2168 F1020.00
G2 X159.5419 Y268.0694 Z-13.5000 I-2.9046 J0.7504 F1020.00
G3 X157.4431 Y96.4269 Z-13.5000 I118.2865 J-87.2805 F1020.00
G2 X157.7947 Y95.7341 Z-13.5000 I-2.4769 J-1.6926 F1020.00
G2 X125.5254 Y-2.4825 Z-13.5000 I-77.8285 J-28.8386 F1020.00
G2 X124.6857 Y-2.8786 Z-13.5000 I-1.6844 J2.4825 F1020.00
G2 X120.9307 Y-0.7281 Z-13.5000 I-0.8447 J2.8786 F1020.00
G3 X39.0017 Y-0.7281 Z-13.5000 I-40.9645 J-9.2737 F1020.00
G2 X34.4070 Y-2.4825 Z-13.5000 I-2.9103 J0.7281 F1020.00
G2 X2.1377 Y95.7341 Z-13.5000 I45.5592 J69.3780 F1020.00
G2 X3.0648 Y97.0547 Z-13.5000 I2.8285 J-0.9998 F1020.00
G3 X5.6999 Y254.4932 Z-13.5000 I-63.5256 J79.8045 F1020.00
G2 X4.9475 Y255.5059 Z-13.5000 I1.9780 J2.2555 F1020.00
G2 X18.2553 Y346.5318 Z-13.5000 I75.0383 J35.5152 F1020.00
G2 X32.5669 Y346.7659 Z-13.5000 I7.2699 J-6.8614 F1020.00
G2 X33.8187 Y345.0935 Z-13.5000 I-3.7348 J-4.1002 F1020.00
G3 X61.9662 Y344.5662 Z-13.5000 I14.1706 J4.9032 F1020.00
G1 X61.9662 Y364.0000 Z-13.5000 F1020.00
G2 X64.9662 Y367.0000 Z-13.5000 I3.0000 J-0.0000 F1020.00
G1 X94.9662 Y367.0000 Z-13.5000 F1020.00
G2 X97.9662 Y364.0000 Z-13.5000 I-0.0000 J-3.0000 F1020.00
G1 X97.9662 Y324.9741 Z-13.5000 F1020.00
G3 X141.9753 Y325.7624 Z-13.5000 I21.7247 J16.0187 F1020.00
G2 X142.6521 Y326.4360 Z-13.5000 I2.4277 J-1.7624 F1020.00
G2 X150.7866 Y327.4529 Z-13.5000 I5.1962 J-8.5228 F1020.00
G1 X150.7866 Y327.4529 Z-14.0000 F1020.00
G2 X156.8565 Y322.2133 Z-14.0000 I-2.9384 J-9.5396 F1020.00
G2 X160.0117 Y269.0717 Z-14.0000 I-76.6709 J-31.2168 F1020.00
G2 X159.5419 Y268.0694 Z-14.0000 I-2.9046 J0.7504 F1020.00
G3 X157.4431 Y96.4269 Z-14.0000 I118.2865 J-87.2805 F1020.00
G2 X157.7947 Y95.7341 Z-14.0000 I-2.4769 J-1.6926 F1020.00
G2 X125.5254 Y-2.4825 Z-14.0000 I-77.8285 J-28.8386 F1020.00
G2 X124.6857 Y-2.8786 Z-14.0000 I-1.6844 J2.4825 F1020.00
G2 X120.9307 Y-0.7281 Z-14.0000 I-0.8447 J2.8786 F1020.00
G3 X39.0017 Y-0.7281 Z-14.0000 I-40.9645 J-9.2737 F1020.00
G2 X34.4070 Y-2.4825 Z-14.0000 I-2.9103 J0.7281 F1020.00
G2 X2.1377 Y95.7341 Z-14.0000 I45.5592 J69.3780 F1020.00
G2 X3.0648 Y97.0547 Z-14.0000 I2.8285 J-0.9998 F1020.00
G3 X5.6999 Y254.4932 Z-14.0000 I-63.5256 J79.8045 F1020.00
G2 X4.9475 Y255.5059 Z-14.0000 I1.9780 J2.2555 F1020.00
G2 X18.2553 Y346.5318 Z-14.0000 I75.0383 J35.5152 F1020.00
G2 X32.5669 Y346.7659 Z-14.0000 I7.2699 J-6.8614 F1020.00
G2 X33.8187 Y345.0935 Z-14.0000 I-3.7348 J-4.1002 F1020.00
G3 X61.9662 Y344.5662 Z-14.0000 I14.1706 J4.9032 F1020.00
G1 X61.9662 Y364.0000 Z-14.0000 F1020.00
G2 X64.9662 Y367.0000 Z-14.0000 I3.0000 J-0.0000 F1020.00
G1 X94.9662 Y367.0000 Z-14.0000 F1020.00
G2 X97.9662 Y364.0000 Z-14.0000 I-0.0000 J-3.0000 F1020.00
G1 X97.9662 Y324.9741 Z-14.0000 F1020.00
G3 X141.9753 Y325.7624 Z-14.0000 I21.7247 J16.0187 F1020.00
G2 X142.6521 Y326.4360 Z-14.0000 I2.4277 J-1.7624 F1020.00
G2 X150.7866 Y327.4529 Z-14.0000 I5.1962 J-8.5228 F1020.00
G1 X150.7866 Y327.4529 Z-14.5000 F1020.00
G2 X156.8565 Y322.2133 Z-14.5000 I-2.9384 J-9.5396 F1020.00
G2 X160.0117 Y269.0717 Z-14.5000 I-76.6709 J-31.2168 F1020.00
G2 X159.5419 Y268.0694 Z-14.5000 I-2.9046 J0.7504 F1020.00
G3 X157.4431 Y96.4269 Z-14.5000 I118.2865 J-87.2805 F1020.00
G2 X157.7947 Y95.7341 Z-14.5000 I-2.4769 J-1.6926 F1020.00
G2 X125.5254 Y-2.4825 Z-14.5000 I-77.8285 J-28.8386 F1020.00
G2 X124.6857 Y-2.8786 Z-14.5000 I-1.6844 J2.4825 F1020.00
G2 X120.9307 Y-0.7281 Z-14.5000 I-0.8447 J2.8786 F1020.00
G3 X39.0017 Y-0.7281 Z-14.5000 I-40.9645 J-9.2737 F1020.00
G2 X34.4070 Y-2.4825 Z-14.5000 I-2.9103 J0.7281 F1020.00
G2 X2.1377 Y95.7341 Z-14.5000 I45.5592 J69.3780 F1020.00
G2 X3.0648 Y97.0547 Z-14.5000 I2.8285 J-0.9998 F1020.00
G3 X5.6999 Y254.4932 Z-14.5000 I-63.5256 J79.8045 F1020.00
G2 X4.9475 Y255.5059 Z-14.5000 I1.9780 J2.2555 F1020.00
G2 X18.2553 Y346.5318 Z-14.5000 I75.0383 J35.5152 F1020.00
G2 X32.5669 Y346.7659 Z-14.5000 I7.2699 J-6.8614 F1020.00
G2 X33.8187 Y345.0935 Z-14.5000 I-3.7348 J-4.1002 F1020.00
G3 X61.9662 Y344.5662 Z-14.5000 I14.1706 J4.9032 F1020.00
G1 X61.9662 Y364.0000 Z-14.5000 F1020.00
G2 X64.9662 Y367.0000 Z-14.5000 I3.0000 J-0.0000 F1020.00
G1 X94.9662 Y367.0000 Z-14.5000 F1020.00
G2 X97.9662 Y364.0000 Z-14.5000 I-0.0000 J-3.0000 F1020.00
G1 X97.9662 Y324.9741 Z-14.5000 F1020.00
G3 X141.9753 Y325.7624 Z-14.5000 I21.7247 J16.0187 F1020.00
G2 X142.6521 Y326.4360 Z-14.5000 I2.4277 J-1.7624 F1020.00
G2 X150.7866 Y327.4529 Z-14.5000 I5.1962 J-8.5228 F1020.00
G1 X150.7866 Y327.4529 Z-15.0000 F1020.00
G2 X156.8565 Y322.2133 Z-15.0000 I-2.9384 J-9.5396 F1020.00
G2 X160.0117 Y269.0717 Z-15.0000 I-76.6709 J-31.2168 F1020.00
G2 X159.5419 Y268.0694 Z-15.0000 I-2.9046 J0.7504 F1020.00
G3 X157.4431 Y96.4269 Z-15.0000 I118.2865 J-87.2805 F1020.00
G2 X157.7947 Y95.7341 Z-15.0000 I-2.4769 J-1.6926 F1020.00
G2 X125.5254 Y-2.4825 Z-15.0000 I-77.8285 J-28.8386 F1020.00
G2 X124.6857 Y-2.8786 Z-15.0000 I-1.6844 J2.4825 F1020.00
G2 X120.9307 Y-0.7281 Z-15.0000 I-0.8447 J2.8786 F1020.00
G3 X39.0017 Y-0.7281 Z-15.0000 I-40.9645 J-9.2737 F1020.00
G2 X34.4070 Y-2.4825 Z-15.0000 I-2.9103 J0.7281 F1020.00
G2 X2.1377 Y95.7341 Z-15.0000 I45.5592 J69.3780 F1020.00
G2 X3.0648 Y97.0547 Z-15.0000 I2.8285 J-0.9998 F1020.00
G3 X5.6999 Y254.4932 Z-15.0000 I-63.5256 J79.8045 F1020.00
G2 X4.9475 Y255.5059 Z-15.0000 I1.9780 J2.2555 F1020.00
G2 X18.2553 Y346.5318 Z-15.0000 I75.0383 J35.5152 F1020.00
G2 X32.5669 Y346.7659 Z-15.0000 I7.2699 J-6.8614 F1020.00
G2 X33.8187 Y345.0935 Z-15.0000 I-3.7348 J-4.1002 F1020.00
G3 X61.9662 Y344.5662 Z-15.0000 I14.1706 J4.9032 F1020.00
G1 X61.9662 Y364.0000 Z-15.0000 F1020.00
G2 X64.9662 Y367.0000 Z-15.0000 I3.0000 J-0.0000 F1020.00
G1 X94.9662 Y367.0000 Z-15.0000 F1020.00
G2 X97.9662 Y364.0000 Z-15.0000 I-0.0000 J-3.0000 F1020.00
G1 X97.9662 Y324.9741 Z-15.0000 F1020.00
G3 X141.9753 Y325.7624 Z-15.0000 I21.7247 J16.0187 F1020.00
G2 X142.6521 Y326.4360 Z-15.0000 I2.4277 J-1.7624 F1020.00
G2 X150.7866 Y327.4529 Z-15.0000 I5.1962 J-8.5228 F1020.00
G1 X150.7866 Y327.4529 Z-15.5000 F1020.00
G2 X156.8565 Y322.2133 Z-15.5000 I-2.9384 J-9.5396 F1020.00
G2 X160.0117 Y269.0717 Z-15.5000 I-76.6709 J-31.2168 F1020.00
G2 X159.5419 Y268.0694 Z-15.5000 I-2.9046 J0.7504 F1020.00
G3 X157.4431 Y96.4269 Z-15.5000 I118.2865 J-87.2805 F1020.00
G2 X157.7947 Y95.7341 Z-15.5000 I-2.4769 J-1.6926 F1020.00
G2 X125.5254 Y-2.4825 Z-15.5000 I-77.8285 J-28.8386 F1020.00
G2 X124.6857 Y-2.8786 Z-15.5000 I-1.6844 J2.4825 F1020.00
G2 X120.9307 Y-0.7281 Z-15.5000 I-0.8447 J2.8786 F1020.00
G3 X39.0017 Y-0.7281 Z-15.5000 I-40.9645 J-9.2737 F1020.00
G2 X34.4070 Y-2.4825 Z-15.5000 I-2.9103 J0.7281 F1020.00
G2 X2.1377 Y95.7341 Z-15.5000 I45.5592 J69.3780 F1020.00
G2 X3.0648 Y97.0547 Z-15.5000 I2.8285 J-0.9998 F1020.00
G3 X5.6999 Y254.4932 Z-15.5000 I-63.5256 J79.8045 F1020.00
G2 X4.9475 Y255.5059 Z-15.5000 I1.9780 J2.2555 F1020.00
G2 X18.2553 Y346.5318 Z-15.5000 I75.0383 J35.5152 F1020.00
G2 X32.5669 Y346.7659 Z-15.5000 I7.2699 J-6.8614 F1020.00
G2 X33.8187 Y345.0935 Z-15.5000 I-3.7348 J-4.1002 F1020.00
G3 X61.9662 Y344.5662 Z-15.5000 I14.1706 J4.9032 F1020.00
G1 X61.9662 Y364.0000 Z-15.5000 F1020.00
G2 X64.9662 Y367.0000 Z-15.5000 I3.0000 J-0.0000 F1020.00
G1 X94.9662 Y367.0000 Z-15.5000 F1020.00
G2 X97.9662 Y364.0000 Z-15.5000 I-0.0000 J-3.0000 F1020.00
G1 X97.9662 Y324.9741 Z-15.5000 F1020.00
G3 X141.9753 Y325.7624 Z-15.5000 I21.7247 J16.0187 F1020.00
G2 X142.6521 Y326.4360 Z-15.5000 I2.4277 J-1.7624 F1020.00
G2 X150.7866 Y327.4529 Z-15.5000 I5.1962 J-8.5228 F1020.00
G1 X150.7866 Y327.4529 Z-16.0000 F1020.00
G2 X156.8565 Y322.2133 Z-16.0000 I-2.9384 J-9.5396 F1020.00
G2 X160.0117 Y269.0717 Z-16.0000 I-76.6709 J-31.2168 F1020.00
G2 X159.5419 Y268.0694 Z-16.0000 I-2.9046 J0.7504 F1020.00
G3 X157.4431 Y96.4269 Z-16.0000 I118.2865 J-87.2805 F1020.00
G2 X157.7947 Y95.7341 Z-16.0000 I-2.4769 J-1.6926 F1020.00
G2 X125.5254 Y-2.4825 Z-16.0000 I-77.8285 J-28.8386 F1020.00
G2 X124.6857 Y-2.8786 Z-16.0000 I-1.6844 J2.4825 F1020.00
G2 X120.9307 Y-0.7281 Z-16.0000 I-0.8447 J2.8786 F1020.00
G3 X39.0017 Y-0.7281 Z-16.0000 I-40.9645 J-9.2737 F1020.00
G2 X34.4070 Y-2.4825 Z-16.0000 I-2.9103 J0.7281 F1020.00
G2 X2.1377 Y95.7341 Z-16.0000 I45.5592 J69.3780 F1020.00
G2 X3.0648 Y97.0547 Z-16.0000 I2.8285 J-0.9998 F1020.00
G3 X5.6999 Y254.4932 Z-16.0000 I-63.5256 J79.8045 F1020.00
G2 X4.9475 Y255.5059 Z-16.0000 I1.9780 J2.2555 F1020.00
G2 X18.2553 Y346.5318 Z-16.0000 I75.0383 J35.5152 F1020.00
G2 X32.5669 Y346.7659 Z-16.0000 I7.2699 J-6.8614 F1020.00
G2 X33.8187 Y345.0935 Z-16.0000 I-3.7348 J-4.1002 F1020.00
G3 X61.9662 Y344.5662 Z-16.0000 I14.1706 J4.9032 F1020.00
G1 X61.9662 Y364.0000 Z-16.0000 F1020.00
G2 X64.9662 Y367.0000 Z-16.0000 I3.0000 J-0.0000 F1020.00
G1 X94.9662 Y367.0000 Z-16.0000 F1020.00
G2 X97.9662 Y364.0000 Z-16.0000 I-0.0000 J-3.0000 F1020.00
G1 X97.9662 Y324.9741 Z-16.0000 F1020.00
G3 X141.9753 Y325.7624 Z-16.0000 I21.7247 J16.0187 F1020.00
G2 X142.6521 Y326.4360 Z-16.0000 I2.4277 J-1.7624 F1020.00
G2 X150.7866 Y327.4529 Z-16.0000 I5.1962 J-8.5228 F1020.00
G1 X150.7866 Y327.4529 Z-16.5000 F1020.00
G2 X156.8565 Y322.2133 Z-16.5000 I-2.9384 J-9.5396 F1020.00
G2 X160.0117 Y269.0717 Z-16.5000 I-76.6709 J-31.2168 F1020.00
G2 X159.5419 Y268.0694 Z-16.5000 I-2.9046 J0.7504 F1020.00
G3 X157.4431 Y96.4269 Z-16.5000 I118.2865 J-87.2805 F1020.00
G2 X157.7947 Y95.7341 Z-16.5000 I-2.4769 J-1.6926 F1020.00
G2 X125.5254 Y-2.4825 Z-16.5000 I-77.8285 J-28.8386 F1020.00
G2 X124.6857 Y-2.8786 Z-16.5000 I-1.6844 J2.4825 F1020.00
G2 X120.9307 Y-0.7281 Z-16.5000 I-0.8447 J2.8786 F1020.00
G3 X39.0017 Y-0.7281 Z-16.5000 I-40.9645 J-9.2737 F1020.00
G2 X34.4070 Y-2.4825 Z-16.5000 I-2.9103 J0.7281 F1020.00
G2 X2.1377 Y95.7341 Z-16.5000 I45.5592 J69.3780 F1020.00
G2 X3.0648 Y97.0547 Z-16.5000 I2.8285 J-0.9998 F1020.00
G3 X5.6999 Y254.4932 Z-16.5000 I-63.5256 J79.8045 F1020.00
G2 X4.9475 Y255.5059 Z-16.5000 I1.9780 J2.2555 F1020.00
G2 X18.2553 Y346.5318 Z-16.5000 I75.0383 J35.5152 F1020.00
G2 X32.5669 Y346.7659 Z-16.5000 I7.2699 J-6.8614 F1020.00
G2 X33.8187 Y345.0935 Z-16.5000 I-3.7348 J-4.1002 F1020.00
G3 X61.9662 Y344.5662 Z-16.5000 I14.1706 J4.9032 F1020.00
G1 X61.9662 Y364.0000 Z-16.5000 F1020.00
G2 X64.9662 Y367.0000 Z-16.5000 I3.0000 J-0.0000 F1020.00
G1 X94.9662 Y367.0000 Z-16.5000 F1020.00
G2 X97.9662 Y364.0000 Z-16.5000 I-0.0000 J-3.0000 F1020.00
G1 X97.9662 Y324.9741 Z-16.5000 F1020.00
G3 X141.9753 Y325.7624 Z-16.5000 I21.7247 J16.0187 F1020.00
G2 X142.6521 Y326.4360 Z-16.5000 I2.4277 J-1.7624 F1020.00
G2 X150.7866 Y327.4529 Z-16.5000 I5.1962 J-8.5228 F1020.00
G1 X150.7866 Y327.4529 Z-17.0000 F1020.00
G2 X156.8565 Y322.2133 Z-17.0000 I-2.9384 J-9.5396 F1020.00
G2 X160.0117 Y269.0717 Z-17.0000 I-76.6709 J-31.2168 F1020.00
G2 X159.5419 Y268.0694 Z-17.0000 I-2.9046 J0.7504 F1020.00
G3 X157.4431 Y96.4269 Z-17.0000 I118.2865 J-87.2805 F1020.00
G2 X157.7947 Y95.7341 Z-17.0000 I-2.4769 J-1.6926 F1020.00
G2 X125.5254 Y-2.4825 Z-17.0000 I-77.8285 J-28.8386 F1020.00
G2 X124.6857 Y-2.8786 Z-17.0000 I-1.6844 J2.4825 F1020.00
G2 X120.9307 Y-0.7281 Z-17.0000 I-0.8447 J2.8786 F1020.00
G3 X39.0017 Y-0.7281 Z-17.0000 I-40.9645 J-9.2737 F1020.00
G2 X34.4070 Y-2.4825 Z-17.0000 I-2.9103 J0.7281 F1020.00
G2 X2.1377 Y95.7341 Z-17.0000 I45.5592 J69.3780 F1020.00
G2 X3.0648 Y97.0547 Z-17.0000 I2.8285 J-0.9998 F1020.00
G3 X5.6999 Y254.4932 Z-17.0000 I-63.5256 J79.8045 F1020.00
G2 X4.9475 Y255.5059 Z-17.0000 I1.9780 J2.2555 F1020.00
G2 X18.2553 Y346.5318 Z-17.0000 I75.0383 J35.5152 F1020.00
G2 X32.5669 Y346.7659 Z-17.0000 I7.2699 J-6.8614 F1020.00
G2 X33.8187 Y345.0935 Z-17.0000 I-3.7348 J-4.1002 F1020.00
G3 X61.9662 Y344.5662 Z-17.0000 I14.1706 J4.9032 F1020.00
G1 X61.9662 Y364.0000 Z-17.0000 F1020.00
G2 X64.9662 Y367.0000 Z-17.0000 I3.0000 J-0.0000 F1020.00
G1 X94.9662 Y367.0000 Z-17.0000 F1020.00
G2 X97.9662 Y364.0000 Z-17.0000 I-0.0000 J-3.0000 F1020.00
G1 X97.9662 Y324.9741 Z-17.0000 F1020.00
G3 X141.9753 Y325.7624 Z-17.0000 I21.7247 J16.0187 F1020.00
G2 X142.6521 Y326.4360 Z-17.0000 I2.4277 J-1.7624 F1020.00
G2 X150.7866 Y327.4529 Z-17.0000 I5.1962 J-8.5228 F1020.00
G1 X150.7866 Y327.4529 Z-17.5000 F1020.00
G2 X156.8565 Y322.2133 Z-17.5000 I-2.9384 J-9.5396 F1020.00
G2 X160.0117 Y269.0717 Z-17.5000 I-76.6709 J-31.2168 F1020.00
G2 X159.5419 Y268.0694 Z-17.5000 I-2.9046 J0.7504 F1020.00
G3 X157.4431 Y96.4269 Z-17.5000 I118.2865 J-87.2805 F1020.00
G2 X157.7947 Y95.7341 Z-17.5000 I-2.4769 J-1.6926 F1020.00
G2 X125.5254 Y-2.4825 Z-17.5000 I-77.8285 J-28.8386 F1020.00
G2 X124.6857 Y-2.8786 Z-17.5000 I-1.6844 J2.4825 F1020.00
G2 X120.9307 Y-0.7281 Z-17.5000 I-0.8447 J2.8786 F1020.00
G3 X39.0017 Y-0.7281 Z-17.5000 I-40.9645 J-9.2737 F1020.00
G2 X34.4070 Y-2.4825 Z-17.5000 I-2.9103 J0.7281 F1020.00
G2 X2.1377 Y95.7341 Z-17.5000 I45.5592 J69.3780 F1020.00
G2 X3.0648 Y97.0547 Z-17.5000 I2.8285 J-0.9998 F1020.00
G3 X5.6999 Y254.4932 Z-17.5000 I-63.5256 J79.8045 F1020.00
G2 X4.9475 Y255.5059 Z-17.5000 I1.9780 J2.2555 F1020.00
G2 X18.2553 Y346.5318 Z-17.5000 I75.0383 J35.5152 F1020.00
G2 X32.5669 Y346.7659 Z-17.5000 I7.2699 J-6.8614 F1020.00
G2 X33.8187 Y345.0935 Z-17.5000 I-3.7348 J-4.1002 F1020.00
G3 X61.9662 Y344.5662 Z-17.5000 I14.1706 J4.9032 F1020.00
G1 X61.9662 Y364.0000 Z-17.5000 F1020.00
G2 X64.9662 Y367.0000 Z-17.5000 I3.0000 J-0.0000 F1020.00
G1 X94.9662 Y367.0000 Z-17.5000 F1020.00
G2 X97.9662 Y364.0000 Z-17.5000 I-0.0000 J-3.0000 F1020.00
G1 X97.9662 Y324.9741 Z-17.5000 F1020.00
G3 X141.9753 Y325.7624 Z-17.5000 I21.7247 J16.0187 F1020.00
G2 X142.6521 Y326.4360 Z-17.5000 I2.4277 J-1.7624 F1020.00
G2 X150.7866 Y327.4529 Z-17.5000 I5.1962 J-8.5228 F1020.00
G1 X150.7866 Y327.4529 Z-18.0000 F1020.00
G2 X156.8565 Y322.2133 Z-18.0000 I-2.9384 J-9.5396 F1020.00
G2 X160.0117 Y269.0717 Z-18.0000 I-76.6709 J-31.2168 F1020.00
G2 X159.5419 Y268.0694 Z-18.0000 I-2.9046 J0.7504 F1020.00
G3 X157.4431 Y96.4269 Z-18.0000 I118.2865 J-87.2805 F1020.00
G2 X157.7947 Y95.7341 Z-18.0000 I-2.4769 J-1.6926 F1020.00
G2 X125.5254 Y-2.4825 Z-18.0000 I-77.8285 J-28.8386 F1020.00
G2 X124.6857 Y-2.8786 Z-18.0000 I-1.6844 J2.4825 F1020.00
G2 X120.9307 Y-0.7281 Z-18.0000 I-0.8447 J2.8786 F1020.00
G3 X39.0017 Y-0.7281 Z-18.0000 I-40.9645 J-9.2737 F1020.00
G2 X34.4070 Y-2.4825 Z-18.0000 I-2.9103 J0.7281 F1020.00
G2 X2.1377 Y95.7341 Z-18.0000 I45.5592 J69.3780 F1020.00
G2 X3.0648 Y97.0547 Z-18.0000 I2.8285 J-0.9998 F1020.00
G3 X5.6999 Y254.4932 Z-18.0000 I-63.5256 J79.8045 F1020.00
G2 X4.9475 Y255.5059 Z-18.0000 I1.9780 J2.2555 F1020.00
G2 X18.2553 Y346.5318 Z-18.0000 I75.0383 J35.5152 F1020.00
G2 X32.5669 Y346.7659 Z-18.0000 I7.2699 J-6.8614 F1020.00
G2 X33.8187 Y345.0935 Z-18.0000 I-3.7348 J-4.1002 F1020.00
G3 X61.9662 Y344.5662 Z-18.0000 I14.1706 J4.9032 F1020.00
G1 X61.9662 Y364.0000 Z-18.0000 F1020.00
G2 X64.9662 Y367.0000 Z-18.0000 I3.0000 J-0.0000 F1020.00
G1 X94.9662 Y367.0000 Z-18.0000 F1020.00
G2 X97.9662 Y364.0000 Z-18.0000 I-0.0000 J-3.0000 F1020.00
G1 X97.9662 Y324.9741 Z-18.0000 F1020.00
G3 X141.9753 Y325.7624 Z-18.0000 I21.7247 J16.0187 F1020.00
G2 X142.6521 Y326.4360 Z-18.0000 I2.4277 J-1.7624 F1020.00
G2 X150.7866 Y327.4529 Z-18.0000 I5.1962 J-8.5228 F1020.00
G1 X150.7866 Y327.4529 Z-18.5000 F1020.00
G2 X156.8565 Y322.2133 Z-18.5000 I-2.9384 J-9.5396 F1020.00
G2 X160.0117 Y269.0717 Z-18.5000 I-76.6709 J-31.2168 F1020.00
G2 X159.5419 Y268.0694 Z-18.5000 I-2.9046 J0.7504 F1020.00
G3 X157.4431 Y96.4269 Z-18.5000 I118.2865 J-87.2805 F1020.00
G2 X157.7947 Y95.7341 Z-18.5000 I-2.4769 J-1.6926 F1020.00
G2 X125.5254 Y-2.4825 Z-18.5000 I-77.8285 J-28.8386 F1020.00
G2 X124.6857 Y-2.8786 Z-18.5000 I-1.6844 J2.4825 F1020.00
G2 X120.9307 Y-0.7281 Z-18.5000 I-0.8447 J2.8786 F1020.00
G3 X39.0017 Y-0.7281 Z-18.5000 I-40.9645 J-9.2737 F1020.00
G2 X34.4070 Y-2.4825 Z-18.5000 I-2.9103 J0.7281 F1020.00
G2 X2.1377 Y95.7341 Z-18.5000 I45.5592 J69.3780 F1020.00
G2 X3.0648 Y97.0547 Z-18.5000 I2.8285 J-0.9998 F1020.00
G3 X5.6999 Y254.4932 Z-18.5000 I-63.5256 J79.8045 F1020.00
G2 X4.9475 Y255.5059 Z-18.5000 I1.9780 J2.2555 F1020.00
G2 X18.2553 Y346.5318 Z-18.5000 I75.0383 J35.5152 F1020.00
G2 X32.5669 Y346.7659 Z-18.5000 I7.2699 J-6.8614 F1020.00
G2 X33.8187 Y345.0935 Z-18.5000 I-3.7348 J-4.1002 F1020.00
G3 X61.9662 Y344.5662 Z-18.5000 I14.1706 J4.9032 F1020.00
G1 X61.9662 Y364.0000 Z-18.5000 F1020.00
G2 X64.9662 Y367.0000 Z-18.5000 I3.0000 J-0.0000 F1020.00
G1 X94.9662 Y367.0000 Z-18.5000 F1020.00
G2 X97.9662 Y364.0000 Z-18.5000 I-0.0000 J-3.0000 F1020.00
G1 X97.9662 Y324.9741 Z-18.5000 F1020.00
G3 X141.9753 Y325.7624 Z-18.5000 I21.7247 J16.0187 F1020.00
G2 X142.6521 Y326.4360 Z-18.5000 I2.4277 J-1.7624 F1020.00
G2 X150.7866 Y327.4529 Z-18.5000 I5.1962 J-8.5228 F1020.00
G1 X150.7866 Y327.4529 Z-19.0000 F1020.00
G2 X156.8565 Y322.2133 Z-19.0000 I-2.9384 J-9.5396 F1020.00
G2 X160.0117 Y269.0717 Z-19.0000 I-76.6709 J-31.2168 F1020.00
G2 X159.5419 Y268.0694 Z-19.0000 I-2.9046 J0.7504 F1020.00
G3 X157.4431 Y96.4269 Z-19.0000 I118.2865 J-87.2805 F1020.00
G2 X157.7947 Y95.7341 Z-19.0000 I-2.4769 J-1.6926 F1020.00
G2 X125.5254 Y-2.4825 Z-19.0000 I-77.8285 J-28.8386 F1020.00
G2 X124.6857 Y-2.8786 Z-19.0000 I-1.6844 J2.4825 F1020.00
G2 X120.9307 Y-0.7281 Z-19.0000 I-0.8447 J2.8786 F1020.00
G3 X39.0017 Y-0.7281 Z-19.0000 I-40.9645 J-9.2737 F1020.00
G2 X34.4070 Y-2.4825 Z-19.0000 I-2.9103 J0.7281 F1020.00
G2 X2.1377 Y95.7341 Z-19.0000 I45.5592 J69.3780 F1020.00
G2 X3.0648 Y97.0547 Z-19.0000 I2.8285 J-0.9998 F1020.00
G3 X5.6999 Y254.4932 Z-19.0000 I-63.5256 J79.8045 F1020.00
G2 X4.9475 Y255.5059 Z-19.0000 I1.9780 J2.2555 F1020.00
G2 X18.2553 Y346.5318 Z-19.0000 I75.0383 J35.5152 F1020.00
G2 X32.5669 Y346.7659 Z-19.0000 I7.2699 J-6.8614 F1020.00
G2 X33.8187 Y345.0935 Z-19.0000 I-3.7348 J-4.1002 F1020.00
G3 X61.9662 Y344.5662 Z-19.0000 I14.1706 J4.9032 F1020.00
G1 X61.9662 Y364.0000 Z-19.0000 F1020.00
G2 X64.9662 Y367.0000 Z-19.0000 I3.0000 J-0.0000 F1020.00
G1 X94.9662 Y367.0000 Z-19.0000 F1020.00
G2 X97.9662 Y364.0000 Z-19.0000 I-0.0000 J-3.0000 F1020.00
G1 X97.9662 Y324.9741 Z-19.0000 F1020.00
G3 X141.9753 Y325.7624 Z-19.0000 I21.7247 J16.0187 F1020.00
G2 X142.6521 Y326.4360 Z-19.0000 I2.4277 J-1.7624 F1020.00
G2 X150.7866 Y327.4529 Z-19.0000 I5.1962 J-8.5228 F1020.00
G1 X150.7866 Y327.4529 Z-19.5000 F1020.00
G2 X156.8565 Y322.2133 Z-19.5000 I-2.9384 J-9.5396 F1020.00
G2 X160.0117 Y269.0717 Z-19.5000 I-76.6709 J-31.2168 F1020.00
G2 X159.5419 Y268.0694 Z-19.5000 I-2.9046 J0.7504 F1020.00
G3 X157.4431 Y96.4269 Z-19.5000 I118.2865 J-87.2805 F1020.00
G2 X157.7947 Y95.7341 Z-19.5000 I-2.4769 J-1.6926 F1020.00
G2 X125.5254 Y-2.4825 Z-19.5000 I-77.8285 J-28.8386 F1020.00
G2 X124.6857 Y-2.8786 Z-19.5000 I-1.6844 J2.4825 F1020.00
G2 X120.9307 Y-0.7281 Z-19.5000 I-0.8447 J2.8786 F1020.00
G3 X39.0017 Y-0.7281 Z-19.5000 I-40.9645 J-9.2737 F1020.00
G2 X34.4070 Y-2.4825 Z-19.5000 I-2.9103 J0.7281 F1020.00
G2 X2.1377 Y95.7341 Z-19.5000 I45.5592 J69.3780 F1020.00
G2 X3.0648 Y97.0547 Z-19.5000 I2.8285 J-0.9998 F1020.00
G3 X5.6999 Y254.4932 Z-19.5000 I-63.5256 J79.8045 F1020.00
G2 X4.9475 Y255.5059 Z-19.5000 I1.9780 J2.2555 F1020.00
G2 X18.2553 Y346.5318 Z-19.5000 I75.0383 J35.5152 F1020.00
G2 X32.5669 Y346.7659 Z-19.5000 I7.2699 J-6.8614 F1020.00
G2 X33.8187 Y345.0935 Z-19.5000 I-3.7348 J-4.1002 F1020.00
G3 X61.9662 Y344.5662 Z-19.5000 I14.1706 J4.9032 F1020.00
G1 X61.9662 Y364.0000 Z-19.5000 F1020.00
G2 X64.9662 Y367.0000 Z-19.5000 I3.0000 J-0.0000 F1020.00
G1 X94.9662 Y367.0000 Z-19.5000 F1020.00
G2 X97.9662 Y364.0000 Z-19.5000 I-0.0000 J-3.0000 F1020.00
G1 X97.9662 Y324.9741 Z-19.5000 F1020.00
G3 X141.9753 Y325.7624 Z-19.5000 I21.7247 J16.0187 F1020.00
G2 X142.6521 Y326.4360 Z-19.5000 I2.4277 J-1.7624 F1020.00
G2 X150.7866 Y327.4529 Z-19.5000 I5.1962 J-8.5228 F1020.00
G1 X150.7866 Y327.4529 Z-20.0000 F1020.00
G2 X156.8565 Y322.2133 Z-20.0000 I-2.9384 J-9.5396 F1020.00
G2 X160.0117 Y269.0717 Z-20.0000 I-76.6709 J-31.2168 F1020.00
G2 X159.5419 Y268.0694 Z-20.0000 I-2.9046 J0.7504 F1020.00
G3 X157.4431 Y96.4269 Z-20.0000 I118.2865 J-87.2805 F1020.00
G2 X157.7947 Y95.7341 Z-20.0000 I-2.4769 J-1.6926 F1020.00
G2 X125.5254 Y-2.4825 Z-20.0000 I-77.8285 J-28.8386 F1020.00
G2 X124.6857 Y-2.8786 Z-20.0000 I-1.6844 J2.4825 F1020.00
G2 X120.9307 Y-0.7281 Z-20.0000 I-0.8447 J2.8786 F1020.00
G3 X39.0017 Y-0.7281 Z-20.0000 I-40.9645 J-9.2737 F1020.00
G2 X34.4070 Y-2.4825 Z-20.0000 I-2.9103 J0.7281 F1020.00
G2 X2.1377 Y95.7341 Z-20.0000 I45.5592 J69.3780 F1020.00
G2 X3.0648 Y97.0547 Z-20.0000 I2.8285 J-0.9998 F1020.00
G3 X5.6999 Y254.4932 Z-20.0000 I-63.5256 J79.8045 F1020.00
G2 X4.9475 Y255.5059 Z-20.0000 I1.9780 J2.2555 F1020.00
G2 X18.2553 Y346.5318 Z-20.0000 I75.0383 J35.5152 F1020.00
G2 X32.5669 Y346.7659 Z-20.0000 I7.2699 J-6.8614 F1020.00
G2 X33.8187 Y345.0935 Z-20.0000 I-3.7348 J-4.1002 F1020.00
G3 X61.9662 Y344.5662 Z-20.0000 I14.1706 J4.9032 F1020.00
G1 X61.9662 Y364.0000 Z-20.0000 F1020.00
G2 X64.9662 Y367.0000 Z-20.0000 I3.0000 J-0.0000 F1020.00
G1 X94.9662 Y367.0000 Z-20.0000 F1020.00
G2 X97.9662 Y364.0000 Z-20.0000 I-0.0000 J-3.0000 F1020.00
G1 X97.9662 Y324.9741 Z-20.0000 F1020.00
G3 X141.9753 Y325.7624 Z-20.0000 I21.7247 J16.0187 F1020.00
G2 X142.6521 Y326.4360 Z-20.0000 I2.4277 J-1.7624 F1020.00
G2 X150.7866 Y327.4529 Z-20.0000 I5.1962 J-8.5228 F1020.00
G1 X150.7866 Y327.4529 Z-20.5000 F1020.00
G2 X156.8565 Y322.2133 Z-20.5000 I-2.9384 J-9.5396 F1020.00
G2 X160.0117 Y269.0717 Z-20.5000 I-76.6709 J-31.2168 F1020.00
G2 X159.5419 Y268.0694 Z-20.5000 I-2.9046 J0.7504 F1020.00
G3 X157.4431 Y96.4269 Z-20.5000 I118.2865 J-87.2805 F1020.00
G2 X157.7947 Y95.7341 Z-20.5000 I-2.4769 J-1.6926 F1020.00
G2 X125.5254 Y-2.4825 Z-20.5000 I-77.8285 J-28.8386 F1020.00
G2 X124.6857 Y-2.8786 Z-20.5000 I-1.6844 J2.4825 F1020.00
G2 X120.9307 Y-0.7281 Z-20.5000 I-0.8447 J2.8786 F1020.00
G3 X39.0017 Y-0.7281 Z-20.5000 I-40.9645 J-9.2737 F1020.00
G2 X34.4070 Y-2.4825 Z-20.5000 I-2.9103 J0.7281 F1020.00
G2 X2.1377 Y95.7341 Z-20.5000 I45.5592 J69.3780 F1020.00
G2 X3.0648 Y97.0547 Z-20.5000 I2.8285 J-0.9998 F1020.00
G3 X5.6999 Y254.4932 Z-20.5000 I-63.5256 J79.8045 F1020.00
G2 X4.9475 Y255.5059 Z-20.5000 I1.9780 J2.2555 F1020.00
G2 X18.2553 Y346.5318 Z-20.5000 I75.0383 J35.5152 F1020.00
G2 X32.5669 Y346.7659 Z-20.5000 I7.2699 J-6.8614 F1020.00
G2 X33.8187 Y345.0935 Z-20.5000 I-3.7348 J-4.1002 F1020.00
G3 X61.9662 Y344.5662 Z-20.5000 I14.1706 J4.9032 F1020.00
G1 X61.9662 Y364.0000 Z-20.5000 F1020.00
G2 X64.9662 Y367.0000 Z-20.5000 I3.0000 J-0.0000 F1020.00
G1 X94.9662 Y367.0000 Z-20.5000 F1020.00
G2 X97.9662 Y364.0000 Z-20.5000 I-0.0000 J-3.0000 F1020.00
G1 X97.9662 Y324.9741 Z-20.5000 F1020.00
G3 X141.9753 Y325.7624 Z-20.5000 I21.7247 J16.0187 F1020.00
G2 X142.6521 Y326.4360 Z-20.5000 I2.4277 J-1.7624 F1020.00
G2 X150.7866 Y327.4529 Z-20.5000 I5.1962 J-8.5228 F1020.00
G1 X150.7866 Y327.4529 Z-21.0000 F1020.00
G2 X156.8565 Y322.2133 Z-21.0000 I-2.9384 J-9.5396 F1020.00
G2 X160.0117 Y269.0717 Z-21.0000 I-76.6709 J-31.2168 F1020.00
G2 X159.5419 Y268.0694 Z-21.0000 I-2.9046 J0.7504 F1020.00
G3 X157.4431 Y96.4269 Z-21.0000 I118.2865 J-87.2805 F1020.00
G2 X157.7947 Y95.7341 Z-21.0000 I-2.4769 J-1.6926 F1020.00
G2 X125.5254 Y-2.4825 Z-21.0000 I-77.8285 J-28.8386 F1020.00
G2 X124.6857 Y-2.8786 Z-21.0000 I-1.6844 J2.4825 F1020.00
G2 X120.9307 Y-0.7281 Z-21.0000 I-0.8447 J2.8786 F1020.00
G3 X39.0017 Y-0.7281 Z-21.0000 I-40.9645 J-9.2737 F1020.00
G2 X34.4070 Y-2.4825 Z-21.0000 I-2.9103 J0.7281 F1020.00
G2 X2.1377 Y95.7341 Z-21.0000 I45.5592 J69.3780 F1020.00
G2 X3.0648 Y97.0547 Z-21.0000 I2.8285 J-0.9998 F1020.00
G3 X5.6999 Y254.4932 Z-21.0000 I-63.5256 J79.8045 F1020.00
G2 X4.9475 Y255.5059 Z-21.0000 I1.9780 J2.2555 F1020.00
G2 X18.2553 Y346.5318 Z-21.0000 I75.0383 J35.5152 F1020.00
G2 X32.5669 Y346.7659 Z-21.0000 I7.2699 J-6.8614 F1020.00
G2 X33.8187 Y345.0935 Z-21.0000 I-3.7348 J-4.1002 F1020.00
G3 X61.9662 Y344.5662 Z-21.0000 I14.1706 J4.9032 F1020.00
G1 X61.9662 Y364.0000 Z-21.0000 F1020.00
G2 X64.9662 Y367.0000 Z-21.0000 I3.0000 J-0.0000 F1020.00
G1 X94.9662 Y367.0000 Z-21.0000 F1020.00
G2 X97.9662 Y364.0000 Z-21.0000 I-0.0000 J-3.0000 F1020.00
G1 X97.9662 Y324.9741 Z-21.0000 F1020.00
G3 X141.9753 Y325.7624 Z-21.0000 I21.7247 J16.0187 F1020.00
G2 X142.6521 Y326.4360 Z-21.0000 I2.4277 J-1.7624 F1020.00
G2 X150.7866 Y327.4529 Z-21.0000 I5.1962 J-8.5228 F1020.00
G1 X150.7866 Y327.4529 Z-21.5000 F1020.00
G2 X156.8565 Y322.2133 Z-21.5000 I-2.9384 J-9.5396 F1020.00
G2 X160.0117 Y269.0717 Z-21.5000 I-76.6709 J-31.2168 F1020.00
G2 X159.5419 Y268.0694 Z-21.5000 I-2.9046 J0.7504 F1020.00
G3 X157.4431 Y96.4269 Z-21.5000 I118.2865 J-87.2805 F1020.00
G2 X157.7947 Y95.7341 Z-21.5000 I-2.4769 J-1.6926 F1020.00
G2 X125.5254 Y-2.4825 Z-21.5000 I-77.8285 J-28.8386 F1020.00
G2 X124.6857 Y-2.8786 Z-21.5000 I-1.6844 J2.4825 F1020.00
G2 X120.9307 Y-0.7281 Z-21.5000 I-0.8447 J2.8786 F1020.00
G3 X39.0017 Y-0.7281 Z-21.5000 I-40.9645 J-9.2737 F1020.00
G2 X34.4070 Y-2.4825 Z-21.5000 I-2.9103 J0.7281 F1020.00
G2 X2.1377 Y95.7341 Z-21.5000 I45.5592 J69.3780 F1020.00
G2 X3.0648 Y97.0547 Z-21.5000 I2.8285 J-0.9998 F1020.00
G3 X5.6999 Y254.4932 Z-21.5000 I-63.5256 J79.8045 F1020.00
G2 X4.9475 Y255.5059 Z-21.5000 I1.9780 J2.2555 F1020.00
G2 X18.2553 Y346.5318 Z-21.5000 I75.0383 J35.5152 F1020.00
G2 X32.5669 Y346.7659 Z-21.5000 I7.2699 J-6.8614 F1020.00
G2 X33.8187 Y345.0935 Z-21.5000 I-3.7348 J-4.1002 F1020.00
G3 X61.9662 Y344.5662 Z-21.5000 I14.1706 J4.9032 F1020.00
G1 X61.9662 Y364.0000 Z-21.5000 F1020.00
G2 X64.9662 Y367.0000 Z-21.5000 I3.0000 J-0.0000 F1020.00
G1 X94.9662 Y367.0000 Z-21.5000 F1020.00
G2 X97.9662 Y364.0000 Z-21.5000 I-0.0000 J-3.0000 F1020.00
G1 X97.9662 Y324.9741 Z-21.5000 F1020.00
G3 X141.9753 Y325.7624 Z-21.5000 I21.7247 J16.0187 F1020.00
G2 X142.6521 Y326.4360 Z-21.5000 I2.4277 J-1.7624 F1020.00
G2 X150.7866 Y327.4529 Z-21.5000 I5.1962 J-8.5228 F1020.00
G1 X150.7866 Y327.4529 Z-22.0000 F1020.00
G2 X156.8565 Y322.2133 Z-22.0000 I-2.9384 J-9.5396 F1020.00
G2 X160.0117 Y269.0717 Z-22.0000 I-76.6709 J-31.2168 F1020.00
G2 X159.5419 Y268.0694 Z-22.0000 I-2.9046 J0.7504 F1020.00
G3 X157.4431 Y96.4269 Z-22.0000 I118.2865 J-87.2805 F1020.00
G2 X157.7947 Y95.7341 Z-22.0000 I-2.4769 J-1.6926 F1020.00
G2 X125.5254 Y-2.4825 Z-22.0000 I-77.8285 J-28.8386 F1020.00
G2 X124.6857 Y-2.8786 Z-22.0000 I-1.6844 J2.4825 F1020.00
G2 X120.9307 Y-0.7281 Z-22.0000 I-0.8447 J2.8786 F1020.00
G3 X39.0017 Y-0.7281 Z-22.0000 I-40.9645 J-9.2737 F1020.00
G2 X34.4070 Y-2.4825 Z-22.0000 I-2.9103 J0.7281 F1020.00
G2 X2.1377 Y95.7341 Z-22.0000 I45.5592 J69.3780 F1020.00
G2 X3.0648 Y97.0547 Z-22.0000 I2.8285 J-0.9998 F1020.00
G3 X5.6999 Y254.4932 Z-22.0000 I-63.5256 J79.8045 F1020.00
G2 X4.9475 Y255.5059 Z-22.0000 I1.9780 J2.2555 F1020.00
G2 X18.2553 Y346.5318 Z-22.0000 I75.0383 J35.5152 F1020.00
G2 X32.5669 Y346.7659 Z-22.0000 I7.2699 J-6.8614 F1020.00
G2 X33.8187 Y345.0935 Z-22.0000 I-3.7348 J-4.1002 F1020.00
G3 X61.9662 Y344.5662 Z-22.0000 I14.1706 J4.9032 F1020.00
G1 X61.9662 Y364.0000 Z-22.0000 F1020.00
G2 X64.9662 Y367.0000 Z-22.0000 I3.0000 J-0.0000 F1020.00
G1 X94.9662 Y367.0000 Z-22.0000 F1020.00
G2 X97.9662 Y364.0000 Z-22.0000 I-0.0000 J-3.0000 F1020.00
G1 X97.9662 Y324.9741 Z-22.0000 F1020.00
G3 X141.9753 Y325.7624 Z-22.0000 I21.7247 J16.0187 F1020.00
G2 X142.6521 Y326.4360 Z-22.0000 I2.4277 J-1.7624 F1020.00
G2 X150.7866 Y327.4529 Z-22.0000 I5.1962 J-8.5228 F1020.00
G1 X150.7866 Y327.4529 Z-22.5000 F1020.00
G2 X156.8565 Y322.2133 Z-22.5000 I-2.9384 J-9.5396 F1020.00
G2 X160.0117 Y269.0717 Z-22.5000 I-76.6709 J-31.2168 F1020.00
G2 X159.5419 Y268.0694 Z-22.5000 I-2.9046 J0.7504 F1020.00
G3 X157.4431 Y96.4269 Z-22.5000 I118.2865 J-87.2805 F1020.00
G2 X157.7947 Y95.7341 Z-22.5000 I-2.4769 J-1.6926 F1020.00
G2 X125.5254 Y-2.4825 Z-22.5000 I-77.8285 J-28.8386 F1020.00
G2 X124.6857 Y-2.8786 Z-22.5000 I-1.6844 J2.4825 F1020.00
G2 X120.9307 Y-0.7281 Z-22.5000 I-0.8447 J2.8786 F1020.00
G3 X39.0017 Y-0.7281 Z-22.5000 I-40.9645 J-9.2737 F1020.00
G2 X34.4070 Y-2.4825 Z-22.5000 I-2.9103 J0.7281 F1020.00
G2 X2.1377 Y95.7341 Z-22.5000 I45.5592 J69.3780 F1020.00
G2 X3.0648 Y97.0547 Z-22.5000 I2.8285 J-0.9998 F1020.00
G3 X5.6999 Y254.4932 Z-22.5000 I-63.5256 J79.8045 F1020.00
G2 X4.9475 Y255.5059 Z-22.5000 I1.9780 J2.2555 F1020.00
G2 X18.2553 Y346.5318 Z-22.5000 I75.0383 J35.5152 F1020.00
G2 X32.5669 Y346.7659 Z-22.5000 I7.2699 J-6.8614 F1020.00
G2 X33.8187 Y345.0935 Z-22.5000 I-3.7348 J-4.1002 F1020.00
G3 X61.9662 Y344.5662 Z-22.5000 I14.1706 J4.9032 F1020.00
G1 X61.9662 Y364.0000 Z-22.5000 F1020.00
G2 X64.9662 Y367.0000 Z-22.5000 I3.0000 J-0.0000 F1020.00
G1 X94.9662 Y367.0000 Z-22.5000 F1020.00
G2 X97.9662 Y364.0000 Z-22.5000 I-0.0000 J-3.0000 F1020.00
G1 X97.9662 Y324.9741 Z-22.5000 F1020.00
G3 X141.9753 Y325.7624 Z-22.5000 I21.7247 J16.0187 F1020.00
G2 X142.6521 Y326.4360 Z-22.5000 I2.4277 J-1.7624 F1020.00
G2 X150.7866 Y327.4529 Z-22.5000 I5.1962 J-8.5228 F1020.00
G1 X150.7866 Y327.4529 Z-23.0000 F1020.00
G2 X156.8565 Y322.2133 Z-23.0000 I-2.9384 J-9.5396 F1020.00
G2 X160.0117 Y269.0717 Z-23.0000 I-76.6709 J-31.2168 F1020.00
G2 X159.5419 Y268.0694 Z-23.0000 I-2.9046 J0.7504 F1020.00
G3 X157.4431 Y96.4269 Z-23.0000 I118.2865 J-87.2805 F1020.00
G2 X157.7947 Y95.7341 Z-23.0000 I-2.4769 J-1.6926 F1020.00
G2 X125.5254 Y-2.4825 Z-23.0000 I-77.8285 J-28.8386 F1020.00
G2 X124.6857 Y-2.8786 Z-23.0000 I-1.6844 J2.4825 F1020.00
G2 X120.9307 Y-0.7281 Z-23.0000 I-0.8447 J2.8786 F1020.00
G3 X39.0017 Y-0.7281 Z-23.0000 I-40.9645 J-9.2737 F1020.00
G2 X34.4070 Y-2.4825 Z-23.0000 I-2.9103 J0.7281 F1020.00
G2 X2.1377 Y95.7341 Z-23.0000 I45.5592 J69.3780 F1020.00
G2 X3.0648 Y97.0547 Z-23.0000 I2.8285 J-0.9998 F1020.00
G3 X5.6999 Y254.4932 Z-23.0000 I-63.5256 J79.8045 F1020.00
G2 X4.9475 Y255.5059 Z-23.0000 I1.9780 J2.2555 F1020.00
G2 X18.2553 Y346.5318 Z-23.0000 I75.0383 J35.5152 F1020.00
G2 X32.5669 Y346.7659 Z-23.0000 I7.2699 J-6.8614 F1020.00
G2 X33.8187 Y345.0935 Z-23.0000 I-3.7348 J-4.1002 F1020.00
G3 X61.9662 Y344.5662 Z-23.0000 I14.1706 J4.9032 F1020.00
G1 X61.9662 Y364.0000 Z-23.0000 F1020.00
G2 X64.9662 Y367.0000 Z-23.0000 I3.0000 J-0.0000 F1020.00
G1 X94.9662 Y367.0000 Z-23.0000 F1020.00
G2 X97.9662 Y364.0000 Z-23.0000 I-0.0000 J-3.0000 F1020.00
G1 X97.9662 Y324.9741 Z-23.0000 F1020.00
G3 X141.9753 Y325.7624 Z-23.0000 I21.7247 J16.0187 F1020.00
G2 X142.6521 Y326.4360 Z-23.0000 I2.4277 J-1.7624 F1020.00
G2 X150.7866 Y327.4529 Z-23.0000 I5.1962 J-8.5228 F1020.00
G1 X150.7866 Y327.4529 Z-23.5000 F1020.00
G2 X156.8565 Y322.2133 Z-23.5000 I-2.9384 J-9.5396 F1020.00
G2 X160.0117 Y269.0717 Z-23.5000 I-76.6709 J-31.2168 F1020.00
G2 X159.5419 Y268.0694 Z-23.5000 I-2.9046 J0.7504 F1020.00
G3 X157.4431 Y96.4269 Z-23.5000 I118.2865 J-87.2805 F1020.00
G2 X157.7947 Y95.7341 Z-23.5000 I-2.4769 J-1.6926 F1020.00
G2 X125.5254 Y-2.4825 Z-23.5000 I-77.8285 J-28.8386 F1020.00
G2 X124.6857 Y-2.8786 Z-23.5000 I-1.6844 J2.4825 F1020.00
G2 X120.9307 Y-0.7281 Z-23.5000 I-0.8447 J2.8786 F1020.00
G3 X39.0017 Y-0.7281 Z-23.5000 I-40.9645 J-9.2737 F1020.00
G2 X34.4070 Y-2.4825 Z-23.5000 I-2.9103 J0.7281 F1020.00
G2 X2.1377 Y95.7341 Z-23.5000 I45.5592 J69.3780 F1020.00
G2 X3.0648 Y97.0547 Z-23.5000 I2.8285 J-0.9998 F1020.00
G3 X5.6999 Y254.4932 Z-23.5000 I-63.5256 J79.8045 F1020.00
G2 X4.9475 Y255.5059 Z-23.5000 I1.9780 J2.2555 F1020.00
G2 X18.2553 Y346.5318 Z-23.5000 I75.0383 J35.5152 F1020.00
G2 X32.5669 Y346.7659 Z-23.5000 I7.2699 J-6.8614 F1020.00
G2 X33.8187 Y345.0935 Z-23.5000 I-3.7348 J-4.1002 F1020.00
G3 X61.9662 Y344.5662 Z-23.5000 I14.1706 J4.9032 F1020.00
G1 X61.9662 Y364.0000 Z-23.5000 F1020.00
G2 X64.9662 Y367.0000 Z-23.5000 I3.0000 J-0.0000 F1020.00
G1 X94.9662 Y367.0000 Z-23.5000 F1020.00
G2 X97.9662 Y364.0000 Z-23.5000 I-0.0000 J-3.0000 F1020.00
G1 X97.9662 Y324.9741 Z-23.5000 F1020.00
G3 X141.9753 Y325.7624 Z-23.5000 I21.7247 J16.0187 F1020.00
G2 X142.6521 Y326.4360 Z-23.5000 I2.4277 J-1.7624 F1020.00
G2 X150.7866 Y327.4529 Z-23.5000 I5.1962 J-8.5228 F1020.00
G1 X150.7866 Y327.4529 Z-24.0000 F1020.00
G2 X156.8565 Y322.2133 Z-24.0000 I-2.9384 J-9.5396 F1020.00
G2 X160.0117 Y269.0717 Z-24.0000 I-76.6709 J-31.2168 F1020.00
G2 X159.5419 Y268.0694 Z-24.0000 I-2.9046 J0.7504 F1020.00
G3 X157.4431 Y96.4269 Z-24.0000 I118.2865 J-87.2805 F1020.00
G2 X157.7947 Y95.7341 Z-24.0000 I-2.4769 J-1.6926 F1020.00
G2 X125.5254 Y-2.4825 Z-24.0000 I-77.8285 J-28.8386 F1020.00
G2 X124.6857 Y-2.8786 Z-24.0000 I-1.6844 J2.4825 F1020.00
G2 X120.9307 Y-0.7281 Z-24.0000 I-0.8447 J2.8786 F1020.00
G3 X39.0017 Y-0.7281 Z-24.0000 I-40.9645 J-9.2737 F1020.00
G2 X34.4070 Y-2.4825 Z-24.0000 I-2.9103 J0.7281 F1020.00
G2 X2.1377 Y95.7341 Z-24.0000 I45.5592 J69.3780 F1020.00
G2 X3.0648 Y97.0547 Z-24.0000 I2.8285 J-0.9998 F1020.00
G3 X5.6999 Y254.4932 Z-24.0000 I-63.5256 J79.8045 F1020.00
G2 X4.9475 Y255.5059 Z-24.0000 I1.9780 J2.2555 F1020.00
G2 X18.2553 Y346.5318 Z-24.0000 I75.0383 J35.5152 F1020.00
G2 X32.5669 Y346.7659 Z-24.0000 I7.2699 J-6.8614 F1020.00
G2 X33.8187 Y345.0935 Z-24.0000 I-3.7348 J-4.1002 F1020.00
G3 X61.9662 Y344.5662 Z-24.0000 I14.1706 J4.9032 F1020.00
G1 X61.9662 Y364.0000 Z-24.0000 F1020.00
G2 X64.9662 Y367.0000 Z-24.0000 I3.0000 J-0.0000 F1020.00
G1 X94.9662 Y367.0000 Z-24.0000 F1020.00
G2 X97.9662 Y364.0000 Z-24.0000 I-0.0000 J-3.0000 F1020.00
G1 X97.9662 Y324.9741 Z-24.0000 F1020.00
G3 X141.9753 Y325.7624 Z-24.0000 I21.7247 J16.0187 F1020.00
G2 X142.6521 Y326.4360 Z-24.0000 I2.4277 J-1.7624 F1020.00
G2 X150.7866 Y327.4529 Z-24.0000 I5.1962 J-8.5228 F1020.00
G1 X150.7866 Y327.4529 Z-24.5000 F1020.00
G2 X156.8565 Y322.2133 Z-24.5000 I-2.9384 J-9.5396 F1020.00
G2 X160.0117 Y269.0717 Z-24.5000 I-76.6709 J-31.2168 F1020.00
G2 X159.5419 Y268.0694 Z-24.5000 I-2.9046 J0.7504 F1020.00
G3 X157.4431 Y96.4269 Z-24.5000 I118.2865 J-87.2805 F1020.00
G2 X157.7947 Y95.7341 Z-24.5000 I-2.4769 J-1.6926 F1020.00
G2 X125.5254 Y-2.4825 Z-24.5000 I-77.8285 J-28.8386 F1020.00
G2 X124.6857 Y-2.8786 Z-24.5000 I-1.6844 J2.4825 F1020.00
G2 X120.9307 Y-0.7281 Z-24.5000 I-0.8447 J2.8786 F1020.00
G3 X39.0017 Y-0.7281 Z-24.5000 I-40.9645 J-9.2737 F1020.00
G2 X34.4070 Y-2.4825 Z-24.5000 I-2.9103 J0.7281 F1020.00
G2 X2.1377 Y95.7341 Z-24.5000 I45.5592 J69.3780 F1020.00
G2 X3.0648 Y97.0547 Z-24.5000 I2.8285 J-0.9998 F1020.00
G3 X5.6999 Y254.4932 Z-24.5000 I-63.5256 J79.8045 F1020.00
G2 X4.9475 Y255.5059 Z-24.5000 I1.9780 J2.2555 F1020.00
G2 X18.2553 Y346.5318 Z-24.5000 I75.0383 J35.5152 F1020.00
G2 X32.5669 Y346.7659 Z-24.5000 I7.2699 J-6.8614 F1020.00
G2 X33.8187 Y345.0935 Z-24.5000 I-3.7348 J-4.1002 F1020.00
G3 X61.9662 Y344.5662 Z-24.5000 I14.1706 J4.9032 F1020.00
G1 X61.9662 Y364.0000 Z-24.5000 F1020.00
G2 X64.9662 Y367.0000 Z-24.5000 I3.0000 J-0.0000 F1020.00
G1 X94.9662 Y367.0000 Z-24.5000 F1020.00
G2 X97.9662 Y364.0000 Z-24.5000 I-0.0000 J-3.0000 F1020.00
G1 X97.9662 Y324.9741 Z-24.5000 F1020.00
G3 X141.9753 Y325.7624 Z-24.5000 I21.7247 J16.0187 F1020.00
G2 X142.6521 Y326.4360 Z-24.5000 I2.4277 J-1.7624 F1020.00
G2 X150.7866 Y327.4529 Z-24.5000 I5.1962 J-8.5228 F1020.00
G1 X150.7866 Y327.4529 Z-25.0000 F1020.00
G2 X156.8565 Y322.2133 Z-25.0000 I-2.9384 J-9.5396 F1020.00
G2 X160.0117 Y269.0717 Z-25.0000 I-76.6709 J-31.2168 F1020.00
G2 X159.5419 Y268.0694 Z-25.0000 I-2.9046 J0.7504 F1020.00
G3 X157.4431 Y96.4269 Z-25.0000 I118.2865 J-87.2805 F1020.00
G2 X157.7947 Y95.7341 Z-25.0000 I-2.4769 J-1.6926 F1020.00
G2 X125.5254 Y-2.4825 Z-25.0000 I-77.8285 J-28.8386 F1020.00
G2 X124.6857 Y-2.8786 Z-25.0000 I-1.6844 J2.4825 F1020.00
G2 X120.9307 Y-0.7281 Z-25.0000 I-0.8447 J2.8786 F1020.00
G3 X39.0017 Y-0.7281 Z-25.0000 I-40.9645 J-9.2737 F1020.00
G2 X34.4070 Y-2.4825 Z-25.0000 I-2.9103 J0.7281 F1020.00
G2 X2.1377 Y95.7341 Z-25.0000 I45.5592 J69.3780 F1020.00
G2 X3.0648 Y97.0547 Z-25.0000 I2.8285 J-0.9998 F1020.00
G3 X5.6999 Y254.4932 Z-25.0000 I-63.5256 J79.8045 F1020.00
G2 X4.9475 Y255.5059 Z-25.0000 I1.9780 J2.2555 F1020.00
G2 X18.2553 Y346.5318 Z-25.0000 I75.0383 J35.5152 F1020.00
G2 X32.5669 Y346.7659 Z-25.0000 I7.2699 J-6.8614 F1020.00
G2 X33.8187 Y345.0935 Z-25.0000 I-3.7348 J-4.1002 F1020.00
G3 X61.9662 Y344.5662 Z-25.0000 I14.1706 J4.9032 F1020.00
G1 X61.9662 Y364.0000 Z-25.0000 F1020.00
G2 X64.9662 Y367.0000 Z-25.0000 I3.0000 J-0.0000 F1020.00
G1 X94.9662 Y367.0000 Z-25.0000 F1020.00
G2 X97.9662 Y364.0000 Z-25.0000 I-0.0000 J-3.0000 F1020.00
G1 X97.9662 Y324.9741 Z-25.0000 F1020.00
G3 X141.9753 Y325.7624 Z-25.0000 I21.7247 J16.0187 F1020.00
G2 X142.6521 Y326.4360 Z-25.0000 I2.4277 J-1.7624 F1020.00
G2 X150.7866 Y327.4529 Z-25.0000 I5.1962 J-8.5228 F1020.00
G0 Z5.0000
(finish operation: Contour)
(begin postamble)
M5
G17 G90
; M2
