(Exported by FreeCAD)
(Post Processor: grbl_post)
(Output Time:2021-11-28 05:46:02.447478)
(begin preamble)
G17 G90
G21
(begin operation: T3: 1/8inMILL001)
(Path: T3: 1/8inMILL001)
(T3: 1/8inMILL001)
(begin toolchange)
; M6 T3
M3 S0.0000
(finish operation: T3: 1/8inMILL001)
(begin operation: MillFace)
(Path: MillFace)
(MillFace)
G0 Z5.0000
G0 X48.5691 Y307.4518
G0 Z3.0000
G1 X48.5691 Y307.4518 Z-0.5000 F960.00
G1 X49.8791 Y304.7005 Z-0.5000 F960.00
G1 X46.5743 Y303.1270 Z-0.5000 F960.00
G3 X46.1013 Y301.7943 Z-0.5000 I0.4299 J-0.9029 F960.00
G1 X47.0640 Y299.7724 Z-0.5000 F960.00
G1 X47.3279 Y298.2269 Z-0.5000 F960.00
G3 X48.1206 Y297.4140 Z-0.5000 I0.9857 J0.1683 F960.00
G1 X50.0140 Y297.0415 Z-0.5000 F960.00
G1 X50.0140 Y294.0233 Z-0.5000 F960.00
G1 X48.1462 Y293.7505 Z-0.5000 F960.00
G3 X47.2991 Y292.8905 Z-0.5000 I0.1445 J-0.9895 F960.00
G1 X46.9778 Y290.4297 Z-0.5000 F960.00
G1 X45.7362 Y288.2706 Z-0.5000 F960.00
G3 X46.1046 Y286.9052 Z-0.5000 I0.8669 J-0.4985 F960.00
G1 X47.7448 Y285.9620 Z-0.5000 F960.00
G1 X46.3620 Y283.3895 Z-0.5000 F960.00
G1 X44.7204 Y284.2720 Z-0.5000 F960.00
G3 X43.4537 Y284.0002 Z-0.5000 I-0.4735 J-0.8808 F960.00
G1 X41.9249 Y282.0093 Z-0.5000 F960.00
G1 X40.7195 Y280.9120 Z-0.5000 F960.00
G3 X40.5015 Y279.7188 Z-0.5000 I0.6731 J-0.7395 F960.00
G1 X41.2172 Y278.3129 Z-0.5000 F960.00
G1 X38.4199 Y276.8889 Z-0.5000 F960.00
G1 X37.4196 Y278.2855 Z-0.5000 F960.00
G3 X36.2280 Y278.6288 Z-0.5000 I-0.8130 J-0.5823 F960.00
G1 X34.5744 Y277.9523 Z-0.5000 F960.00
G1 X32.1639 Y277.2716 Z-0.5000 F960.00
G3 X31.4484 Y276.4684 Z-0.5000 I0.2718 J-0.9624 F960.00
G1 X31.1745 Y274.7698 Z-0.5000 F960.00
G1 X28.1799 Y274.7698 Z-0.5000 F960.00
G1 X27.9439 Y276.4558 Z-0.5000 F960.00
G3 X27.1862 Y277.2898 Z-0.5000 I-0.9903 J-0.1387 F960.00
G1 X24.1515 Y278.0155 Z-0.5000 F960.00
G1 X22.5086 Y278.7914 Z-0.5000 F960.00
G3 X21.1773 Y278.3143 Z-0.5000 I-0.4270 J-0.9042 F960.00
G1 X20.4498 Y276.7739 Z-0.5000 F960.00
G1 X17.7371 Y278.4374 Z-0.5000 F960.00
G1 X18.6879 Y279.9879 Z-0.5000 F960.00
G3 X18.3582 Y281.3631 Z-0.5000 I-0.8525 J0.5228 F960.00
G1 X16.7363 Y282.3578 Z-0.5000 F960.00
G1 X15.3325 Y284.1621 Z-0.5000 F960.00
G3 X14.0245 Y284.4030 Z-0.5000 I-0.7893 J-0.6140 F960.00
G1 X12.6773 Y283.5855 Z-0.5000 F960.00
G1 X12.4145 Y284.0186 Z-0.5000 F960.00
G1 X16.7747 Y286.7693 Z-0.5000 F960.00
G3 X19.7569 Y283.6155 Z-0.5000 I18.7093 J14.7046 F960.00
G3 X24.1416 Y280.6466 Z-0.5000 I11.9855 J12.9788 F960.00
G3 X32.6969 Y279.9659 Z-0.5000 I5.1954 J11.1950 F960.00
G3 X36.8529 Y281.8075 Z-0.5000 I-4.6973 J16.2117 F960.00
G3 X42.6632 Y286.5434 Z-0.5000 I-14.7606 J24.0411 F960.00
G3 X44.3918 Y292.4700 Z-0.5000 I-20.7359 J9.2634 F960.00
G3 X44.5347 Y296.9833 Z-0.5000 I-16.2446 J2.7732 F960.00
G3 X40.8679 Y305.1428 Z-0.5000 I-13.9353 J-1.3586 F960.00
G3 X31.1852 Y309.9262 Z-0.5000 I-11.6486 J-11.3879 F960.00
G3 X21.5684 Y308.3497 Z-0.5000 I-2.1997 J-16.7015 F960.00
G3 X13.5913 Y299.1016 Z-0.5000 I7.0558 J-14.1506 F960.00
G2 X20.5076 Y310.4450 Z-0.5000 I17.3784 J-2.8157 F960.00
G2 X30.8046 Y313.2699 Z-0.5000 I8.6433 J-11.3262 F960.00
G2 X36.9864 Y311.2751 Z-0.5000 I-2.7079 J-18.9672 F960.00
G2 X44.0225 Y305.9972 Z-0.5000 I-14.1865 J-26.2413 F960.00
G3 X45.1409 Y305.8195 Z-0.5000 I0.6885 J0.7252 F960.00
G1 X48.5691 Y307.4518 Z-0.5000 F960.00
G0 X48.5691 Y307.4518 Z5.0000
G0 X49.7797 Y304.9092 Z5.0000
G0 X49.7797 Y304.9092 Z2.5000
G1 X49.7797 Y304.9092 Z-0.5000 F960.00
G1 X49.2911 Y304.4205 Z-0.5000 F960.00
G1 X49.8791 Y304.7005 Z-0.5000 F960.00
G1 X49.7797 Y304.9092 Z-0.5000 F960.00
G0 X49.7797 Y304.9092 Z5.0000
G0 X37.5502 Y300.2269 Z5.0000
G0 X37.5502 Y300.2269 Z2.5000
G1 X37.5502 Y300.2269 Z-0.5000 F960.00
G1 X37.7728 Y299.6456 Z-0.5000 F960.00
G1 X28.2704 Y296.0074 Z-0.5000 F960.00
G3 X28.0914 Y294.2297 Z-0.5000 I0.3576 J-0.9339 F960.00
G1 X37.0582 Y288.5283 Z-0.5000 F960.00
G1 X37.0582 Y287.2318 Z-0.5000 F960.00
G1 X25.2750 Y294.7239 Z-0.5000 F960.00
G3 X24.3809 Y294.8139 Z-0.5000 I-0.5366 J-0.8439 F960.00
G1 X21.5114 Y293.7153 Z-0.5000 F960.00
G3 X20.8690 Y292.7814 Z-0.5000 I0.3576 J-0.9339 F960.00
G1 X20.8690 Y290.5990 Z-0.5000 F960.00
G1 X19.8504 Y290.5990 Z-0.5000 F960.00
G1 X19.8504 Y294.3669 Z-0.5000 F960.00
G1 X35.3590 Y300.3046 Z-0.5000 F960.00
G3 X35.9353 Y301.5961 Z-0.5000 I-0.3576 J0.9339 F960.00
G1 X35.3400 Y303.1509 Z-0.5000 F960.00
G1 X36.2997 Y303.5183 Z-0.5000 F960.00
G1 X36.3139 Y303.4559 Z-0.5000 F960.00
G1 X37.5502 Y300.2269 Z-0.5000 F960.00
G0 X37.5502 Y300.2269 Z5.0000
G0 X37.7001 Y299.6177 Z5.0000
G0 X37.7001 Y299.6177 Z2.5000
G1 X37.7001 Y299.6177 Z-0.5000 F960.00
G1 X37.7728 Y299.6456 Z-0.5000 F960.00
G1 X37.7604 Y299.6780 Z-0.5000 F960.00
G1 X37.7001 Y299.6177 Z-0.5000 F960.00
G1 X34.0335 Y298.2139 Z-0.5000 F960.00
G1 X37.1339 Y301.3143 Z-0.5000 F960.00
G1 X36.5074 Y302.9506 Z-0.5000 F960.00
G1 X35.7187 Y302.1619 Z-0.5000 F960.00
G1 X35.3400 Y303.1509 Z-0.5000 F960.00
G1 X36.2997 Y303.5183 Z-0.5000 F960.00
G3 X36.5074 Y302.9506 Z-0.5000 I2.0996 J0.4463 F960.00
G0 X36.5074 Y302.9506 Z5.0000
G0 X32.9324 Y299.3756 Z5.0000
G0 X32.9324 Y299.3756 Z2.5000
G1 X32.9324 Y299.3756 Z-0.5000 F960.00
G1 X30.3669 Y296.8101 Z-0.5000 F960.00
G1 X28.2704 Y296.0074 Z-0.5000 F960.00
G3 X27.9266 Y294.3698 Z-0.5000 I0.3505 J-0.9285 F960.00
G1 X27.1124 Y293.5556 Z-0.5000 F960.00
G1 X25.7292 Y294.4351 Z-0.5000 F960.00
G1 X29.2659 Y297.9718 Z-0.5000 F960.00
G1 X25.5993 Y296.5680 Z-0.5000 F960.00
G1 X23.5130 Y294.4816 Z-0.5000 F960.00
G1 X21.5114 Y293.7153 Z-0.5000 F960.00
G3 X20.8690 Y292.7814 Z-0.5000 I0.3576 J-0.9339 F960.00
G1 X20.8690 Y291.8377 Z-0.5000 F960.00
G1 X19.8504 Y290.8191 Z-0.5000 F960.00
G1 X19.8504 Y293.0818 Z-0.5000 F960.00
G1 X21.9328 Y295.1642 Z-0.5000 F960.00
G1 X19.8504 Y294.3669 Z-0.5000 F960.00
G1 X19.8504 Y293.0818 Z-0.5000 F960.00
G0 X19.8504 Y293.0818 Z5.0000
G0 X20.8690 Y291.8377 Z5.0000
G0 X20.8690 Y291.8377 Z2.5000
G1 X20.8690 Y291.8377 Z-0.5000 F960.00
G1 X20.8690 Y290.5990 Z-0.5000 F960.00
G1 X19.8504 Y290.5990 Z-0.5000 F960.00
G1 X19.8504 Y290.8191 Z-0.5000 F960.00
G1 X20.8690 Y291.8377 Z-0.5000 F960.00
G0 X20.8690 Y291.8377 Z5.0000
G0 X27.1124 Y293.5556 Z5.0000
G0 X27.1124 Y293.5556 Z2.5000
G1 X27.1124 Y293.5556 Z-0.5000 F960.00
G1 X27.9266 Y294.3698 Z-0.5000 F960.00
G1 X28.0914 Y294.2297 Z-0.5000 F960.00
G1 X29.2883 Y293.4687 Z-0.5000 F960.00
G1 X28.4957 Y292.6761 Z-0.5000 F960.00
G1 X29.8789 Y291.7966 Z-0.5000 F960.00
G1 X30.6715 Y292.5892 Z-0.5000 F960.00
G1 X32.0547 Y291.7097 Z-0.5000 F960.00
G1 X31.2621 Y290.9171 Z-0.5000 F960.00
G1 X32.6454 Y290.0376 Z-0.5000 F960.00
G1 X33.4380 Y290.8302 Z-0.5000 F960.00
G1 X34.8212 Y289.9507 Z-0.5000 F960.00
G1 X34.0286 Y289.1581 Z-0.5000 F960.00
G1 X35.4118 Y288.2786 Z-0.5000 F960.00
G1 X36.2044 Y289.0711 Z-0.5000 F960.00
G1 X37.0582 Y288.5283 Z-0.5000 F960.00
G1 X37.0582 Y287.6622 Z-0.5000 F960.00
G1 X36.7951 Y287.3990 Z-0.5000 F960.00
G1 X37.0582 Y287.2318 Z-0.5000 F960.00
G1 X37.0582 Y287.6622 Z-0.5000 F960.00
G0 X37.0582 Y287.6622 Z5.0000
G0 X43.8607 Y289.9392 Z5.0000
G0 X43.8607 Y289.9392 Z2.5000
G1 X43.8607 Y289.9392 Z-0.5000 F960.00
G1 X50.0140 Y296.0925 Z-0.5000 F960.00
G1 X50.0140 Y297.0415 Z-0.5000 F960.00
G1 X48.9163 Y297.2575 Z-0.5000 F960.00
G1 X44.4309 Y292.7722 Z-0.5000 F960.00
G3 X44.6200 Y295.2240 Z-0.5000 I-13.1571 J2.2480 F960.00
G1 X47.3956 Y297.9996 Z-0.5000 F960.00
G1 X47.3279 Y298.2269 Z-0.5000 F960.00
G1 X47.0640 Y299.7724 Z-0.5000 F960.00
G1 X47.0129 Y299.8796 Z-0.5000 F960.00
G1 X44.4814 Y297.3482 Z-0.5000 F960.00
G3 X44.1080 Y299.2375 Z-0.5000 I-11.3865 J-1.2690 F960.00
G1 X46.2831 Y301.4125 Z-0.5000 F960.00
G2 X46.0208 Y302.0426 Z-0.5000 I2.2618 J1.3110 F960.00
G2 X46.5743 Y303.1270 Z-0.5000 I0.9834 J0.1815 F960.00
G1 X49.2911 Y304.4205 Z-0.5000 F960.00
G1 X49.7797 Y304.9092 Z-0.5000 F960.00
G1 X49.0499 Y306.4421 Z-0.5000 F960.00
G1 X43.5437 Y300.9359 Z-0.5000 F960.00
G3 X42.8114 Y302.4663 Z-0.5000 I-9.5150 J-3.6125 F960.00
G1 X47.0949 Y306.7499 Z-0.5000 F960.00
G1 X45.1409 Y305.8195 Z-0.5000 F960.00
G2 X44.0552 Y305.9729 Z-0.5000 I-0.4285 J0.8862 F960.00
G1 X41.9308 Y303.8485 Z-0.5000 F960.00
G3 X40.9120 Y305.0925 Z-0.5000 I-9.6335 J-6.8501 F960.00
G1 X42.8854 Y307.0659 Z-0.5000 F960.00
G3 X41.6677 Y308.1109 Z-0.5000 I-14.0398 J-15.1268 F960.00
G1 X39.7528 Y306.1960 Z-0.5000 F960.00
G3 X38.4653 Y307.1712 Z-0.5000 I-8.1713 J-9.4503 F960.00
G1 X40.3982 Y309.1041 Z-0.5000 F960.00
G3 X39.0781 Y310.0468 Z-0.5000 I-13.7014 J-17.7918 F960.00
G1 X37.0603 Y308.0290 Z-0.5000 F960.00
G3 X35.5336 Y308.7650 Z-0.5000 I-6.4395 J-11.4054 F960.00
G1 X37.6703 Y310.9017 Z-0.5000 F960.00
G3 X36.1711 Y311.6652 Z-0.5000 I-7.8846 J-13.6292 F960.00
G1 X33.8630 Y309.3572 Z-0.5000 F960.00
G3 X32.0366 Y309.7934 Z-0.5000 I-3.6278 J-11.1466 F960.00
G1 X34.5668 Y312.3237 Z-0.5000 F960.00
G3 X32.8524 Y312.8720 Z-0.5000 I-5.9813 J-15.7478 F960.00
G1 X30.0096 Y310.0293 Z-0.5000 F960.00
G3 X27.7306 Y310.0130 Z-0.5000 I-1.0359 J-14.5105 F960.00
G1 X30.9634 Y313.2457 Z-0.5000 F960.00
G3 X28.8165 Y313.3616 Z-0.5000 I-1.7871 J-13.1627 F960.00
G1 X25.0604 Y309.6055 Z-0.5000 F960.00
G3 X21.5158 Y308.3237 Z-0.5000 I3.4968 J-15.2113 F960.00
G1 X26.2538 Y313.0617 Z-0.5000 F960.00
G0 X26.2538 Y313.0617 Z5.0000
G0 X22.7817 Y311.8523 Z5.0000
G0 X22.7817 Y311.8523 Z2.5000
G1 X22.7817 Y311.8523 Z-0.5000 F960.00
G3 X15.3818 Y304.4524 Z-0.5000 I7.9875 J-15.3874 F960.00
G1 X22.7817 Y311.8523 Z-0.5000 F960.00
G2 X26.2538 Y313.0617 Z-0.5000 I6.0656 J-11.8253 F960.00
G1 X21.5158 Y308.3237 Z-0.5000 F960.00
G3 X20.5981 Y307.8252 Z-0.5000 I28.9436 J-54.3774 F960.00
G3 X14.5234 Y301.3312 Z-0.5000 I7.8059 J-13.3903 F960.00
G1 X13.9393 Y300.7471 Z-0.5000 F960.00
G3 X13.5913 Y299.1016 Z-0.5000 I16.0478 J-4.2534 F960.00
G2 X14.5234 Y301.3312 Z-0.5000 I15.0651 J-4.9883 F960.00
G0 X14.5234 Y301.3312 Z5.0000
G0 X14.1359 Y285.1046 Z5.0000
G0 X14.1359 Y285.1046 Z2.5000
G1 X14.1359 Y285.1046 Z-0.5000 F960.00
G1 X12.4145 Y284.0186 Z-0.5000 F960.00
G1 X12.6545 Y283.6231 Z-0.5000 F960.00
G1 X14.1359 Y285.1046 Z-0.5000 F960.00
G1 X16.7747 Y286.7693 Z-0.5000 F960.00
G3 X17.3561 Y286.0620 Z-0.5000 I7.5367 J5.6037 F960.00
G1 X15.3867 Y284.0926 Z-0.5000 F960.00
G1 X16.3767 Y282.8199 Z-0.5000 F960.00
G1 X18.4385 Y284.8816 Z-0.5000 F960.00
G3 X19.5901 Y283.7705 Z-0.5000 I11.7976 J11.0751 F960.00
G1 X17.6295 Y281.8100 Z-0.5000 F960.00
G1 X18.3582 Y281.3631 Z-0.5000 F960.00
G2 X18.8096 Y280.7273 Z-0.5000 I-0.5094 J-0.8398 F960.00
G1 X20.8146 Y282.7323 Z-0.5000 F960.00
G3 X22.1208 Y281.7757 Z-0.5000 I9.3648 J11.4166 F960.00
G1 X18.3851 Y278.0400 Z-0.5000 F960.00
G1 X19.7877 Y277.1799 Z-0.5000 F960.00
G1 X23.5448 Y280.9371 Z-0.5000 F960.00
G3 X25.1243 Y280.2538 Z-0.5000 I5.5188 J10.5904 F960.00
G1 X23.2920 Y278.4214 Z-0.5000 F960.00
G1 X24.1515 Y278.0155 Z-0.5000 F960.00
G1 X24.9563 Y277.8230 Z-0.5000 F960.00
G1 X26.8885 Y279.7552 Z-0.5000 F960.00
G3 X28.9157 Y279.5197 Z-0.5000 I2.1571 J9.7227 F960.00
G1 X26.7823 Y277.3863 Z-0.5000 F960.00
G1 X27.1862 Y277.2898 Z-0.5000 F960.00
G2 X27.9649 Y276.3061 Z-0.5000 I-0.2494 J-0.9975 F960.00
G1 X31.3417 Y279.6830 Z-0.5000 F960.00
G3 X34.5400 Y280.6185 Z-0.5000 I-1.8422 J12.2328 F960.00
G1 X28.6913 Y274.7698 Z-0.5000 F960.00
G1 X30.9541 Y274.7698 Z-0.5000 F960.00
G1 X31.2169 Y275.0327 Z-0.5000 F960.00
G1 X31.4484 Y276.4684 Z-0.5000 F960.00
G2 X32.1639 Y277.2716 Z-0.5000 I0.9872 J-0.1592 F960.00
G1 X33.9643 Y277.7800 Z-0.5000 F960.00
G1 X47.0324 Y290.8482 Z-0.5000 F960.00
G1 X46.9778 Y290.4297 Z-0.5000 F960.00
G1 X45.7362 Y288.2706 Z-0.5000 F960.00
G3 X45.7320 Y287.2850 Z-0.5000 I0.8595 J-0.4965 F960.00
G1 X37.0442 Y278.5973 Z-0.5000 F960.00
G2 X37.4196 Y278.2855 Z-0.5000 I-0.3809 J-0.8406 F960.00
G1 X38.0772 Y277.3674 Z-0.5000 F960.00
G1 X40.4824 Y279.7727 Z-0.5000 F960.00
G2 X40.7195 Y280.9120 Z-0.5000 I0.8910 J0.4089 F960.00
G1 X41.9249 Y282.0093 Z-0.5000 F960.00
G1 X43.4537 Y284.0002 Z-0.5000 F960.00
G2 X44.8903 Y284.1806 Z-0.5000 I0.8101 J-0.6405 F960.00
G1 X47.0635 Y286.3538 Z-0.5000 F960.00
G1 X47.7448 Y285.9620 Z-0.5000 F960.00
G1 X46.3620 Y283.3895 Z-0.5000 F960.00
G0 X46.3620 Y283.3895 Z5.0000
G0 X40.4824 Y279.7727 Z5.0000
G0 X40.4824 Y279.7727 Z2.5000
G1 X40.4824 Y279.7727 Z-0.5000 F960.00
G1 X40.5015 Y279.7188 Z-0.5000 F960.00
G1 X41.2172 Y278.3129 Z-0.5000 F960.00
G1 X38.4199 Y276.8889 Z-0.5000 F960.00
G1 X38.0772 Y277.3674 Z-0.5000 F960.00
G1 X40.4824 Y279.7727 Z-0.5000 F960.00
G0 X40.4824 Y279.7727 Z5.0000
G0 X31.2169 Y275.0327 Z5.0000
G0 X31.2169 Y275.0327 Z2.5000
G1 X31.2169 Y275.0327 Z-0.5000 F960.00
G1 X31.1745 Y274.7698 Z-0.5000 F960.00
G1 X30.9541 Y274.7698 Z-0.5000 F960.00
G1 X31.2169 Y275.0327 Z-0.5000 F960.00
G1 X31.2169 Y275.0327 Z-1.0000 F960.00
G1 X31.1745 Y274.7698 Z-1.0000 F960.00
G1 X30.9541 Y274.7698 Z-1.0000 F960.00
G1 X31.2169 Y275.0327 Z-1.0000 F960.00
G1 X31.2169 Y275.0327 Z-1.0000 F960.00
G1 X31.1745 Y274.7698 Z-1.0000 F960.00
G1 X28.1799 Y274.7698 Z-1.0000 F960.00
G1 X27.9439 Y276.4558 Z-1.0000 F960.00
G3 X27.1862 Y277.2898 Z-1.0000 I-0.9903 J-0.1387 F960.00
G1 X24.1515 Y278.0155 Z-1.0000 F960.00
G1 X22.5086 Y278.7914 Z-1.0000 F960.00
G3 X21.1773 Y278.3143 Z-1.0000 I-0.4270 J-0.9042 F960.00
G1 X20.4498 Y276.7739 Z-1.0000 F960.00
G1 X17.7371 Y278.4374 Z-1.0000 F960.00
G1 X18.6879 Y279.9879 Z-1.0000 F960.00
G3 X18.3582 Y281.3631 Z-1.0000 I-0.8525 J0.5228 F960.00
G1 X16.7363 Y282.3578 Z-1.0000 F960.00
G1 X15.3325 Y284.1621 Z-1.0000 F960.00
G3 X14.0245 Y284.4030 Z-1.0000 I-0.7893 J-0.6140 F960.00
G1 X12.6773 Y283.5855 Z-1.0000 F960.00
G1 X12.4145 Y284.0186 Z-1.0000 F960.00
G1 X16.7747 Y286.7693 Z-1.0000 F960.00
G3 X19.7569 Y283.6155 Z-1.0000 I18.7093 J14.7046 F960.00
G3 X24.1416 Y280.6466 Z-1.0000 I11.9855 J12.9788 F960.00
G3 X32.6969 Y279.9659 Z-1.0000 I5.1954 J11.1950 F960.00
G3 X36.8529 Y281.8075 Z-1.0000 I-4.6973 J16.2117 F960.00
G3 X42.6632 Y286.5434 Z-1.0000 I-14.7606 J24.0411 F960.00
G3 X44.3918 Y292.4700 Z-1.0000 I-20.7359 J9.2634 F960.00
G3 X44.5347 Y296.9833 Z-1.0000 I-16.2446 J2.7732 F960.00
G3 X40.8679 Y305.1428 Z-1.0000 I-13.9353 J-1.3586 F960.00
G3 X31.1852 Y309.9262 Z-1.0000 I-11.6486 J-11.3879 F960.00
G3 X21.5684 Y308.3497 Z-1.0000 I-2.1997 J-16.7015 F960.00
G3 X13.5913 Y299.1016 Z-1.0000 I7.0558 J-14.1506 F960.00
G2 X20.5076 Y310.4450 Z-1.0000 I17.3784 J-2.8157 F960.00
G2 X30.8046 Y313.2699 Z-1.0000 I8.6433 J-11.3262 F960.00
G2 X36.9864 Y311.2751 Z-1.0000 I-2.7079 J-18.9672 F960.00
G2 X44.0225 Y305.9972 Z-1.0000 I-14.1865 J-26.2413 F960.00
G3 X45.1409 Y305.8195 Z-1.0000 I0.6885 J0.7252 F960.00
G1 X48.5691 Y307.4518 Z-1.0000 F960.00
G1 X49.8791 Y304.7005 Z-1.0000 F960.00
G1 X46.5743 Y303.1270 Z-1.0000 F960.00
G3 X46.1013 Y301.7943 Z-1.0000 I0.4299 J-0.9029 F960.00
G1 X47.0640 Y299.7724 Z-1.0000 F960.00
G1 X47.3279 Y298.2269 Z-1.0000 F960.00
G3 X48.1206 Y297.4140 Z-1.0000 I0.9857 J0.1683 F960.00
G1 X50.0140 Y297.0415 Z-1.0000 F960.00
G1 X50.0140 Y294.0233 Z-1.0000 F960.00
G1 X48.1462 Y293.7505 Z-1.0000 F960.00
G3 X47.2991 Y292.8905 Z-1.0000 I0.1445 J-0.9895 F960.00
G1 X46.9778 Y290.4297 Z-1.0000 F960.00
G1 X45.7362 Y288.2706 Z-1.0000 F960.00
G3 X46.1046 Y286.9052 Z-1.0000 I0.8669 J-0.4985 F960.00
G1 X47.7448 Y285.9620 Z-1.0000 F960.00
G1 X46.3620 Y283.3895 Z-1.0000 F960.00
G1 X44.7204 Y284.2720 Z-1.0000 F960.00
G3 X43.4537 Y284.0002 Z-1.0000 I-0.4735 J-0.8808 F960.00
G1 X41.9249 Y282.0093 Z-1.0000 F960.00
G1 X40.7195 Y280.9120 Z-1.0000 F960.00
G3 X40.5015 Y279.7188 Z-1.0000 I0.6731 J-0.7395 F960.00
G1 X41.2172 Y278.3129 Z-1.0000 F960.00
G1 X38.4199 Y276.8889 Z-1.0000 F960.00
G1 X37.4196 Y278.2855 Z-1.0000 F960.00
G3 X36.2280 Y278.6288 Z-1.0000 I-0.8130 J-0.5823 F960.00
G1 X34.5744 Y277.9523 Z-1.0000 F960.00
G1 X32.1639 Y277.2716 Z-1.0000 F960.00
G3 X31.4484 Y276.4684 Z-1.0000 I0.2718 J-0.9624 F960.00
G1 X31.2169 Y275.0327 Z-1.0000 F960.00
G0 X31.2169 Y275.0327 Z5.0000
G0 X38.0772 Y277.3674 Z5.0000
G0 X38.0772 Y277.3674 Z2.0000
G1 X38.0772 Y277.3674 Z-1.0000 F960.00
G1 X40.4824 Y279.7727 Z-1.0000 F960.00
G1 X40.5015 Y279.7188 Z-1.0000 F960.00
G1 X41.2172 Y278.3129 Z-1.0000 F960.00
G1 X38.4199 Y276.8889 Z-1.0000 F960.00
G1 X38.0772 Y277.3674 Z-1.0000 F960.00
G0 X38.0772 Y277.3674 Z5.0000
G0 X37.0582 Y287.2318 Z5.0000
G0 X37.0582 Y287.2318 Z2.0000
G1 X37.0582 Y287.2318 Z-1.0000 F960.00
G1 X25.2750 Y294.7239 Z-1.0000 F960.00
G3 X24.3809 Y294.8139 Z-1.0000 I-0.5366 J-0.8439 F960.00
G1 X21.5114 Y293.7153 Z-1.0000 F960.00
G3 X20.8690 Y292.7814 Z-1.0000 I0.3576 J-0.9339 F960.00
G1 X20.8690 Y290.5990 Z-1.0000 F960.00
G1 X19.8504 Y290.5990 Z-1.0000 F960.00
G1 X19.8504 Y294.3669 Z-1.0000 F960.00
G1 X35.3590 Y300.3046 Z-1.0000 F960.00
G3 X35.9353 Y301.5961 Z-1.0000 I-0.3576 J0.9339 F960.00
G1 X35.3400 Y303.1509 Z-1.0000 F960.00
G1 X36.2997 Y303.5183 Z-1.0000 F960.00
G1 X36.3139 Y303.4559 Z-1.0000 F960.00
G1 X37.7728 Y299.6456 Z-1.0000 F960.00
G1 X28.2704 Y296.0074 Z-1.0000 F960.00
G3 X28.0914 Y294.2297 Z-1.0000 I0.3576 J-0.9339 F960.00
G1 X37.0582 Y288.5283 Z-1.0000 F960.00
G1 X37.0582 Y287.2318 Z-1.0000 F960.00
G0 X37.0582 Y287.2318 Z5.0000
G0 X37.0582 Y287.6622 Z5.0000
G0 X37.0582 Y287.6622 Z2.0000
G1 X37.0582 Y287.6622 Z-1.0000 F960.00
G1 X37.0582 Y287.2318 Z-1.0000 F960.00
G1 X36.7951 Y287.3990 Z-1.0000 F960.00
G1 X37.0582 Y287.6622 Z-1.0000 F960.00
G1 X37.0582 Y288.5283 Z-1.0000 F960.00
G1 X36.2044 Y289.0711 Z-1.0000 F960.00
G1 X35.4118 Y288.2786 Z-1.0000 F960.00
G1 X34.0286 Y289.1581 Z-1.0000 F960.00
G1 X34.8212 Y289.9507 Z-1.0000 F960.00
G1 X33.4380 Y290.8302 Z-1.0000 F960.00
G1 X32.6454 Y290.0376 Z-1.0000 F960.00
G1 X31.2621 Y290.9171 Z-1.0000 F960.00
G1 X32.0547 Y291.7097 Z-1.0000 F960.00
G1 X30.6715 Y292.5892 Z-1.0000 F960.00
G1 X29.8789 Y291.7966 Z-1.0000 F960.00
G1 X28.4957 Y292.6761 Z-1.0000 F960.00
G1 X29.2883 Y293.4687 Z-1.0000 F960.00
G1 X28.0914 Y294.2297 Z-1.0000 F960.00
G1 X27.9266 Y294.3698 Z-1.0000 F960.00
G1 X27.1124 Y293.5556 Z-1.0000 F960.00
G0 X27.1124 Y293.5556 Z5.0000
G0 X20.8690 Y291.8377 Z5.0000
G0 X20.8690 Y291.8377 Z2.0000
G1 X20.8690 Y291.8377 Z-1.0000 F960.00
G1 X20.8690 Y290.5990 Z-1.0000 F960.00
G1 X19.8504 Y290.5990 Z-1.0000 F960.00
G1 X19.8504 Y290.8191 Z-1.0000 F960.00
G1 X20.8690 Y291.8377 Z-1.0000 F960.00
G0 X20.8690 Y291.8377 Z5.0000
G0 X19.8504 Y293.0818 Z5.0000
G0 X19.8504 Y293.0818 Z2.0000
G1 X19.8504 Y293.0818 Z-1.0000 F960.00
G1 X19.8504 Y294.3669 Z-1.0000 F960.00
G1 X21.9328 Y295.1642 Z-1.0000 F960.00
G1 X19.8504 Y293.0818 Z-1.0000 F960.00
G1 X19.8504 Y290.8191 Z-1.0000 F960.00
G1 X20.8690 Y291.8377 Z-1.0000 F960.00
G1 X20.8690 Y292.7814 Z-1.0000 F960.00
G2 X21.5114 Y293.7153 Z-1.0000 I1.0000 J-0.0000 F960.00
G1 X23.5130 Y294.4816 Z-1.0000 F960.00
G1 X25.5993 Y296.5680 Z-1.0000 F960.00
G1 X29.2659 Y297.9718 Z-1.0000 F960.00
G1 X25.7292 Y294.4351 Z-1.0000 F960.00
G1 X27.1124 Y293.5556 Z-1.0000 F960.00
G1 X27.9266 Y294.3698 Z-1.0000 F960.00
G2 X28.2704 Y296.0074 Z-1.0000 I0.6944 J0.7091 F960.00
G1 X30.3669 Y296.8101 Z-1.0000 F960.00
G1 X32.9324 Y299.3756 Z-1.0000 F960.00
G0 X32.9324 Y299.3756 Z5.0000
G0 X37.7001 Y299.6177 Z5.0000
G0 X37.7001 Y299.6177 Z2.0000
G1 X37.7001 Y299.6177 Z-1.0000 F960.00
G1 X37.7728 Y299.6456 Z-1.0000 F960.00
G1 X37.7604 Y299.6780 Z-1.0000 F960.00
G1 X37.7001 Y299.6177 Z-1.0000 F960.00
G1 X34.0335 Y298.2139 Z-1.0000 F960.00
G1 X37.1339 Y301.3143 Z-1.0000 F960.00
G1 X36.5074 Y302.9506 Z-1.0000 F960.00
G1 X35.7187 Y302.1619 Z-1.0000 F960.00
G1 X35.3400 Y303.1509 Z-1.0000 F960.00
G1 X36.2997 Y303.5183 Z-1.0000 F960.00
G3 X36.5074 Y302.9506 Z-1.0000 I2.0996 J0.4463 F960.00
G0 X36.5074 Y302.9506 Z5.0000
G0 X49.2911 Y304.4205 Z5.0000
G0 X49.2911 Y304.4205 Z2.0000
G1 X49.2911 Y304.4205 Z-1.0000 F960.00
G1 X49.8791 Y304.7005 Z-1.0000 F960.00
G1 X49.7797 Y304.9092 Z-1.0000 F960.00
G1 X49.2911 Y304.4205 Z-1.0000 F960.00
G0 X49.2911 Y304.4205 Z5.0000
G0 X43.8607 Y289.9392 Z5.0000
G0 X43.8607 Y289.9392 Z2.0000
G1 X43.8607 Y289.9392 Z-1.0000 F960.00
G1 X50.0140 Y296.0925 Z-1.0000 F960.00
G1 X50.0140 Y297.0415 Z-1.0000 F960.00
G1 X48.9163 Y297.2575 Z-1.0000 F960.00
G1 X44.4309 Y292.7722 Z-1.0000 F960.00
G3 X44.6200 Y295.2240 Z-1.0000 I-13.1571 J2.2480 F960.00
G1 X47.3956 Y297.9996 Z-1.0000 F960.00
G1 X47.3279 Y298.2269 Z-1.0000 F960.00
G1 X47.0640 Y299.7724 Z-1.0000 F960.00
G1 X47.0129 Y299.8796 Z-1.0000 F960.00
G1 X44.4814 Y297.3482 Z-1.0000 F960.00
G3 X44.1080 Y299.2375 Z-1.0000 I-11.3865 J-1.2690 F960.00
G1 X46.2831 Y301.4125 Z-1.0000 F960.00
G2 X46.0208 Y302.0426 Z-1.0000 I2.2618 J1.3110 F960.00
G2 X46.5743 Y303.1270 Z-1.0000 I0.9834 J0.1815 F960.00
G1 X49.2911 Y304.4205 Z-1.0000 F960.00
G1 X49.7797 Y304.9092 Z-1.0000 F960.00
G1 X49.0499 Y306.4421 Z-1.0000 F960.00
G1 X43.5437 Y300.9359 Z-1.0000 F960.00
G3 X42.8114 Y302.4663 Z-1.0000 I-9.5150 J-3.6125 F960.00
G1 X47.0949 Y306.7499 Z-1.0000 F960.00
G1 X45.1409 Y305.8195 Z-1.0000 F960.00
G2 X44.0552 Y305.9729 Z-1.0000 I-0.4285 J0.8862 F960.00
G1 X41.9308 Y303.8485 Z-1.0000 F960.00
G3 X40.9120 Y305.0925 Z-1.0000 I-9.6335 J-6.8501 F960.00
G1 X42.8854 Y307.0659 Z-1.0000 F960.00
G3 X41.6677 Y308.1109 Z-1.0000 I-14.0398 J-15.1268 F960.00
G1 X39.7528 Y306.1960 Z-1.0000 F960.00
G3 X38.4653 Y307.1712 Z-1.0000 I-8.1713 J-9.4503 F960.00
G1 X40.3982 Y309.1041 Z-1.0000 F960.00
G3 X39.0781 Y310.0468 Z-1.0000 I-13.7014 J-17.7918 F960.00
G1 X37.0603 Y308.0290 Z-1.0000 F960.00
G3 X35.5336 Y308.7650 Z-1.0000 I-6.4395 J-11.4054 F960.00
G1 X37.6703 Y310.9017 Z-1.0000 F960.00
G3 X36.1711 Y311.6652 Z-1.0000 I-7.8846 J-13.6292 F960.00
G1 X33.8630 Y309.3572 Z-1.0000 F960.00
G3 X32.0366 Y309.7934 Z-1.0000 I-3.6278 J-11.1466 F960.00
G1 X34.5668 Y312.3237 Z-1.0000 F960.00
G3 X32.8524 Y312.8720 Z-1.0000 I-5.9813 J-15.7478 F960.00
G1 X30.0096 Y310.0293 Z-1.0000 F960.00
G3 X27.7306 Y310.0130 Z-1.0000 I-1.0359 J-14.5105 F960.00
G1 X30.9634 Y313.2457 Z-1.0000 F960.00
G3 X28.8165 Y313.3616 Z-1.0000 I-1.7871 J-13.1627 F960.00
G1 X25.0604 Y309.6055 Z-1.0000 F960.00
G3 X21.5158 Y308.3237 Z-1.0000 I3.4968 J-15.2113 F960.00
G1 X26.2538 Y313.0617 Z-1.0000 F960.00
G0 X26.2538 Y313.0617 Z5.0000
G0 X22.7817 Y311.8523 Z5.0000
G0 X22.7817 Y311.8523 Z2.0000
G1 X22.7817 Y311.8523 Z-1.0000 F960.00
G3 X15.3818 Y304.4524 Z-1.0000 I7.9875 J-15.3874 F960.00
G1 X22.7817 Y311.8523 Z-1.0000 F960.00
G2 X26.2538 Y313.0617 Z-1.0000 I6.0656 J-11.8253 F960.00
G1 X21.5158 Y308.3237 Z-1.0000 F960.00
G3 X20.5981 Y307.8252 Z-1.0000 I28.9436 J-54.3774 F960.00
G3 X14.5234 Y301.3312 Z-1.0000 I7.8059 J-13.3903 F960.00
G1 X13.9393 Y300.7471 Z-1.0000 F960.00
G3 X13.5913 Y299.1016 Z-1.0000 I16.0478 J-4.2534 F960.00
G2 X14.5234 Y301.3312 Z-1.0000 I15.0651 J-4.9883 F960.00
G0 X14.5234 Y301.3312 Z5.0000
G0 X14.1359 Y285.1046 Z5.0000
G0 X14.1359 Y285.1046 Z2.0000
G1 X14.1359 Y285.1046 Z-1.0000 F960.00
G1 X12.4145 Y284.0186 Z-1.0000 F960.00
G1 X12.6545 Y283.6231 Z-1.0000 F960.00
G1 X14.1359 Y285.1046 Z-1.0000 F960.00
G1 X16.7747 Y286.7693 Z-1.0000 F960.00
G3 X17.3561 Y286.0620 Z-1.0000 I7.5367 J5.6037 F960.00
G1 X15.3867 Y284.0926 Z-1.0000 F960.00
G1 X16.3767 Y282.8199 Z-1.0000 F960.00
G1 X18.4385 Y284.8816 Z-1.0000 F960.00
G3 X19.5901 Y283.7705 Z-1.0000 I11.7976 J11.0751 F960.00
G1 X17.6295 Y281.8100 Z-1.0000 F960.00
G1 X18.3582 Y281.3631 Z-1.0000 F960.00
G2 X18.8096 Y280.7273 Z-1.0000 I-0.5094 J-0.8398 F960.00
G1 X20.8146 Y282.7323 Z-1.0000 F960.00
G3 X22.1208 Y281.7757 Z-1.0000 I9.3648 J11.4166 F960.00
G1 X18.3851 Y278.0400 Z-1.0000 F960.00
G1 X19.7877 Y277.1799 Z-1.0000 F960.00
G1 X23.5448 Y280.9371 Z-1.0000 F960.00
G3 X25.1243 Y280.2538 Z-1.0000 I5.5188 J10.5904 F960.00
G1 X23.2920 Y278.4214 Z-1.0000 F960.00
G1 X24.1515 Y278.0155 Z-1.0000 F960.00
G1 X24.9563 Y277.8230 Z-1.0000 F960.00
G1 X26.8885 Y279.7552 Z-1.0000 F960.00
G3 X28.9157 Y279.5197 Z-1.0000 I2.1571 J9.7227 F960.00
G1 X26.7823 Y277.3863 Z-1.0000 F960.00
G1 X27.1862 Y277.2898 Z-1.0000 F960.00
G2 X27.9649 Y276.3061 Z-1.0000 I-0.2494 J-0.9975 F960.00
G1 X31.3417 Y279.6830 Z-1.0000 F960.00
G3 X34.5400 Y280.6185 Z-1.0000 I-1.8422 J12.2328 F960.00
G1 X28.6913 Y274.7698 Z-1.0000 F960.00
G1 X30.9541 Y274.7698 Z-1.0000 F960.00
G1 X31.2169 Y275.0327 Z-1.0000 F960.00
G1 X31.4484 Y276.4684 Z-1.0000 F960.00
G2 X32.1639 Y277.2716 Z-1.0000 I0.9872 J-0.1592 F960.00
G1 X33.9643 Y277.7800 Z-1.0000 F960.00
G1 X47.0324 Y290.8482 Z-1.0000 F960.00
G1 X46.9778 Y290.4297 Z-1.0000 F960.00
G1 X45.7362 Y288.2706 Z-1.0000 F960.00
G3 X45.7320 Y287.2850 Z-1.0000 I0.8595 J-0.4965 F960.00
G1 X37.0442 Y278.5973 Z-1.0000 F960.00
G2 X37.4196 Y278.2855 Z-1.0000 I-0.3809 J-0.8406 F960.00
G1 X38.0772 Y277.3674 Z-1.0000 F960.00
G1 X40.4824 Y279.7727 Z-1.0000 F960.00
G2 X40.7195 Y280.9120 Z-1.0000 I0.8910 J0.4089 F960.00
G1 X41.9249 Y282.0093 Z-1.0000 F960.00
G1 X43.4537 Y284.0002 Z-1.0000 F960.00
G2 X44.8903 Y284.1806 Z-1.0000 I0.8101 J-0.6405 F960.00
G1 X47.0635 Y286.3538 Z-1.0000 F960.00
G1 X47.7448 Y285.9620 Z-1.0000 F960.00
G1 X46.3620 Y283.3895 Z-1.0000 F960.00
G1 X46.3620 Y283.3895 Z-1.5000 F960.00
G1 X47.7448 Y285.9620 Z-1.5000 F960.00
G1 X47.0635 Y286.3538 Z-1.5000 F960.00
G1 X44.8903 Y284.1806 Z-1.5000 F960.00
G3 X43.4537 Y284.0002 Z-1.5000 I-0.6265 J-0.8209 F960.00
G1 X41.9249 Y282.0093 Z-1.5000 F960.00
G1 X40.7195 Y280.9120 Z-1.5000 F960.00
G3 X40.4824 Y279.7727 Z-1.5000 I0.6539 J-0.7304 F960.00
G1 X38.0772 Y277.3674 Z-1.5000 F960.00
G1 X37.4196 Y278.2855 Z-1.5000 F960.00
G3 X37.0442 Y278.5973 Z-1.5000 I-0.7563 J-0.5289 F960.00
G1 X45.7320 Y287.2850 Z-1.5000 F960.00
G2 X45.7362 Y288.2706 Z-1.5000 I0.8637 J0.4891 F960.00
G1 X46.9778 Y290.4297 Z-1.5000 F960.00
G1 X47.0324 Y290.8482 Z-1.5000 F960.00
G1 X33.9643 Y277.7800 Z-1.5000 F960.00
G1 X32.1639 Y277.2716 Z-1.5000 F960.00
G3 X31.4484 Y276.4684 Z-1.5000 I0.2718 J-0.9624 F960.00
G1 X31.2169 Y275.0327 Z-1.5000 F960.00
G1 X30.9541 Y274.7698 Z-1.5000 F960.00
G1 X28.6913 Y274.7698 Z-1.5000 F960.00
G1 X34.5400 Y280.6185 Z-1.5000 F960.00
G2 X31.3417 Y279.6830 Z-1.5000 I-5.0404 J11.2973 F960.00
G1 X27.9649 Y276.3061 Z-1.5000 F960.00
G3 X27.1862 Y277.2898 Z-1.5000 I-1.0282 J-0.0139 F960.00
G1 X26.7823 Y277.3863 Z-1.5000 F960.00
G1 X28.9157 Y279.5197 Z-1.5000 F960.00
G2 X26.8885 Y279.7552 Z-1.5000 I0.1300 J9.9582 F960.00
G1 X24.9563 Y277.8230 Z-1.5000 F960.00
G1 X24.1515 Y278.0155 Z-1.5000 F960.00
G1 X23.2920 Y278.4214 Z-1.5000 F960.00
G1 X25.1243 Y280.2538 Z-1.5000 F960.00
G2 X23.5448 Y280.9371 Z-1.5000 I3.9393 J11.2736 F960.00
G1 X19.7877 Y277.1799 Z-1.5000 F960.00
G1 X18.3851 Y278.0400 Z-1.5000 F960.00
G1 X22.1208 Y281.7757 Z-1.5000 F960.00
G2 X20.8146 Y282.7323 Z-1.5000 I8.0587 J12.3732 F960.00
G1 X18.8096 Y280.7273 Z-1.5000 F960.00
G3 X18.3582 Y281.3631 Z-1.5000 I-0.9608 J-0.2040 F960.00
G1 X17.6295 Y281.8100 Z-1.5000 F960.00
G1 X19.5901 Y283.7705 Z-1.5000 F960.00
G2 X18.4385 Y284.8816 Z-1.5000 I10.6460 J12.1862 F960.00
G1 X16.3767 Y282.8199 Z-1.5000 F960.00
G1 X15.3867 Y284.0926 Z-1.5000 F960.00
G1 X17.3561 Y286.0620 Z-1.5000 F960.00
G2 X16.7747 Y286.7693 Z-1.5000 I6.9552 J6.3110 F960.00
G1 X14.1359 Y285.1046 Z-1.5000 F960.00
G1 X12.6545 Y283.6231 Z-1.5000 F960.00
G1 X12.4145 Y284.0186 Z-1.5000 F960.00
G1 X14.1359 Y285.1046 Z-1.5000 F960.00
G1 X14.1359 Y285.1046 Z-1.5000 F960.00
G1 X16.7747 Y286.7693 Z-1.5000 F960.00
G3 X19.7569 Y283.6155 Z-1.5000 I18.7093 J14.7046 F960.00
G3 X24.1416 Y280.6466 Z-1.5000 I11.9855 J12.9788 F960.00
G3 X32.6969 Y279.9659 Z-1.5000 I5.1954 J11.1950 F960.00
G3 X36.8529 Y281.8075 Z-1.5000 I-4.6973 J16.2117 F960.00
G3 X42.6632 Y286.5434 Z-1.5000 I-14.7606 J24.0411 F960.00
G3 X44.3918 Y292.4700 Z-1.5000 I-20.7359 J9.2634 F960.00
G3 X44.5347 Y296.9833 Z-1.5000 I-16.2446 J2.7732 F960.00
G3 X40.8679 Y305.1428 Z-1.5000 I-13.9353 J-1.3586 F960.00
G3 X31.1852 Y309.9262 Z-1.5000 I-11.6486 J-11.3879 F960.00
G3 X21.5684 Y308.3497 Z-1.5000 I-2.1997 J-16.7015 F960.00
G3 X13.5913 Y299.1016 Z-1.5000 I7.0558 J-14.1506 F960.00
G2 X20.5076 Y310.4450 Z-1.5000 I17.3784 J-2.8157 F960.00
G2 X30.8046 Y313.2699 Z-1.5000 I8.6433 J-11.3262 F960.00
G2 X36.9864 Y311.2751 Z-1.5000 I-2.7079 J-18.9672 F960.00
G2 X44.0225 Y305.9972 Z-1.5000 I-14.1865 J-26.2413 F960.00
G3 X45.1409 Y305.8195 Z-1.5000 I0.6885 J0.7252 F960.00
G1 X48.5691 Y307.4518 Z-1.5000 F960.00
G1 X49.8791 Y304.7005 Z-1.5000 F960.00
G1 X46.5743 Y303.1270 Z-1.5000 F960.00
G3 X46.1013 Y301.7943 Z-1.5000 I0.4299 J-0.9029 F960.00
G1 X47.0640 Y299.7724 Z-1.5000 F960.00
G1 X47.3279 Y298.2269 Z-1.5000 F960.00
G3 X48.1206 Y297.4140 Z-1.5000 I0.9857 J0.1683 F960.00
G1 X50.0140 Y297.0415 Z-1.5000 F960.00
G1 X50.0140 Y294.0233 Z-1.5000 F960.00
G1 X48.1462 Y293.7505 Z-1.5000 F960.00
G3 X47.2991 Y292.8905 Z-1.5000 I0.1445 J-0.9895 F960.00
G1 X46.9778 Y290.4297 Z-1.5000 F960.00
G1 X45.7362 Y288.2706 Z-1.5000 F960.00
G3 X46.1046 Y286.9052 Z-1.5000 I0.8669 J-0.4985 F960.00
G1 X47.7448 Y285.9620 Z-1.5000 F960.00
G1 X46.3620 Y283.3895 Z-1.5000 F960.00
G1 X44.7204 Y284.2720 Z-1.5000 F960.00
G3 X43.4537 Y284.0002 Z-1.5000 I-0.4735 J-0.8808 F960.00
G1 X41.9249 Y282.0093 Z-1.5000 F960.00
G1 X40.7195 Y280.9120 Z-1.5000 F960.00
G3 X40.5015 Y279.7188 Z-1.5000 I0.6731 J-0.7395 F960.00
G1 X41.2172 Y278.3129 Z-1.5000 F960.00
G1 X38.4199 Y276.8889 Z-1.5000 F960.00
G1 X37.4196 Y278.2855 Z-1.5000 F960.00
G3 X36.2280 Y278.6288 Z-1.5000 I-0.8130 J-0.5823 F960.00
G1 X34.5744 Y277.9523 Z-1.5000 F960.00
G1 X32.1639 Y277.2716 Z-1.5000 F960.00
G3 X31.4484 Y276.4684 Z-1.5000 I0.2718 J-0.9624 F960.00
G1 X31.1745 Y274.7698 Z-1.5000 F960.00
G1 X28.1799 Y274.7698 Z-1.5000 F960.00
G1 X27.9439 Y276.4558 Z-1.5000 F960.00
G3 X27.1862 Y277.2898 Z-1.5000 I-0.9903 J-0.1387 F960.00
G1 X24.1515 Y278.0155 Z-1.5000 F960.00
G1 X22.5086 Y278.7914 Z-1.5000 F960.00
G3 X21.1773 Y278.3143 Z-1.5000 I-0.4270 J-0.9042 F960.00
G1 X20.4498 Y276.7739 Z-1.5000 F960.00
G1 X17.7371 Y278.4374 Z-1.5000 F960.00
G1 X18.6879 Y279.9879 Z-1.5000 F960.00
G3 X18.3582 Y281.3631 Z-1.5000 I-0.8525 J0.5228 F960.00
G1 X16.7363 Y282.3578 Z-1.5000 F960.00
G1 X15.3325 Y284.1621 Z-1.5000 F960.00
G3 X14.0245 Y284.4030 Z-1.5000 I-0.7893 J-0.6140 F960.00
G1 X12.6773 Y283.5855 Z-1.5000 F960.00
G1 X12.4145 Y284.0186 Z-1.5000 F960.00
G1 X14.1359 Y285.1046 Z-1.5000 F960.00
G0 X14.1359 Y285.1046 Z5.0000
G0 X19.8504 Y290.5990 Z5.0000
G0 X19.8504 Y290.5990 Z1.5000
G1 X19.8504 Y290.5990 Z-1.5000 F960.00
G1 X19.8504 Y294.3669 Z-1.5000 F960.00
G1 X35.3590 Y300.3046 Z-1.5000 F960.00
G3 X35.9353 Y301.5961 Z-1.5000 I-0.3576 J0.9339 F960.00
G1 X35.3400 Y303.1509 Z-1.5000 F960.00
G1 X36.2997 Y303.5183 Z-1.5000 F960.00
G1 X36.3139 Y303.4559 Z-1.5000 F960.00
G1 X37.7728 Y299.6456 Z-1.5000 F960.00
G1 X28.2704 Y296.0074 Z-1.5000 F960.00
G3 X28.0914 Y294.2297 Z-1.5000 I0.3576 J-0.9339 F960.00
G1 X37.0582 Y288.5283 Z-1.5000 F960.00
G1 X37.0582 Y287.2318 Z-1.5000 F960.00
G1 X25.2750 Y294.7239 Z-1.5000 F960.00
G3 X24.3809 Y294.8139 Z-1.5000 I-0.5366 J-0.8439 F960.00
G1 X21.5114 Y293.7153 Z-1.5000 F960.00
G3 X20.8690 Y292.7814 Z-1.5000 I0.3576 J-0.9339 F960.00
G1 X20.8690 Y290.5990 Z-1.5000 F960.00
G1 X19.8504 Y290.5990 Z-1.5000 F960.00
G0 X19.8504 Y290.5990 Z5.0000
G0 X19.8504 Y290.5990 Z5.0000
G0 X19.8504 Y290.5990 Z1.5000
G1 X19.8504 Y290.5990 Z-1.5000 F960.00
G1 X19.8504 Y290.8191 Z-1.5000 F960.00
G1 X20.8690 Y291.8377 Z-1.5000 F960.00
G1 X20.8690 Y290.5990 Z-1.5000 F960.00
G1 X19.8504 Y290.5990 Z-1.5000 F960.00
G0 X19.8504 Y290.5990 Z5.0000
G0 X19.8504 Y293.0818 Z5.0000
G0 X19.8504 Y293.0818 Z1.5000
G1 X19.8504 Y293.0818 Z-1.5000 F960.00
G1 X19.8504 Y294.3669 Z-1.5000 F960.00
G1 X21.9328 Y295.1642 Z-1.5000 F960.00
G1 X19.8504 Y293.0818 Z-1.5000 F960.00
G1 X19.8504 Y290.8191 Z-1.5000 F960.00
G1 X20.8690 Y291.8377 Z-1.5000 F960.00
G1 X20.8690 Y292.7814 Z-1.5000 F960.00
G2 X21.5114 Y293.7153 Z-1.5000 I1.0000 J-0.0000 F960.00
G1 X23.5130 Y294.4816 Z-1.5000 F960.00
G1 X25.5993 Y296.5680 Z-1.5000 F960.00
G1 X29.2659 Y297.9718 Z-1.5000 F960.00
G1 X25.7292 Y294.4351 Z-1.5000 F960.00
G1 X27.1124 Y293.5556 Z-1.5000 F960.00
G1 X27.9266 Y294.3698 Z-1.5000 F960.00
G2 X28.2704 Y296.0074 Z-1.5000 I0.6944 J0.7091 F960.00
G1 X30.3669 Y296.8101 Z-1.5000 F960.00
G1 X32.9324 Y299.3756 Z-1.5000 F960.00
G0 X32.9324 Y299.3756 Z5.0000
G0 X37.7001 Y299.6177 Z5.0000
G0 X37.7001 Y299.6177 Z1.5000
G1 X37.7001 Y299.6177 Z-1.5000 F960.00
G1 X37.7728 Y299.6456 Z-1.5000 F960.00
G1 X37.7604 Y299.6780 Z-1.5000 F960.00
G1 X37.7001 Y299.6177 Z-1.5000 F960.00
G1 X34.0335 Y298.2139 Z-1.5000 F960.00
G1 X37.1339 Y301.3143 Z-1.5000 F960.00
G1 X36.5074 Y302.9506 Z-1.5000 F960.00
G1 X35.7187 Y302.1619 Z-1.5000 F960.00
G1 X35.3400 Y303.1509 Z-1.5000 F960.00
G1 X36.2997 Y303.5183 Z-1.5000 F960.00
G3 X36.5074 Y302.9506 Z-1.5000 I2.0996 J0.4463 F960.00
G0 X36.5074 Y302.9506 Z5.0000
G0 X49.2911 Y304.4205 Z5.0000
G0 X49.2911 Y304.4205 Z1.5000
G1 X49.2911 Y304.4205 Z-1.5000 F960.00
G1 X49.8791 Y304.7005 Z-1.5000 F960.00
G1 X49.7797 Y304.9092 Z-1.5000 F960.00
G1 X49.2911 Y304.4205 Z-1.5000 F960.00
G0 X49.2911 Y304.4205 Z5.0000
G0 X43.8607 Y289.9392 Z5.0000
G0 X43.8607 Y289.9392 Z1.5000
G1 X43.8607 Y289.9392 Z-1.5000 F960.00
G1 X50.0140 Y296.0925 Z-1.5000 F960.00
G1 X50.0140 Y297.0415 Z-1.5000 F960.00
G1 X48.9163 Y297.2575 Z-1.5000 F960.00
G1 X44.4309 Y292.7722 Z-1.5000 F960.00
G3 X44.6200 Y295.2240 Z-1.5000 I-13.1571 J2.2480 F960.00
G1 X47.3956 Y297.9996 Z-1.5000 F960.00
G1 X47.3279 Y298.2269 Z-1.5000 F960.00
G1 X47.0640 Y299.7724 Z-1.5000 F960.00
G1 X47.0129 Y299.8796 Z-1.5000 F960.00
G1 X44.4814 Y297.3482 Z-1.5000 F960.00
G3 X44.1080 Y299.2375 Z-1.5000 I-11.3865 J-1.2690 F960.00
G1 X46.2831 Y301.4125 Z-1.5000 F960.00
G2 X46.0208 Y302.0426 Z-1.5000 I2.2618 J1.3110 F960.00
G2 X46.5743 Y303.1270 Z-1.5000 I0.9834 J0.1815 F960.00
G1 X49.2911 Y304.4205 Z-1.5000 F960.00
G1 X49.7797 Y304.9092 Z-1.5000 F960.00
G1 X49.0499 Y306.4421 Z-1.5000 F960.00
G1 X43.5437 Y300.9359 Z-1.5000 F960.00
G3 X42.8114 Y302.4663 Z-1.5000 I-9.5150 J-3.6125 F960.00
G1 X47.0949 Y306.7499 Z-1.5000 F960.00
G1 X45.1409 Y305.8195 Z-1.5000 F960.00
G2 X44.0552 Y305.9729 Z-1.5000 I-0.4285 J0.8862 F960.00
G1 X41.9308 Y303.8485 Z-1.5000 F960.00
G3 X40.9120 Y305.0925 Z-1.5000 I-9.6335 J-6.8501 F960.00
G1 X42.8854 Y307.0659 Z-1.5000 F960.00
G3 X41.6677 Y308.1109 Z-1.5000 I-14.0398 J-15.1268 F960.00
G1 X39.7528 Y306.1960 Z-1.5000 F960.00
G3 X38.4653 Y307.1712 Z-1.5000 I-8.1713 J-9.4503 F960.00
G1 X40.3982 Y309.1041 Z-1.5000 F960.00
G3 X39.0781 Y310.0468 Z-1.5000 I-13.7014 J-17.7918 F960.00
G1 X37.0603 Y308.0290 Z-1.5000 F960.00
G3 X35.5336 Y308.7650 Z-1.5000 I-6.4395 J-11.4054 F960.00
G1 X37.6703 Y310.9017 Z-1.5000 F960.00
G3 X36.1711 Y311.6652 Z-1.5000 I-7.8846 J-13.6292 F960.00
G1 X33.8630 Y309.3572 Z-1.5000 F960.00
G3 X32.0366 Y309.7934 Z-1.5000 I-3.6278 J-11.1466 F960.00
G1 X34.5668 Y312.3237 Z-1.5000 F960.00
G3 X32.8524 Y312.8720 Z-1.5000 I-5.9813 J-15.7478 F960.00
G1 X30.0096 Y310.0293 Z-1.5000 F960.00
G3 X27.7306 Y310.0130 Z-1.5000 I-1.0359 J-14.5105 F960.00
G1 X30.9634 Y313.2457 Z-1.5000 F960.00
G3 X28.8165 Y313.3616 Z-1.5000 I-1.7871 J-13.1627 F960.00
G1 X25.0604 Y309.6055 Z-1.5000 F960.00
G3 X21.5158 Y308.3237 Z-1.5000 I3.4968 J-15.2113 F960.00
G1 X26.2538 Y313.0617 Z-1.5000 F960.00
G0 X26.2538 Y313.0617 Z5.0000
G0 X22.7817 Y311.8523 Z5.0000
G0 X22.7817 Y311.8523 Z1.5000
G1 X22.7817 Y311.8523 Z-1.5000 F960.00
G3 X15.3818 Y304.4524 Z-1.5000 I7.9875 J-15.3874 F960.00
G1 X22.7817 Y311.8523 Z-1.5000 F960.00
G2 X26.2538 Y313.0617 Z-1.5000 I6.0656 J-11.8253 F960.00
G1 X21.5158 Y308.3237 Z-1.5000 F960.00
G3 X20.5981 Y307.8252 Z-1.5000 I28.9436 J-54.3774 F960.00
G3 X14.5234 Y301.3312 Z-1.5000 I7.8059 J-13.3903 F960.00
G1 X13.9393 Y300.7471 Z-1.5000 F960.00
G3 X13.5913 Y299.1016 Z-1.5000 I16.0478 J-4.2534 F960.00
G2 X14.5234 Y301.3312 Z-1.5000 I15.0651 J-4.9883 F960.00
G0 X14.5234 Y301.3312 Z5.0000
G0 X27.1124 Y293.5556 Z5.0000
G0 X27.1124 Y293.5556 Z1.5000
G1 X27.1124 Y293.5556 Z-1.5000 F960.00
G1 X27.9266 Y294.3698 Z-1.5000 F960.00
G1 X28.0914 Y294.2297 Z-1.5000 F960.00
G1 X29.2883 Y293.4687 Z-1.5000 F960.00
G1 X28.4957 Y292.6761 Z-1.5000 F960.00
G1 X29.8789 Y291.7966 Z-1.5000 F960.00
G1 X30.6715 Y292.5892 Z-1.5000 F960.00
G1 X32.0547 Y291.7097 Z-1.5000 F960.00
G1 X31.2621 Y290.9171 Z-1.5000 F960.00
G1 X32.6454 Y290.0376 Z-1.5000 F960.00
G1 X33.4380 Y290.8302 Z-1.5000 F960.00
G1 X34.8212 Y289.9507 Z-1.5000 F960.00
G1 X34.0286 Y289.1581 Z-1.5000 F960.00
G1 X35.4118 Y288.2786 Z-1.5000 F960.00
G1 X36.2044 Y289.0711 Z-1.5000 F960.00
G1 X37.0582 Y288.5283 Z-1.5000 F960.00
G1 X37.0582 Y287.6622 Z-1.5000 F960.00
G1 X36.7951 Y287.3990 Z-1.5000 F960.00
G1 X37.0582 Y287.2318 Z-1.5000 F960.00
G1 X37.0582 Y287.6622 Z-1.5000 F960.00
G0 X37.0582 Y287.6622 Z5.0000
G0 X40.4824 Y279.7727 Z5.0000
G0 X40.4824 Y279.7727 Z1.5000
G1 X40.4824 Y279.7727 Z-1.5000 F960.00
G1 X40.5015 Y279.7188 Z-1.5000 F960.00
G1 X41.2172 Y278.3129 Z-1.5000 F960.00
G1 X38.4199 Y276.8889 Z-1.5000 F960.00
G1 X38.0772 Y277.3674 Z-1.5000 F960.00
G1 X40.4824 Y279.7727 Z-1.5000 F960.00
G0 X40.4824 Y279.7727 Z5.0000
G0 X31.2169 Y275.0327 Z5.0000
G0 X31.2169 Y275.0327 Z1.5000
G1 X31.2169 Y275.0327 Z-1.5000 F960.00
G1 X31.1745 Y274.7698 Z-1.5000 F960.00
G1 X30.9541 Y274.7698 Z-1.5000 F960.00
G1 X31.2169 Y275.0327 Z-1.5000 F960.00
G1 X31.2169 Y275.0327 Z-2.0000 F960.00
G1 X31.1745 Y274.7698 Z-2.0000 F960.00
G1 X30.9541 Y274.7698 Z-2.0000 F960.00
G1 X31.2169 Y275.0327 Z-2.0000 F960.00
G1 X31.2169 Y275.0327 Z-2.0000 F960.00
G1 X31.1745 Y274.7698 Z-2.0000 F960.00
G1 X28.1799 Y274.7698 Z-2.0000 F960.00
G1 X27.9439 Y276.4558 Z-2.0000 F960.00
G3 X27.1862 Y277.2898 Z-2.0000 I-0.9903 J-0.1387 F960.00
G1 X24.1515 Y278.0155 Z-2.0000 F960.00
G1 X22.5086 Y278.7914 Z-2.0000 F960.00
G3 X21.1773 Y278.3143 Z-2.0000 I-0.4270 J-0.9042 F960.00
G1 X20.4498 Y276.7739 Z-2.0000 F960.00
G1 X17.7371 Y278.4374 Z-2.0000 F960.00
G1 X18.6879 Y279.9879 Z-2.0000 F960.00
G3 X18.3582 Y281.3631 Z-2.0000 I-0.8525 J0.5228 F960.00
G1 X16.7363 Y282.3578 Z-2.0000 F960.00
G1 X15.3325 Y284.1621 Z-2.0000 F960.00
G3 X14.0245 Y284.4030 Z-2.0000 I-0.7893 J-0.6140 F960.00
G1 X12.6773 Y283.5855 Z-2.0000 F960.00
G1 X12.4145 Y284.0186 Z-2.0000 F960.00
G1 X16.7747 Y286.7693 Z-2.0000 F960.00
G3 X19.7569 Y283.6155 Z-2.0000 I18.7093 J14.7046 F960.00
G3 X24.1416 Y280.6466 Z-2.0000 I11.9855 J12.9788 F960.00
G3 X32.6969 Y279.9659 Z-2.0000 I5.1954 J11.1950 F960.00
G3 X36.8529 Y281.8075 Z-2.0000 I-4.6973 J16.2117 F960.00
G3 X42.6632 Y286.5434 Z-2.0000 I-14.7606 J24.0411 F960.00
G3 X44.3918 Y292.4700 Z-2.0000 I-20.7359 J9.2634 F960.00
G3 X44.5347 Y296.9833 Z-2.0000 I-16.2446 J2.7732 F960.00
G3 X40.8679 Y305.1428 Z-2.0000 I-13.9353 J-1.3586 F960.00
G3 X31.1852 Y309.9262 Z-2.0000 I-11.6486 J-11.3879 F960.00
G3 X21.5684 Y308.3497 Z-2.0000 I-2.1997 J-16.7015 F960.00
G3 X13.5913 Y299.1016 Z-2.0000 I7.0558 J-14.1506 F960.00
G2 X20.5076 Y310.4450 Z-2.0000 I17.3784 J-2.8157 F960.00
G2 X30.8046 Y313.2699 Z-2.0000 I8.6433 J-11.3262 F960.00
G2 X36.9864 Y311.2751 Z-2.0000 I-2.7079 J-18.9672 F960.00
G2 X44.0225 Y305.9972 Z-2.0000 I-14.1865 J-26.2413 F960.00
G3 X45.1409 Y305.8195 Z-2.0000 I0.6885 J0.7252 F960.00
G1 X48.5691 Y307.4518 Z-2.0000 F960.00
G1 X49.8791 Y304.7005 Z-2.0000 F960.00
G1 X46.5743 Y303.1270 Z-2.0000 F960.00
G3 X46.1013 Y301.7943 Z-2.0000 I0.4299 J-0.9029 F960.00
G1 X47.0640 Y299.7724 Z-2.0000 F960.00
G1 X47.3279 Y298.2269 Z-2.0000 F960.00
G3 X48.1206 Y297.4140 Z-2.0000 I0.9857 J0.1683 F960.00
G1 X50.0140 Y297.0415 Z-2.0000 F960.00
G1 X50.0140 Y294.0233 Z-2.0000 F960.00
G1 X48.1462 Y293.7505 Z-2.0000 F960.00
G3 X47.2991 Y292.8905 Z-2.0000 I0.1445 J-0.9895 F960.00
G1 X46.9778 Y290.4297 Z-2.0000 F960.00
G1 X45.7362 Y288.2706 Z-2.0000 F960.00
G3 X46.1046 Y286.9052 Z-2.0000 I0.8669 J-0.4985 F960.00
G1 X47.7448 Y285.9620 Z-2.0000 F960.00
G1 X46.3620 Y283.3895 Z-2.0000 F960.00
G1 X44.7204 Y284.2720 Z-2.0000 F960.00
G3 X43.4537 Y284.0002 Z-2.0000 I-0.4735 J-0.8808 F960.00
G1 X41.9249 Y282.0093 Z-2.0000 F960.00
G1 X40.7195 Y280.9120 Z-2.0000 F960.00
G3 X40.5015 Y279.7188 Z-2.0000 I0.6731 J-0.7395 F960.00
G1 X41.2172 Y278.3129 Z-2.0000 F960.00
G1 X38.4199 Y276.8889 Z-2.0000 F960.00
G1 X37.4196 Y278.2855 Z-2.0000 F960.00
G3 X36.2280 Y278.6288 Z-2.0000 I-0.8130 J-0.5823 F960.00
G1 X34.5744 Y277.9523 Z-2.0000 F960.00
G1 X32.1639 Y277.2716 Z-2.0000 F960.00
G3 X31.4484 Y276.4684 Z-2.0000 I0.2718 J-0.9624 F960.00
G1 X31.2169 Y275.0327 Z-2.0000 F960.00
G0 X31.2169 Y275.0327 Z5.0000
G0 X38.0772 Y277.3674 Z5.0000
G0 X38.0772 Y277.3674 Z1.0000
G1 X38.0772 Y277.3674 Z-2.0000 F960.00
G1 X40.4824 Y279.7727 Z-2.0000 F960.00
G1 X40.5015 Y279.7188 Z-2.0000 F960.00
G1 X41.2172 Y278.3129 Z-2.0000 F960.00
G1 X38.4199 Y276.8889 Z-2.0000 F960.00
G1 X38.0772 Y277.3674 Z-2.0000 F960.00
G0 X38.0772 Y277.3674 Z5.0000
G0 X37.0582 Y287.2318 Z5.0000
G0 X37.0582 Y287.2318 Z1.0000
G1 X37.0582 Y287.2318 Z-2.0000 F960.00
G1 X25.2750 Y294.7239 Z-2.0000 F960.00
G3 X24.3809 Y294.8139 Z-2.0000 I-0.5366 J-0.8439 F960.00
G1 X21.5114 Y293.7153 Z-2.0000 F960.00
G3 X20.8690 Y292.7814 Z-2.0000 I0.3576 J-0.9339 F960.00
G1 X20.8690 Y290.5990 Z-2.0000 F960.00
G1 X19.8504 Y290.5990 Z-2.0000 F960.00
G1 X19.8504 Y294.3669 Z-2.0000 F960.00
G1 X35.3590 Y300.3046 Z-2.0000 F960.00
G3 X35.9353 Y301.5961 Z-2.0000 I-0.3576 J0.9339 F960.00
G1 X35.3400 Y303.1509 Z-2.0000 F960.00
G1 X36.2997 Y303.5183 Z-2.0000 F960.00
G1 X36.3139 Y303.4559 Z-2.0000 F960.00
G1 X37.7728 Y299.6456 Z-2.0000 F960.00
G1 X28.2704 Y296.0074 Z-2.0000 F960.00
G3 X28.0914 Y294.2297 Z-2.0000 I0.3576 J-0.9339 F960.00
G1 X37.0582 Y288.5283 Z-2.0000 F960.00
G1 X37.0582 Y287.2318 Z-2.0000 F960.00
G0 X37.0582 Y287.2318 Z5.0000
G0 X37.0582 Y287.6622 Z5.0000
G0 X37.0582 Y287.6622 Z1.0000
G1 X37.0582 Y287.6622 Z-2.0000 F960.00
G1 X37.0582 Y287.2318 Z-2.0000 F960.00
G1 X36.7951 Y287.3990 Z-2.0000 F960.00
G1 X37.0582 Y287.6622 Z-2.0000 F960.00
G1 X37.0582 Y288.5283 Z-2.0000 F960.00
G1 X36.2044 Y289.0711 Z-2.0000 F960.00
G1 X35.4118 Y288.2786 Z-2.0000 F960.00
G1 X34.0286 Y289.1581 Z-2.0000 F960.00
G1 X34.8212 Y289.9507 Z-2.0000 F960.00
G1 X33.4380 Y290.8302 Z-2.0000 F960.00
G1 X32.6454 Y290.0376 Z-2.0000 F960.00
G1 X31.2621 Y290.9171 Z-2.0000 F960.00
G1 X32.0547 Y291.7097 Z-2.0000 F960.00
G1 X30.6715 Y292.5892 Z-2.0000 F960.00
G1 X29.8789 Y291.7966 Z-2.0000 F960.00
G1 X28.4957 Y292.6761 Z-2.0000 F960.00
G1 X29.2883 Y293.4687 Z-2.0000 F960.00
G1 X28.0914 Y294.2297 Z-2.0000 F960.00
G1 X27.9266 Y294.3698 Z-2.0000 F960.00
G1 X27.1124 Y293.5556 Z-2.0000 F960.00
G0 X27.1124 Y293.5556 Z5.0000
G0 X20.8690 Y291.8377 Z5.0000
G0 X20.8690 Y291.8377 Z1.0000
G1 X20.8690 Y291.8377 Z-2.0000 F960.00
G1 X20.8690 Y290.5990 Z-2.0000 F960.00
G1 X19.8504 Y290.5990 Z-2.0000 F960.00
G1 X19.8504 Y290.8191 Z-2.0000 F960.00
G1 X20.8690 Y291.8377 Z-2.0000 F960.00
G0 X20.8690 Y291.8377 Z5.0000
G0 X19.8504 Y293.0818 Z5.0000
G0 X19.8504 Y293.0818 Z1.0000
G1 X19.8504 Y293.0818 Z-2.0000 F960.00
G1 X19.8504 Y294.3669 Z-2.0000 F960.00
G1 X21.9328 Y295.1642 Z-2.0000 F960.00
G1 X19.8504 Y293.0818 Z-2.0000 F960.00
G1 X19.8504 Y290.8191 Z-2.0000 F960.00
G1 X20.8690 Y291.8377 Z-2.0000 F960.00
G1 X20.8690 Y292.7814 Z-2.0000 F960.00
G2 X21.5114 Y293.7153 Z-2.0000 I1.0000 J-0.0000 F960.00
G1 X23.5130 Y294.4816 Z-2.0000 F960.00
G1 X25.5993 Y296.5680 Z-2.0000 F960.00
G1 X29.2659 Y297.9718 Z-2.0000 F960.00
G1 X25.7292 Y294.4351 Z-2.0000 F960.00
G1 X27.1124 Y293.5556 Z-2.0000 F960.00
G1 X27.9266 Y294.3698 Z-2.0000 F960.00
G2 X28.2704 Y296.0074 Z-2.0000 I0.6944 J0.7091 F960.00
G1 X30.3669 Y296.8101 Z-2.0000 F960.00
G1 X32.9324 Y299.3756 Z-2.0000 F960.00
G0 X32.9324 Y299.3756 Z5.0000
G0 X37.7001 Y299.6177 Z5.0000
G0 X37.7001 Y299.6177 Z1.0000
G1 X37.7001 Y299.6177 Z-2.0000 F960.00
G1 X37.7728 Y299.6456 Z-2.0000 F960.00
G1 X37.7604 Y299.6780 Z-2.0000 F960.00
G1 X37.7001 Y299.6177 Z-2.0000 F960.00
G1 X34.0335 Y298.2139 Z-2.0000 F960.00
G1 X37.1339 Y301.3143 Z-2.0000 F960.00
G1 X36.5074 Y302.9506 Z-2.0000 F960.00
G1 X35.7187 Y302.1619 Z-2.0000 F960.00
G1 X35.3400 Y303.1509 Z-2.0000 F960.00
G1 X36.2997 Y303.5183 Z-2.0000 F960.00
G3 X36.5074 Y302.9506 Z-2.0000 I2.0996 J0.4463 F960.00
G0 X36.5074 Y302.9506 Z5.0000
G0 X49.2911 Y304.4205 Z5.0000
G0 X49.2911 Y304.4205 Z1.0000
G1 X49.2911 Y304.4205 Z-2.0000 F960.00
G1 X49.8791 Y304.7005 Z-2.0000 F960.00
G1 X49.7797 Y304.9092 Z-2.0000 F960.00
G1 X49.2911 Y304.4205 Z-2.0000 F960.00
G0 X49.2911 Y304.4205 Z5.0000
G0 X43.8607 Y289.9392 Z5.0000
G0 X43.8607 Y289.9392 Z1.0000
G1 X43.8607 Y289.9392 Z-2.0000 F960.00
G1 X50.0140 Y296.0925 Z-2.0000 F960.00
G1 X50.0140 Y297.0415 Z-2.0000 F960.00
G1 X48.9163 Y297.2575 Z-2.0000 F960.00
G1 X44.4309 Y292.7722 Z-2.0000 F960.00
G3 X44.6200 Y295.2240 Z-2.0000 I-13.1571 J2.2480 F960.00
G1 X47.3956 Y297.9996 Z-2.0000 F960.00
G1 X47.3279 Y298.2269 Z-2.0000 F960.00
G1 X47.0640 Y299.7724 Z-2.0000 F960.00
G1 X47.0129 Y299.8796 Z-2.0000 F960.00
G1 X44.4814 Y297.3482 Z-2.0000 F960.00
G3 X44.1080 Y299.2375 Z-2.0000 I-11.3865 J-1.2690 F960.00
G1 X46.2831 Y301.4125 Z-2.0000 F960.00
G2 X46.0208 Y302.0426 Z-2.0000 I2.2618 J1.3110 F960.00
G2 X46.5743 Y303.1270 Z-2.0000 I0.9834 J0.1815 F960.00
G1 X49.2911 Y304.4205 Z-2.0000 F960.00
G1 X49.7797 Y304.9092 Z-2.0000 F960.00
G1 X49.0499 Y306.4421 Z-2.0000 F960.00
G1 X43.5437 Y300.9359 Z-2.0000 F960.00
G3 X42.8114 Y302.4663 Z-2.0000 I-9.5150 J-3.6125 F960.00
G1 X47.0949 Y306.7499 Z-2.0000 F960.00
G1 X45.1409 Y305.8195 Z-2.0000 F960.00
G2 X44.0552 Y305.9729 Z-2.0000 I-0.4285 J0.8862 F960.00
G1 X41.9308 Y303.8485 Z-2.0000 F960.00
G3 X40.9120 Y305.0925 Z-2.0000 I-9.6335 J-6.8501 F960.00
G1 X42.8854 Y307.0659 Z-2.0000 F960.00
G3 X41.6677 Y308.1109 Z-2.0000 I-14.0398 J-15.1268 F960.00
G1 X39.7528 Y306.1960 Z-2.0000 F960.00
G3 X38.4653 Y307.1712 Z-2.0000 I-8.1713 J-9.4503 F960.00
G1 X40.3982 Y309.1041 Z-2.0000 F960.00
G3 X39.0781 Y310.0468 Z-2.0000 I-13.7014 J-17.7918 F960.00
G1 X37.0603 Y308.0290 Z-2.0000 F960.00
G3 X35.5336 Y308.7650 Z-2.0000 I-6.4395 J-11.4054 F960.00
G1 X37.6703 Y310.9017 Z-2.0000 F960.00
G3 X36.1711 Y311.6652 Z-2.0000 I-7.8846 J-13.6292 F960.00
G1 X33.8630 Y309.3572 Z-2.0000 F960.00
G3 X32.0366 Y309.7934 Z-2.0000 I-3.6278 J-11.1466 F960.00
G1 X34.5668 Y312.3237 Z-2.0000 F960.00
G3 X32.8524 Y312.8720 Z-2.0000 I-5.9813 J-15.7478 F960.00
G1 X30.0096 Y310.0293 Z-2.0000 F960.00
G3 X27.7306 Y310.0130 Z-2.0000 I-1.0359 J-14.5105 F960.00
G1 X30.9634 Y313.2457 Z-2.0000 F960.00
G3 X28.8165 Y313.3616 Z-2.0000 I-1.7871 J-13.1627 F960.00
G1 X25.0604 Y309.6055 Z-2.0000 F960.00
G3 X21.5158 Y308.3237 Z-2.0000 I3.4968 J-15.2113 F960.00
G1 X26.2538 Y313.0617 Z-2.0000 F960.00
G0 X26.2538 Y313.0617 Z5.0000
G0 X22.7817 Y311.8523 Z5.0000
G0 X22.7817 Y311.8523 Z1.0000
G1 X22.7817 Y311.8523 Z-2.0000 F960.00
G3 X15.3818 Y304.4524 Z-2.0000 I7.9875 J-15.3874 F960.00
G1 X22.7817 Y311.8523 Z-2.0000 F960.00
G2 X26.2538 Y313.0617 Z-2.0000 I6.0656 J-11.8253 F960.00
G1 X21.5158 Y308.3237 Z-2.0000 F960.00
G3 X20.5981 Y307.8252 Z-2.0000 I28.9436 J-54.3774 F960.00
G3 X14.5234 Y301.3312 Z-2.0000 I7.8059 J-13.3903 F960.00
G1 X13.9393 Y300.7471 Z-2.0000 F960.00
G3 X13.5913 Y299.1016 Z-2.0000 I16.0478 J-4.2534 F960.00
G2 X14.5234 Y301.3312 Z-2.0000 I15.0651 J-4.9883 F960.00
G0 X14.5234 Y301.3312 Z5.0000
G0 X14.1359 Y285.1046 Z5.0000
G0 X14.1359 Y285.1046 Z1.0000
G1 X14.1359 Y285.1046 Z-2.0000 F960.00
G1 X12.4145 Y284.0186 Z-2.0000 F960.00
G1 X12.6545 Y283.6231 Z-2.0000 F960.00
G1 X14.1359 Y285.1046 Z-2.0000 F960.00
G1 X16.7747 Y286.7693 Z-2.0000 F960.00
G3 X17.3561 Y286.0620 Z-2.0000 I7.5367 J5.6037 F960.00
G1 X15.3867 Y284.0926 Z-2.0000 F960.00
G1 X16.3767 Y282.8199 Z-2.0000 F960.00
G1 X18.4385 Y284.8816 Z-2.0000 F960.00
G3 X19.5901 Y283.7705 Z-2.0000 I11.7976 J11.0751 F960.00
G1 X17.6295 Y281.8100 Z-2.0000 F960.00
G1 X18.3582 Y281.3631 Z-2.0000 F960.00
G2 X18.8096 Y280.7273 Z-2.0000 I-0.5094 J-0.8398 F960.00
G1 X20.8146 Y282.7323 Z-2.0000 F960.00
G3 X22.1208 Y281.7757 Z-2.0000 I9.3648 J11.4166 F960.00
G1 X18.3851 Y278.0400 Z-2.0000 F960.00
G1 X19.7877 Y277.1799 Z-2.0000 F960.00
G1 X23.5448 Y280.9371 Z-2.0000 F960.00
G3 X25.1243 Y280.2538 Z-2.0000 I5.5188 J10.5904 F960.00
G1 X23.2920 Y278.4214 Z-2.0000 F960.00
G1 X24.1515 Y278.0155 Z-2.0000 F960.00
G1 X24.9563 Y277.8230 Z-2.0000 F960.00
G1 X26.8885 Y279.7552 Z-2.0000 F960.00
G3 X28.9157 Y279.5197 Z-2.0000 I2.1571 J9.7227 F960.00
G1 X26.7823 Y277.3863 Z-2.0000 F960.00
G1 X27.1862 Y277.2898 Z-2.0000 F960.00
G2 X27.9649 Y276.3061 Z-2.0000 I-0.2494 J-0.9975 F960.00
G1 X31.3417 Y279.6830 Z-2.0000 F960.00
G3 X34.5400 Y280.6185 Z-2.0000 I-1.8422 J12.2328 F960.00
G1 X28.6913 Y274.7698 Z-2.0000 F960.00
G1 X30.9541 Y274.7698 Z-2.0000 F960.00
G1 X31.2169 Y275.0327 Z-2.0000 F960.00
G1 X31.4484 Y276.4684 Z-2.0000 F960.00
G2 X32.1639 Y277.2716 Z-2.0000 I0.9872 J-0.1592 F960.00
G1 X33.9643 Y277.7800 Z-2.0000 F960.00
G1 X47.0324 Y290.8482 Z-2.0000 F960.00
G1 X46.9778 Y290.4297 Z-2.0000 F960.00
G1 X45.7362 Y288.2706 Z-2.0000 F960.00
G3 X45.7320 Y287.2850 Z-2.0000 I0.8595 J-0.4965 F960.00
G1 X37.0442 Y278.5973 Z-2.0000 F960.00
G2 X37.4196 Y278.2855 Z-2.0000 I-0.3809 J-0.8406 F960.00
G1 X38.0772 Y277.3674 Z-2.0000 F960.00
G1 X40.4824 Y279.7727 Z-2.0000 F960.00
G2 X40.7195 Y280.9120 Z-2.0000 I0.8910 J0.4089 F960.00
G1 X41.9249 Y282.0093 Z-2.0000 F960.00
G1 X43.4537 Y284.0002 Z-2.0000 F960.00
G2 X44.8903 Y284.1806 Z-2.0000 I0.8101 J-0.6405 F960.00
G1 X47.0635 Y286.3538 Z-2.0000 F960.00
G1 X47.7448 Y285.9620 Z-2.0000 F960.00
G1 X46.3620 Y283.3895 Z-2.0000 F960.00
G0 Z5.0000
(finish operation: MillFace)
(begin postamble)
M5
G17 G90
; M2
