(Exported by FreeCAD)
(Post Processor: grbl_post)
(Output Time:2021-11-25 23:48:35.936197)
(begin preamble)
G17 G90
G21
(begin operation: T3: 1/8inMILL002)
(Path: T3: 1/8inMILL002)
(T3: 1/8inMILL002)
(begin toolchange)
; M6 T3
M3 S0.0000
(finish operation: T3: 1/8inMILL002)
(begin operation: Contour001)
(Path: Contour001)
(Contour001)
(Compensated Tool Path. Diameter: 2.0)
G0 Z5.0000
G0 X29.0607 Y431.0607
G0 Z3.0000
G1 X29.0607 Y431.0607 Z-0.7500 F1080.00
G2 X29.5000 Y430.0000 Z-0.7500 I-1.0607 J-1.0607 F1080.00
G1 X29.5000 Y0.0000 Z-0.7500 F1080.00
G2 X28.0000 Y-1.5000 Z-0.7500 I-1.5000 J0.0000 F1080.00
G1 X0.0000 Y-1.5000 Z-0.7500 F1080.00
G2 X-1.5000 Y0.0000 Z-0.7500 I0.0000 J1.5000 F1080.00
G1 X-1.5000 Y430.0000 Z-0.7500 F1080.00
G2 X0.0000 Y431.5000 Z-0.7500 I1.5000 J-0.0000 F1080.00
G1 X28.0000 Y431.5000 Z-0.7500 F1080.00
G2 X29.0607 Y431.0607 Z-0.7500 I-0.0000 J-1.5000 F1080.00
G1 X29.0607 Y431.0607 Z-1.5000 F1080.00
G2 X29.5000 Y430.0000 Z-1.5000 I-1.0607 J-1.0607 F1080.00
G1 X29.5000 Y0.0000 Z-1.5000 F1080.00
G2 X28.0000 Y-1.5000 Z-1.5000 I-1.5000 J0.0000 F1080.00
G1 X0.0000 Y-1.5000 Z-1.5000 F1080.00
G2 X-1.5000 Y0.0000 Z-1.5000 I0.0000 J1.5000 F1080.00
G1 X-1.5000 Y430.0000 Z-1.5000 F1080.00
G2 X0.0000 Y431.5000 Z-1.5000 I1.5000 J-0.0000 F1080.00
G1 X28.0000 Y431.5000 Z-1.5000 F1080.00
G2 X29.0607 Y431.0607 Z-1.5000 I-0.0000 J-1.5000 F1080.00
G1 X29.0607 Y431.0607 Z-2.2500 F1080.00
G2 X29.5000 Y430.0000 Z-2.2500 I-1.0607 J-1.0607 F1080.00
G1 X29.5000 Y0.0000 Z-2.2500 F1080.00
G2 X28.0000 Y-1.5000 Z-2.2500 I-1.5000 J0.0000 F1080.00
G1 X0.0000 Y-1.5000 Z-2.2500 F1080.00
G2 X-1.5000 Y0.0000 Z-2.2500 I0.0000 J1.5000 F1080.00
G1 X-1.5000 Y430.0000 Z-2.2500 F1080.00
G2 X0.0000 Y431.5000 Z-2.2500 I1.5000 J-0.0000 F1080.00
G1 X28.0000 Y431.5000 Z-2.2500 F1080.00
G2 X29.0607 Y431.0607 Z-2.2500 I-0.0000 J-1.5000 F1080.00
G1 X29.0607 Y431.0607 Z-3.0000 F1080.00
G2 X29.5000 Y430.0000 Z-3.0000 I-1.0607 J-1.0607 F1080.00
G1 X29.5000 Y0.0000 Z-3.0000 F1080.00
G2 X28.0000 Y-1.5000 Z-3.0000 I-1.5000 J0.0000 F1080.00
G1 X0.0000 Y-1.5000 Z-3.0000 F1080.00
G2 X-1.5000 Y0.0000 Z-3.0000 I0.0000 J1.5000 F1080.00
G1 X-1.5000 Y430.0000 Z-3.0000 F1080.00
G2 X0.0000 Y431.5000 Z-3.0000 I1.5000 J-0.0000 F1080.00
G1 X28.0000 Y431.5000 Z-3.0000 F1080.00
G2 X29.0607 Y431.0607 Z-3.0000 I-0.0000 J-1.5000 F1080.00
G1 X29.0607 Y431.0607 Z-3.7500 F1080.00
G2 X29.5000 Y430.0000 Z-3.7500 I-1.0607 J-1.0607 F1080.00
G1 X29.5000 Y0.0000 Z-3.7500 F1080.00
G2 X28.0000 Y-1.5000 Z-3.7500 I-1.5000 J0.0000 F1080.00
G1 X0.0000 Y-1.5000 Z-3.7500 F1080.00
G2 X-1.5000 Y0.0000 Z-3.7500 I0.0000 J1.5000 F1080.00
G1 X-1.5000 Y430.0000 Z-3.7500 F1080.00
G2 X0.0000 Y431.5000 Z-3.7500 I1.5000 J-0.0000 F1080.00
G1 X28.0000 Y431.5000 Z-3.7500 F1080.00
G2 X29.0607 Y431.0607 Z-3.7500 I-0.0000 J-1.5000 F1080.00
G1 X29.0607 Y431.0607 Z-4.5000 F1080.00
G2 X29.5000 Y430.0000 Z-4.5000 I-1.0607 J-1.0607 F1080.00
G1 X29.5000 Y0.0000 Z-4.5000 F1080.00
G2 X28.0000 Y-1.5000 Z-4.5000 I-1.5000 J0.0000 F1080.00
G1 X0.0000 Y-1.5000 Z-4.5000 F1080.00
G2 X-1.5000 Y0.0000 Z-4.5000 I0.0000 J1.5000 F1080.00
G1 X-1.5000 Y430.0000 Z-4.5000 F1080.00
G2 X0.0000 Y431.5000 Z-4.5000 I1.5000 J-0.0000 F1080.00
G1 X28.0000 Y431.5000 Z-4.5000 F1080.00
G2 X29.0607 Y431.0607 Z-4.5000 I-0.0000 J-1.5000 F1080.00
G1 X29.0607 Y431.0607 Z-5.2500 F1080.00
G2 X29.5000 Y430.0000 Z-5.2500 I-1.0607 J-1.0607 F1080.00
G1 X29.5000 Y0.0000 Z-5.2500 F1080.00
G2 X28.0000 Y-1.5000 Z-5.2500 I-1.5000 J0.0000 F1080.00
G1 X0.0000 Y-1.5000 Z-5.2500 F1080.00
G2 X-1.5000 Y0.0000 Z-5.2500 I0.0000 J1.5000 F1080.00
G1 X-1.5000 Y430.0000 Z-5.2500 F1080.00
G2 X0.0000 Y431.5000 Z-5.2500 I1.5000 J-0.0000 F1080.00
G1 X28.0000 Y431.5000 Z-5.2500 F1080.00
G2 X29.0607 Y431.0607 Z-5.2500 I-0.0000 J-1.5000 F1080.00
G1 X29.0607 Y431.0607 Z-6.0000 F1080.00
G2 X29.5000 Y430.0000 Z-6.0000 I-1.0607 J-1.0607 F1080.00
G1 X29.5000 Y0.0000 Z-6.0000 F1080.00
G2 X28.0000 Y-1.5000 Z-6.0000 I-1.5000 J0.0000 F1080.00
G1 X0.0000 Y-1.5000 Z-6.0000 F1080.00
G2 X-1.5000 Y0.0000 Z-6.0000 I0.0000 J1.5000 F1080.00
G1 X-1.5000 Y430.0000 Z-6.0000 F1080.00
G2 X0.0000 Y431.5000 Z-6.0000 I1.5000 J-0.0000 F1080.00
G1 X28.0000 Y431.5000 Z-6.0000 F1080.00
G2 X29.0607 Y431.0607 Z-6.0000 I-0.0000 J-1.5000 F1080.00
G0 Z5.0000
(finish operation: Contour001)
(begin postamble)
M5
G17 G90
; M2
