(Exported by FreeCAD)
(Post Processor: grbl_post)
(Output Time:2021-11-25 21:12:41.127192)
(begin preamble)
G17 G90
G21
(begin operation: T3: 1/8inMILL001)
(Path: T3: 1/8inMILL001)
(T3: 1/8inMILL001)
(begin toolchange)
; M6 T3
M3 S0.0000
(finish operation: T3: 1/8inMILL001)
(begin operation: MillFace)
(Path: MillFace)
(MillFace)
G0 Z5.0000
G0 X27.0000 Y428.0553
G0 Z3.0000
G1 X27.0000 Y428.0553 Z-0.0000 F1080.00
G1 X1.0000 Y428.0553 Z-0.0000 F1080.00
G1 X1.0000 Y428.0553 Z-0.0000 F1080.00
G1 X27.0000 Y428.0553 Z-0.0000 F1080.00
G0 X27.0000 Y428.0553 Z5.0000
G0 X27.0000 Y426.8553 Z5.0000
G0 X27.0000 Y426.8553 Z3.0000
G1 X27.0000 Y426.8553 Z-0.0000 F1080.00
G1 X1.0000 Y426.8553 Z-0.0000 F1080.00
G1 X1.0000 Y426.8553 Z-0.0000 F1080.00
G1 X27.0000 Y426.8553 Z-0.0000 F1080.00
G0 X27.0000 Y426.8553 Z5.0000
G0 X27.0000 Y425.6553 Z5.0000
G0 X27.0000 Y425.6553 Z3.0000
G1 X27.0000 Y425.6553 Z-0.0000 F1080.00
G1 X1.0000 Y425.6553 Z-0.0000 F1080.00
G1 X1.0000 Y425.6553 Z-0.0000 F1080.00
G1 X27.0000 Y425.6553 Z-0.0000 F1080.00
G0 X27.0000 Y425.6553 Z5.0000
G0 X27.0000 Y424.4553 Z5.0000
G0 X27.0000 Y424.4553 Z3.0000
G1 X27.0000 Y424.4553 Z-0.0000 F1080.00
G1 X1.0000 Y424.4553 Z-0.0000 F1080.00
G1 X1.0000 Y424.4553 Z-0.0000 F1080.00
G1 X27.0000 Y424.4553 Z-0.0000 F1080.00
G0 X27.0000 Y424.4553 Z5.0000
G0 X27.0000 Y423.2553 Z5.0000
G0 X27.0000 Y423.2553 Z3.0000
G1 X27.0000 Y423.2553 Z-0.0000 F1080.00
G1 X1.0000 Y423.2553 Z-0.0000 F1080.00
G1 X1.0000 Y423.2553 Z-0.0000 F1080.00
G1 X27.0000 Y423.2553 Z-0.0000 F1080.00
G0 X27.0000 Y423.2553 Z5.0000
G0 X27.0000 Y422.0553 Z5.0000
G0 X27.0000 Y422.0553 Z3.0000
G1 X27.0000 Y422.0553 Z-0.0000 F1080.00
G1 X1.0000 Y422.0553 Z-0.0000 F1080.00
G1 X1.0000 Y422.0553 Z-0.0000 F1080.00
G1 X27.0000 Y422.0553 Z-0.0000 F1080.00
G0 X27.0000 Y422.0553 Z5.0000
G0 X27.0000 Y420.8553 Z5.0000
G0 X27.0000 Y420.8553 Z3.0000
G1 X27.0000 Y420.8553 Z-0.0000 F1080.00
G1 X1.0000 Y420.8553 Z-0.0000 F1080.00
G1 X1.0000 Y420.8553 Z-0.0000 F1080.00
G1 X27.0000 Y420.8553 Z-0.0000 F1080.00
G0 X27.0000 Y420.8553 Z5.0000
G0 X27.0000 Y419.6553 Z5.0000
G0 X27.0000 Y419.6553 Z3.0000
G1 X27.0000 Y419.6553 Z-0.0000 F1080.00
G1 X1.0000 Y419.6553 Z-0.0000 F1080.00
G1 X1.0000 Y419.6553 Z-0.0000 F1080.00
G1 X27.0000 Y419.6553 Z-0.0000 F1080.00
G0 X27.0000 Y419.6553 Z5.0000
G0 X27.0000 Y418.4553 Z5.0000
G0 X27.0000 Y418.4553 Z3.0000
G1 X27.0000 Y418.4553 Z-0.0000 F1080.00
G1 X1.0000 Y418.4553 Z-0.0000 F1080.00
G1 X1.0000 Y418.4553 Z-0.0000 F1080.00
G1 X27.0000 Y418.4553 Z-0.0000 F1080.00
G0 X27.0000 Y418.4553 Z5.0000
G0 X27.0000 Y417.2553 Z5.0000
G0 X27.0000 Y417.2553 Z3.0000
G1 X27.0000 Y417.2553 Z-0.0000 F1080.00
G1 X1.0000 Y417.2553 Z-0.0000 F1080.00
G1 X1.0000 Y417.2553 Z-0.0000 F1080.00
G1 X27.0000 Y417.2553 Z-0.0000 F1080.00
G0 X27.0000 Y417.2553 Z5.0000
G0 X27.0000 Y416.0553 Z5.0000
G0 X27.0000 Y416.0553 Z3.0000
G1 X27.0000 Y416.0553 Z-0.0000 F1080.00
G1 X1.0000 Y416.0553 Z-0.0000 F1080.00
G1 X1.0000 Y416.0553 Z-0.0000 F1080.00
G1 X27.0000 Y416.0553 Z-0.0000 F1080.00
G0 X27.0000 Y416.0553 Z5.0000
G0 X27.0000 Y414.8553 Z5.0000
G0 X27.0000 Y414.8553 Z3.0000
G1 X27.0000 Y414.8553 Z-0.0000 F1080.00
G1 X1.0000 Y414.8553 Z-0.0000 F1080.00
G1 X1.0000 Y414.8553 Z-0.0000 F1080.00
G1 X27.0000 Y414.8553 Z-0.0000 F1080.00
G0 X27.0000 Y414.8553 Z5.0000
G0 X27.0000 Y413.6553 Z5.0000
G0 X27.0000 Y413.6553 Z3.0000
G1 X27.0000 Y413.6553 Z-0.0000 F1080.00
G1 X1.0000 Y413.6553 Z-0.0000 F1080.00
G1 X1.0000 Y413.6553 Z-0.0000 F1080.00
G1 X27.0000 Y413.6553 Z-0.0000 F1080.00
G0 X27.0000 Y413.6553 Z5.0000
G0 X27.0000 Y412.4553 Z5.0000
G0 X27.0000 Y412.4553 Z3.0000
G1 X27.0000 Y412.4553 Z-0.0000 F1080.00
G1 X1.0000 Y412.4553 Z-0.0000 F1080.00
G1 X1.0000 Y412.4553 Z-0.0000 F1080.00
G1 X27.0000 Y412.4553 Z-0.0000 F1080.00
G0 X27.0000 Y412.4553 Z5.0000
G0 X27.0000 Y411.2553 Z5.0000
G0 X27.0000 Y411.2553 Z3.0000
G1 X27.0000 Y411.2553 Z-0.0000 F1080.00
G1 X1.0000 Y411.2553 Z-0.0000 F1080.00
G1 X1.0000 Y411.2553 Z-0.0000 F1080.00
G1 X27.0000 Y411.2553 Z-0.0000 F1080.00
G0 X27.0000 Y411.2553 Z5.0000
G0 X27.0000 Y410.0553 Z5.0000
G0 X27.0000 Y410.0553 Z3.0000
G1 X27.0000 Y410.0553 Z-0.0000 F1080.00
G1 X1.0000 Y410.0553 Z-0.0000 F1080.00
G1 X1.0000 Y410.0553 Z-0.0000 F1080.00
G1 X27.0000 Y410.0553 Z-0.0000 F1080.00
G0 X27.0000 Y410.0553 Z5.0000
G0 X27.0000 Y408.8553 Z5.0000
G0 X27.0000 Y408.8553 Z3.0000
G1 X27.0000 Y408.8553 Z-0.0000 F1080.00
G1 X1.0000 Y408.8553 Z-0.0000 F1080.00
G1 X1.0000 Y408.8553 Z-0.0000 F1080.00
G1 X27.0000 Y408.8553 Z-0.0000 F1080.00
G0 X27.0000 Y408.8553 Z5.0000
G0 X27.0000 Y407.6553 Z5.0000
G0 X27.0000 Y407.6553 Z3.0000
G1 X27.0000 Y407.6553 Z-0.0000 F1080.00
G1 X1.0000 Y407.6553 Z-0.0000 F1080.00
G1 X1.0000 Y407.6553 Z-0.0000 F1080.00
G1 X27.0000 Y407.6553 Z-0.0000 F1080.00
G0 X27.0000 Y407.6553 Z5.0000
G0 X27.0000 Y406.4553 Z5.0000
G0 X27.0000 Y406.4553 Z3.0000
G1 X27.0000 Y406.4553 Z-0.0000 F1080.00
G1 X1.0000 Y406.4553 Z-0.0000 F1080.00
G1 X1.0000 Y406.4553 Z-0.0000 F1080.00
G1 X27.0000 Y406.4553 Z-0.0000 F1080.00
G0 X27.0000 Y406.4553 Z5.0000
G0 X27.0000 Y405.2553 Z5.0000
G0 X27.0000 Y405.2553 Z3.0000
G1 X27.0000 Y405.2553 Z-0.0000 F1080.00
G1 X1.0000 Y405.2553 Z-0.0000 F1080.00
G1 X1.0000 Y405.2553 Z-0.0000 F1080.00
G1 X27.0000 Y405.2553 Z-0.0000 F1080.00
G0 X27.0000 Y405.2553 Z5.0000
G0 X27.0000 Y404.0553 Z5.0000
G0 X27.0000 Y404.0553 Z3.0000
G1 X27.0000 Y404.0553 Z-0.0000 F1080.00
G1 X1.0000 Y404.0553 Z-0.0000 F1080.00
G1 X1.0000 Y404.0553 Z-0.0000 F1080.00
G1 X27.0000 Y404.0553 Z-0.0000 F1080.00
G0 X27.0000 Y404.0553 Z5.0000
G0 X27.0000 Y402.8553 Z5.0000
G0 X27.0000 Y402.8553 Z3.0000
G1 X27.0000 Y402.8553 Z-0.0000 F1080.00
G1 X1.0000 Y402.8553 Z-0.0000 F1080.00
G1 X1.0000 Y402.8553 Z-0.0000 F1080.00
G1 X27.0000 Y402.8553 Z-0.0000 F1080.00
G0 X27.0000 Y402.8553 Z5.0000
G0 X27.0000 Y401.6553 Z5.0000
G0 X27.0000 Y401.6553 Z3.0000
G1 X27.0000 Y401.6553 Z-0.0000 F1080.00
G1 X1.0000 Y401.6553 Z-0.0000 F1080.00
G1 X1.0000 Y401.6553 Z-0.0000 F1080.00
G1 X27.0000 Y401.6553 Z-0.0000 F1080.00
G0 X27.0000 Y401.6553 Z5.0000
G0 X27.0000 Y400.4553 Z5.0000
G0 X27.0000 Y400.4553 Z3.0000
G1 X27.0000 Y400.4553 Z-0.0000 F1080.00
G1 X1.0000 Y400.4553 Z-0.0000 F1080.00
G1 X1.0000 Y400.4553 Z-0.0000 F1080.00
G1 X27.0000 Y400.4553 Z-0.0000 F1080.00
G0 X27.0000 Y400.4553 Z5.0000
G0 X27.0000 Y399.2553 Z5.0000
G0 X27.0000 Y399.2553 Z3.0000
G1 X27.0000 Y399.2553 Z-0.0000 F1080.00
G1 X1.0000 Y399.2553 Z-0.0000 F1080.00
G1 X1.0000 Y399.2553 Z-0.0000 F1080.00
G1 X27.0000 Y399.2553 Z-0.0000 F1080.00
G0 X27.0000 Y399.2553 Z5.0000
G0 X27.0000 Y398.0553 Z5.0000
G0 X27.0000 Y398.0553 Z3.0000
G1 X27.0000 Y398.0553 Z-0.0000 F1080.00
G1 X1.0000 Y398.0553 Z-0.0000 F1080.00
G1 X1.0000 Y398.0553 Z-0.0000 F1080.00
G1 X27.0000 Y398.0553 Z-0.0000 F1080.00
G0 X27.0000 Y398.0553 Z5.0000
G0 X27.0000 Y396.8553 Z5.0000
G0 X27.0000 Y396.8553 Z3.0000
G1 X27.0000 Y396.8553 Z-0.0000 F1080.00
G1 X1.0000 Y396.8553 Z-0.0000 F1080.00
G1 X1.0000 Y396.8553 Z-0.0000 F1080.00
G1 X27.0000 Y396.8553 Z-0.0000 F1080.00
G0 X27.0000 Y396.8553 Z5.0000
G0 X27.0000 Y395.6553 Z5.0000
G0 X27.0000 Y395.6553 Z3.0000
G1 X27.0000 Y395.6553 Z-0.0000 F1080.00
G1 X1.0000 Y395.6553 Z-0.0000 F1080.00
G1 X1.0000 Y395.6553 Z-0.0000 F1080.00
G1 X27.0000 Y395.6553 Z-0.0000 F1080.00
G0 X27.0000 Y395.6553 Z5.0000
G0 X27.0000 Y394.4553 Z5.0000
G0 X27.0000 Y394.4553 Z3.0000
G1 X27.0000 Y394.4553 Z-0.0000 F1080.00
G1 X1.0000 Y394.4553 Z-0.0000 F1080.00
G1 X1.0000 Y394.4553 Z-0.0000 F1080.00
G1 X27.0000 Y394.4553 Z-0.0000 F1080.00
G0 X27.0000 Y394.4553 Z5.0000
G0 X27.0000 Y393.2553 Z5.0000
G0 X27.0000 Y393.2553 Z3.0000
G1 X27.0000 Y393.2553 Z-0.0000 F1080.00
G1 X1.0000 Y393.2553 Z-0.0000 F1080.00
G1 X1.0000 Y393.2553 Z-0.0000 F1080.00
G1 X27.0000 Y393.2553 Z-0.0000 F1080.00
G0 X27.0000 Y393.2553 Z5.0000
G0 X27.0000 Y392.0553 Z5.0000
G0 X27.0000 Y392.0553 Z3.0000
G1 X27.0000 Y392.0553 Z-0.0000 F1080.00
G1 X1.0000 Y392.0553 Z-0.0000 F1080.00
G1 X1.0000 Y392.0553 Z-0.0000 F1080.00
G1 X27.0000 Y392.0553 Z-0.0000 F1080.00
G0 X27.0000 Y392.0553 Z5.0000
G0 X27.0000 Y390.8553 Z5.0000
G0 X27.0000 Y390.8553 Z3.0000
G1 X27.0000 Y390.8553 Z-0.0000 F1080.00
G1 X1.0000 Y390.8553 Z-0.0000 F1080.00
G1 X1.0000 Y390.8553 Z-0.0000 F1080.00
G1 X27.0000 Y390.8553 Z-0.0000 F1080.00
G0 X27.0000 Y390.8553 Z5.0000
G0 X27.0000 Y389.6553 Z5.0000
G0 X27.0000 Y389.6553 Z3.0000
G1 X27.0000 Y389.6553 Z-0.0000 F1080.00
G1 X1.0000 Y389.6553 Z-0.0000 F1080.00
G1 X1.0000 Y389.6553 Z-0.0000 F1080.00
G1 X27.0000 Y389.6553 Z-0.0000 F1080.00
G0 X27.0000 Y389.6553 Z5.0000
G0 X27.0000 Y388.4553 Z5.0000
G0 X27.0000 Y388.4553 Z3.0000
G1 X27.0000 Y388.4553 Z-0.0000 F1080.00
G1 X1.0000 Y388.4553 Z-0.0000 F1080.00
G1 X1.0000 Y388.4553 Z-0.0000 F1080.00
G1 X27.0000 Y388.4553 Z-0.0000 F1080.00
G0 X27.0000 Y388.4553 Z5.0000
G0 X27.0000 Y387.2553 Z5.0000
G0 X27.0000 Y387.2553 Z3.0000
G1 X27.0000 Y387.2553 Z-0.0000 F1080.00
G1 X1.0000 Y387.2553 Z-0.0000 F1080.00
G1 X1.0000 Y387.2553 Z-0.0000 F1080.00
G1 X27.0000 Y387.2553 Z-0.0000 F1080.00
G0 X27.0000 Y387.2553 Z5.0000
G0 X27.0000 Y386.0553 Z5.0000
G0 X27.0000 Y386.0553 Z3.0000
G1 X27.0000 Y386.0553 Z-0.0000 F1080.00
G1 X1.0000 Y386.0553 Z-0.0000 F1080.00
G1 X1.0000 Y386.0553 Z-0.0000 F1080.00
G1 X27.0000 Y386.0553 Z-0.0000 F1080.00
G0 X27.0000 Y386.0553 Z5.0000
G0 X27.0000 Y384.8553 Z5.0000
G0 X27.0000 Y384.8553 Z3.0000
G1 X27.0000 Y384.8553 Z-0.0000 F1080.00
G1 X1.0000 Y384.8553 Z-0.0000 F1080.00
G1 X1.0000 Y384.8553 Z-0.0000 F1080.00
G1 X27.0000 Y384.8553 Z-0.0000 F1080.00
G0 X27.0000 Y384.8553 Z5.0000
G0 X27.0000 Y383.6553 Z5.0000
G0 X27.0000 Y383.6553 Z3.0000
G1 X27.0000 Y383.6553 Z-0.0000 F1080.00
G1 X1.0000 Y383.6553 Z-0.0000 F1080.00
G1 X1.0000 Y383.6553 Z-0.0000 F1080.00
G1 X27.0000 Y383.6553 Z-0.0000 F1080.00
G0 X27.0000 Y383.6553 Z5.0000
G0 X27.0000 Y382.4553 Z5.0000
G0 X27.0000 Y382.4553 Z3.0000
G1 X27.0000 Y382.4553 Z-0.0000 F1080.00
G1 X1.0000 Y382.4553 Z-0.0000 F1080.00
G1 X1.0000 Y382.4553 Z-0.0000 F1080.00
G1 X27.0000 Y382.4553 Z-0.0000 F1080.00
G0 X27.0000 Y382.4553 Z5.0000
G0 X27.0000 Y381.2553 Z5.0000
G0 X27.0000 Y381.2553 Z3.0000
G1 X27.0000 Y381.2553 Z-0.0000 F1080.00
G1 X1.0000 Y381.2553 Z-0.0000 F1080.00
G1 X1.0000 Y381.2553 Z-0.0000 F1080.00
G1 X27.0000 Y381.2553 Z-0.0000 F1080.00
G0 X27.0000 Y381.2553 Z5.0000
G0 X27.0000 Y380.0553 Z5.0000
G0 X27.0000 Y380.0553 Z3.0000
G1 X27.0000 Y380.0553 Z-0.0000 F1080.00
G1 X1.0000 Y380.0553 Z-0.0000 F1080.00
G1 X1.0000 Y380.0553 Z-0.0000 F1080.00
G1 X27.0000 Y380.0553 Z-0.0000 F1080.00
G0 X27.0000 Y380.0553 Z5.0000
G0 X27.0000 Y378.8553 Z5.0000
G0 X27.0000 Y378.8553 Z3.0000
G1 X27.0000 Y378.8553 Z-0.0000 F1080.00
G1 X1.0000 Y378.8553 Z-0.0000 F1080.00
G1 X1.0000 Y378.8553 Z-0.0000 F1080.00
G1 X27.0000 Y378.8553 Z-0.0000 F1080.00
G0 X27.0000 Y378.8553 Z5.0000
G0 X27.0000 Y377.6553 Z5.0000
G0 X27.0000 Y377.6553 Z3.0000
G1 X27.0000 Y377.6553 Z-0.0000 F1080.00
G1 X1.0000 Y377.6553 Z-0.0000 F1080.00
G1 X1.0000 Y377.6553 Z-0.0000 F1080.00
G1 X27.0000 Y377.6553 Z-0.0000 F1080.00
G0 X27.0000 Y377.6553 Z5.0000
G0 X27.0000 Y376.4553 Z5.0000
G0 X27.0000 Y376.4553 Z3.0000
G1 X27.0000 Y376.4553 Z-0.0000 F1080.00
G1 X1.0000 Y376.4553 Z-0.0000 F1080.00
G1 X1.0000 Y376.4553 Z-0.0000 F1080.00
G1 X27.0000 Y376.4553 Z-0.0000 F1080.00
G0 X27.0000 Y376.4553 Z5.0000
G0 X27.0000 Y375.2553 Z5.0000
G0 X27.0000 Y375.2553 Z3.0000
G1 X27.0000 Y375.2553 Z-0.0000 F1080.00
G1 X1.0000 Y375.2553 Z-0.0000 F1080.00
G1 X1.0000 Y375.2553 Z-0.0000 F1080.00
G1 X27.0000 Y375.2553 Z-0.0000 F1080.00
G0 X27.0000 Y375.2553 Z5.0000
G0 X27.0000 Y374.0553 Z5.0000
G0 X27.0000 Y374.0553 Z3.0000
G1 X27.0000 Y374.0553 Z-0.0000 F1080.00
G1 X1.0000 Y374.0553 Z-0.0000 F1080.00
G1 X1.0000 Y374.0553 Z-0.0000 F1080.00
G1 X27.0000 Y374.0553 Z-0.0000 F1080.00
G0 X27.0000 Y374.0553 Z5.0000
G0 X27.0000 Y372.8553 Z5.0000
G0 X27.0000 Y372.8553 Z3.0000
G1 X27.0000 Y372.8553 Z-0.0000 F1080.00
G1 X1.0000 Y372.8553 Z-0.0000 F1080.00
G1 X1.0000 Y372.8553 Z-0.0000 F1080.00
G1 X27.0000 Y372.8553 Z-0.0000 F1080.00
G0 X27.0000 Y372.8553 Z5.0000
G0 X27.0000 Y371.6553 Z5.0000
G0 X27.0000 Y371.6553 Z3.0000
G1 X27.0000 Y371.6553 Z-0.0000 F1080.00
G1 X1.0000 Y371.6553 Z-0.0000 F1080.00
G1 X1.0000 Y371.6553 Z-0.0000 F1080.00
G1 X27.0000 Y371.6553 Z-0.0000 F1080.00
G0 X27.0000 Y371.6553 Z5.0000
G0 X27.0000 Y370.4553 Z5.0000
G0 X27.0000 Y370.4553 Z3.0000
G1 X27.0000 Y370.4553 Z-0.0000 F1080.00
G1 X1.0000 Y370.4553 Z-0.0000 F1080.00
G1 X1.0000 Y370.4553 Z-0.0000 F1080.00
G1 X27.0000 Y370.4553 Z-0.0000 F1080.00
G0 X27.0000 Y370.4553 Z5.0000
G0 X27.0000 Y369.2553 Z5.0000
G0 X27.0000 Y369.2553 Z3.0000
G1 X27.0000 Y369.2553 Z-0.0000 F1080.00
G1 X1.0000 Y369.2553 Z-0.0000 F1080.00
G1 X1.0000 Y369.2553 Z-0.0000 F1080.00
G1 X27.0000 Y369.2553 Z-0.0000 F1080.00
G0 X27.0000 Y369.2553 Z5.0000
G0 X27.0000 Y368.0553 Z5.0000
G0 X27.0000 Y368.0553 Z3.0000
G1 X27.0000 Y368.0553 Z-0.0000 F1080.00
G1 X1.0000 Y368.0553 Z-0.0000 F1080.00
G1 X1.0000 Y368.0553 Z-0.0000 F1080.00
G1 X27.0000 Y368.0553 Z-0.0000 F1080.00
G0 X27.0000 Y368.0553 Z5.0000
G0 X27.0000 Y366.8553 Z5.0000
G0 X27.0000 Y366.8553 Z3.0000
G1 X27.0000 Y366.8553 Z-0.0000 F1080.00
G1 X1.0000 Y366.8553 Z-0.0000 F1080.00
G1 X1.0000 Y366.8553 Z-0.0000 F1080.00
G1 X27.0000 Y366.8553 Z-0.0000 F1080.00
G0 X27.0000 Y366.8553 Z5.0000
G0 X27.0000 Y365.6553 Z5.0000
G0 X27.0000 Y365.6553 Z3.0000
G1 X27.0000 Y365.6553 Z-0.0000 F1080.00
G1 X1.0000 Y365.6553 Z-0.0000 F1080.00
G1 X1.0000 Y365.6553 Z-0.0000 F1080.00
G1 X27.0000 Y365.6553 Z-0.0000 F1080.00
G0 X27.0000 Y365.6553 Z5.0000
G0 X27.0000 Y364.4553 Z5.0000
G0 X27.0000 Y364.4553 Z3.0000
G1 X27.0000 Y364.4553 Z-0.0000 F1080.00
G1 X1.0000 Y364.4553 Z-0.0000 F1080.00
G1 X1.0000 Y364.4553 Z-0.0000 F1080.00
G1 X27.0000 Y364.4553 Z-0.0000 F1080.00
G0 X27.0000 Y364.4553 Z5.0000
G0 X27.0000 Y363.2553 Z5.0000
G0 X27.0000 Y363.2553 Z3.0000
G1 X27.0000 Y363.2553 Z-0.0000 F1080.00
G1 X1.0000 Y363.2553 Z-0.0000 F1080.00
G1 X1.0000 Y363.2553 Z-0.0000 F1080.00
G1 X27.0000 Y363.2553 Z-0.0000 F1080.00
G0 X27.0000 Y363.2553 Z5.0000
G0 X27.0000 Y362.0553 Z5.0000
G0 X27.0000 Y362.0553 Z3.0000
G1 X27.0000 Y362.0553 Z-0.0000 F1080.00
G1 X1.0000 Y362.0553 Z-0.0000 F1080.00
G1 X1.0000 Y362.0553 Z-0.0000 F1080.00
G1 X27.0000 Y362.0553 Z-0.0000 F1080.00
G0 X27.0000 Y362.0553 Z5.0000
G0 X27.0000 Y360.8553 Z5.0000
G0 X27.0000 Y360.8553 Z3.0000
G1 X27.0000 Y360.8553 Z-0.0000 F1080.00
G1 X1.0000 Y360.8553 Z-0.0000 F1080.00
G1 X1.0000 Y360.8553 Z-0.0000 F1080.00
G1 X27.0000 Y360.8553 Z-0.0000 F1080.00
G0 X27.0000 Y360.8553 Z5.0000
G0 X27.0000 Y359.6553 Z5.0000
G0 X27.0000 Y359.6553 Z3.0000
G1 X27.0000 Y359.6553 Z-0.0000 F1080.00
G1 X1.0000 Y359.6553 Z-0.0000 F1080.00
G1 X1.0000 Y359.6553 Z-0.0000 F1080.00
G1 X27.0000 Y359.6553 Z-0.0000 F1080.00
G0 X27.0000 Y359.6553 Z5.0000
G0 X27.0000 Y358.4553 Z5.0000
G0 X27.0000 Y358.4553 Z3.0000
G1 X27.0000 Y358.4553 Z-0.0000 F1080.00
G1 X1.0000 Y358.4553 Z-0.0000 F1080.00
G1 X1.0000 Y358.4553 Z-0.0000 F1080.00
G1 X27.0000 Y358.4553 Z-0.0000 F1080.00
G0 X27.0000 Y358.4553 Z5.0000
G0 X27.0000 Y357.2553 Z5.0000
G0 X27.0000 Y357.2553 Z3.0000
G1 X27.0000 Y357.2553 Z-0.0000 F1080.00
G1 X1.0000 Y357.2553 Z-0.0000 F1080.00
G1 X1.0000 Y357.2553 Z-0.0000 F1080.00
G1 X27.0000 Y357.2553 Z-0.0000 F1080.00
G0 X27.0000 Y357.2553 Z5.0000
G0 X27.0000 Y356.0553 Z5.0000
G0 X27.0000 Y356.0553 Z3.0000
G1 X27.0000 Y356.0553 Z-0.0000 F1080.00
G1 X1.0000 Y356.0553 Z-0.0000 F1080.00
G1 X1.0000 Y356.0553 Z-0.0000 F1080.00
G1 X27.0000 Y356.0553 Z-0.0000 F1080.00
G0 X27.0000 Y356.0553 Z5.0000
G0 X27.0000 Y354.8553 Z5.0000
G0 X27.0000 Y354.8553 Z3.0000
G1 X27.0000 Y354.8553 Z-0.0000 F1080.00
G1 X1.0000 Y354.8553 Z-0.0000 F1080.00
G1 X1.0000 Y354.8553 Z-0.0000 F1080.00
G1 X27.0000 Y354.8553 Z-0.0000 F1080.00
G0 X27.0000 Y354.8553 Z5.0000
G0 X27.0000 Y353.6553 Z5.0000
G0 X27.0000 Y353.6553 Z3.0000
G1 X27.0000 Y353.6553 Z-0.0000 F1080.00
G1 X1.0000 Y353.6553 Z-0.0000 F1080.00
G1 X1.0000 Y353.6553 Z-0.0000 F1080.00
G1 X27.0000 Y353.6553 Z-0.0000 F1080.00
G0 X27.0000 Y353.6553 Z5.0000
G0 X27.0000 Y352.4553 Z5.0000
G0 X27.0000 Y352.4553 Z3.0000
G1 X27.0000 Y352.4553 Z-0.0000 F1080.00
G1 X1.0000 Y352.4553 Z-0.0000 F1080.00
G1 X1.0000 Y352.4553 Z-0.0000 F1080.00
G1 X27.0000 Y352.4553 Z-0.0000 F1080.00
G0 X27.0000 Y352.4553 Z5.0000
G0 X27.0000 Y351.2553 Z5.0000
G0 X27.0000 Y351.2553 Z3.0000
G1 X27.0000 Y351.2553 Z-0.0000 F1080.00
G1 X1.0000 Y351.2553 Z-0.0000 F1080.00
G1 X1.0000 Y351.2553 Z-0.0000 F1080.00
G1 X27.0000 Y351.2553 Z-0.0000 F1080.00
G0 X27.0000 Y351.2553 Z5.0000
G0 X27.0000 Y350.0553 Z5.0000
G0 X27.0000 Y350.0553 Z3.0000
G1 X27.0000 Y350.0553 Z-0.0000 F1080.00
G1 X1.0000 Y350.0553 Z-0.0000 F1080.00
G1 X1.0000 Y350.0553 Z-0.0000 F1080.00
G1 X27.0000 Y350.0553 Z-0.0000 F1080.00
G0 X27.0000 Y350.0553 Z5.0000
G0 X27.0000 Y348.8553 Z5.0000
G0 X27.0000 Y348.8553 Z3.0000
G1 X27.0000 Y348.8553 Z-0.0000 F1080.00
G1 X1.0000 Y348.8553 Z-0.0000 F1080.00
G1 X1.0000 Y348.8553 Z-0.0000 F1080.00
G1 X27.0000 Y348.8553 Z-0.0000 F1080.00
G0 X27.0000 Y348.8553 Z5.0000
G0 X27.0000 Y347.6553 Z5.0000
G0 X27.0000 Y347.6553 Z3.0000
G1 X27.0000 Y347.6553 Z-0.0000 F1080.00
G1 X1.0000 Y347.6553 Z-0.0000 F1080.00
G1 X1.0000 Y347.6553 Z-0.0000 F1080.00
G1 X27.0000 Y347.6553 Z-0.0000 F1080.00
G0 X27.0000 Y347.6553 Z5.0000
G0 X27.0000 Y346.4553 Z5.0000
G0 X27.0000 Y346.4553 Z3.0000
G1 X27.0000 Y346.4553 Z-0.0000 F1080.00
G1 X1.0000 Y346.4553 Z-0.0000 F1080.00
G1 X1.0000 Y346.4553 Z-0.0000 F1080.00
G1 X27.0000 Y346.4553 Z-0.0000 F1080.00
G0 X27.0000 Y346.4553 Z5.0000
G0 X27.0000 Y345.2553 Z5.0000
G0 X27.0000 Y345.2553 Z3.0000
G1 X27.0000 Y345.2553 Z-0.0000 F1080.00
G1 X1.0000 Y345.2553 Z-0.0000 F1080.00
G1 X1.0000 Y345.2553 Z-0.0000 F1080.00
G1 X27.0000 Y345.2553 Z-0.0000 F1080.00
G0 X27.0000 Y345.2553 Z5.0000
G0 X27.0000 Y344.0553 Z5.0000
G0 X27.0000 Y344.0553 Z3.0000
G1 X27.0000 Y344.0553 Z-0.0000 F1080.00
G1 X1.0000 Y344.0553 Z-0.0000 F1080.00
G1 X1.0000 Y344.0553 Z-0.0000 F1080.00
G1 X27.0000 Y344.0553 Z-0.0000 F1080.00
G0 X27.0000 Y344.0553 Z5.0000
G0 X27.0000 Y342.8553 Z5.0000
G0 X27.0000 Y342.8553 Z3.0000
G1 X27.0000 Y342.8553 Z-0.0000 F1080.00
G1 X1.0000 Y342.8553 Z-0.0000 F1080.00
G1 X1.0000 Y342.8553 Z-0.0000 F1080.00
G1 X27.0000 Y342.8553 Z-0.0000 F1080.00
G0 X27.0000 Y342.8553 Z5.0000
G0 X27.0000 Y341.6553 Z5.0000
G0 X27.0000 Y341.6553 Z3.0000
G1 X27.0000 Y341.6553 Z-0.0000 F1080.00
G1 X1.0000 Y341.6553 Z-0.0000 F1080.00
G1 X1.0000 Y341.6553 Z-0.0000 F1080.00
G1 X27.0000 Y341.6553 Z-0.0000 F1080.00
G0 X27.0000 Y341.6553 Z5.0000
G0 X27.0000 Y340.4553 Z5.0000
G0 X27.0000 Y340.4553 Z3.0000
G1 X27.0000 Y340.4553 Z-0.0000 F1080.00
G1 X1.0000 Y340.4553 Z-0.0000 F1080.00
G1 X1.0000 Y340.4553 Z-0.0000 F1080.00
G1 X27.0000 Y340.4553 Z-0.0000 F1080.00
G0 X27.0000 Y340.4553 Z5.0000
G0 X27.0000 Y339.2553 Z5.0000
G0 X27.0000 Y339.2553 Z3.0000
G1 X27.0000 Y339.2553 Z-0.0000 F1080.00
G1 X1.0000 Y339.2553 Z-0.0000 F1080.00
G1 X1.0000 Y339.2553 Z-0.0000 F1080.00
G1 X27.0000 Y339.2553 Z-0.0000 F1080.00
G0 X27.0000 Y339.2553 Z5.0000
G0 X27.0000 Y338.0553 Z5.0000
G0 X27.0000 Y338.0553 Z3.0000
G1 X27.0000 Y338.0553 Z-0.0000 F1080.00
G1 X1.0000 Y338.0553 Z-0.0000 F1080.00
G1 X1.0000 Y338.0553 Z-0.0000 F1080.00
G1 X27.0000 Y338.0553 Z-0.0000 F1080.00
G0 X27.0000 Y338.0553 Z5.0000
G0 X27.0000 Y336.8553 Z5.0000
G0 X27.0000 Y336.8553 Z3.0000
G1 X27.0000 Y336.8553 Z-0.0000 F1080.00
G1 X1.0000 Y336.8553 Z-0.0000 F1080.00
G1 X1.0000 Y336.8553 Z-0.0000 F1080.00
G1 X27.0000 Y336.8553 Z-0.0000 F1080.00
G0 X27.0000 Y336.8553 Z5.0000
G0 X27.0000 Y335.6553 Z5.0000
G0 X27.0000 Y335.6553 Z3.0000
G1 X27.0000 Y335.6553 Z-0.0000 F1080.00
G1 X1.0000 Y335.6553 Z-0.0000 F1080.00
G1 X1.0000 Y335.6553 Z-0.0000 F1080.00
G1 X27.0000 Y335.6553 Z-0.0000 F1080.00
G0 X27.0000 Y335.6553 Z5.0000
G0 X27.0000 Y334.4553 Z5.0000
G0 X27.0000 Y334.4553 Z3.0000
G1 X27.0000 Y334.4553 Z-0.0000 F1080.00
G1 X1.0000 Y334.4553 Z-0.0000 F1080.00
G1 X1.0000 Y334.4553 Z-0.0000 F1080.00
G1 X27.0000 Y334.4553 Z-0.0000 F1080.00
G0 X27.0000 Y334.4553 Z5.0000
G0 X27.0000 Y333.2553 Z5.0000
G0 X27.0000 Y333.2553 Z3.0000
G1 X27.0000 Y333.2553 Z-0.0000 F1080.00
G1 X1.0000 Y333.2553 Z-0.0000 F1080.00
G1 X1.0000 Y333.2553 Z-0.0000 F1080.00
G1 X27.0000 Y333.2553 Z-0.0000 F1080.00
G0 X27.0000 Y333.2553 Z5.0000
G0 X27.0000 Y332.0553 Z5.0000
G0 X27.0000 Y332.0553 Z3.0000
G1 X27.0000 Y332.0553 Z-0.0000 F1080.00
G1 X1.0000 Y332.0553 Z-0.0000 F1080.00
G1 X1.0000 Y332.0553 Z-0.0000 F1080.00
G1 X27.0000 Y332.0553 Z-0.0000 F1080.00
G0 X27.0000 Y332.0553 Z5.0000
G0 X27.0000 Y330.8553 Z5.0000
G0 X27.0000 Y330.8553 Z3.0000
G1 X27.0000 Y330.8553 Z-0.0000 F1080.00
G1 X1.0000 Y330.8553 Z-0.0000 F1080.00
G1 X1.0000 Y330.8553 Z-0.0000 F1080.00
G1 X27.0000 Y330.8553 Z-0.0000 F1080.00
G0 X27.0000 Y330.8553 Z5.0000
G0 X27.0000 Y329.6553 Z5.0000
G0 X27.0000 Y329.6553 Z3.0000
G1 X27.0000 Y329.6553 Z-0.0000 F1080.00
G1 X1.0000 Y329.6553 Z-0.0000 F1080.00
G1 X1.0000 Y329.6553 Z-0.0000 F1080.00
G1 X27.0000 Y329.6553 Z-0.0000 F1080.00
G0 X27.0000 Y329.6553 Z5.0000
G0 X27.0000 Y328.4553 Z5.0000
G0 X27.0000 Y328.4553 Z3.0000
G1 X27.0000 Y328.4553 Z-0.0000 F1080.00
G1 X1.0000 Y328.4553 Z-0.0000 F1080.00
G1 X1.0000 Y328.4553 Z-0.0000 F1080.00
G1 X27.0000 Y328.4553 Z-0.0000 F1080.00
G0 X27.0000 Y328.4553 Z5.0000
G0 X27.0000 Y327.2553 Z5.0000
G0 X27.0000 Y327.2553 Z3.0000
G1 X27.0000 Y327.2553 Z-0.0000 F1080.00
G1 X1.0000 Y327.2553 Z-0.0000 F1080.00
G1 X1.0000 Y327.2553 Z-0.0000 F1080.00
G1 X27.0000 Y327.2553 Z-0.0000 F1080.00
G0 X27.0000 Y327.2553 Z5.0000
G0 X27.0000 Y326.0553 Z5.0000
G0 X27.0000 Y326.0553 Z3.0000
G1 X27.0000 Y326.0553 Z-0.0000 F1080.00
G1 X1.0000 Y326.0553 Z-0.0000 F1080.00
G1 X1.0000 Y326.0553 Z-0.0000 F1080.00
G1 X27.0000 Y326.0553 Z-0.0000 F1080.00
G0 X27.0000 Y326.0553 Z5.0000
G0 X27.0000 Y324.8553 Z5.0000
G0 X27.0000 Y324.8553 Z3.0000
G1 X27.0000 Y324.8553 Z-0.0000 F1080.00
G1 X1.0000 Y324.8553 Z-0.0000 F1080.00
G1 X1.0000 Y324.8553 Z-0.0000 F1080.00
G1 X27.0000 Y324.8553 Z-0.0000 F1080.00
G0 X27.0000 Y324.8553 Z5.0000
G0 X27.0000 Y323.6553 Z5.0000
G0 X27.0000 Y323.6553 Z3.0000
G1 X27.0000 Y323.6553 Z-0.0000 F1080.00
G1 X1.0000 Y323.6553 Z-0.0000 F1080.00
G1 X1.0000 Y323.6553 Z-0.0000 F1080.00
G1 X27.0000 Y323.6553 Z-0.0000 F1080.00
G0 X27.0000 Y323.6553 Z5.0000
G0 X27.0000 Y322.4553 Z5.0000
G0 X27.0000 Y322.4553 Z3.0000
G1 X27.0000 Y322.4553 Z-0.0000 F1080.00
G1 X1.0000 Y322.4553 Z-0.0000 F1080.00
G1 X1.0000 Y322.4553 Z-0.0000 F1080.00
G1 X27.0000 Y322.4553 Z-0.0000 F1080.00
G0 X27.0000 Y322.4553 Z5.0000
G0 X27.0000 Y321.2553 Z5.0000
G0 X27.0000 Y321.2553 Z3.0000
G1 X27.0000 Y321.2553 Z-0.0000 F1080.00
G1 X1.0000 Y321.2553 Z-0.0000 F1080.00
G1 X1.0000 Y321.2553 Z-0.0000 F1080.00
G1 X27.0000 Y321.2553 Z-0.0000 F1080.00
G0 X27.0000 Y321.2553 Z5.0000
G0 X27.0000 Y320.0553 Z5.0000
G0 X27.0000 Y320.0553 Z3.0000
G1 X27.0000 Y320.0553 Z-0.0000 F1080.00
G1 X1.0000 Y320.0553 Z-0.0000 F1080.00
G1 X1.0000 Y320.0553 Z-0.0000 F1080.00
G1 X27.0000 Y320.0553 Z-0.0000 F1080.00
G0 X27.0000 Y320.0553 Z5.0000
G0 X27.0000 Y318.8553 Z5.0000
G0 X27.0000 Y318.8553 Z3.0000
G1 X27.0000 Y318.8553 Z-0.0000 F1080.00
G1 X1.0000 Y318.8553 Z-0.0000 F1080.00
G1 X1.0000 Y318.8553 Z-0.0000 F1080.00
G1 X27.0000 Y318.8553 Z-0.0000 F1080.00
G0 X27.0000 Y318.8553 Z5.0000
G0 X27.0000 Y317.6553 Z5.0000
G0 X27.0000 Y317.6553 Z3.0000
G1 X27.0000 Y317.6553 Z-0.0000 F1080.00
G1 X1.0000 Y317.6553 Z-0.0000 F1080.00
G1 X1.0000 Y317.6553 Z-0.0000 F1080.00
G1 X27.0000 Y317.6553 Z-0.0000 F1080.00
G0 X27.0000 Y317.6553 Z5.0000
G0 X27.0000 Y316.4553 Z5.0000
G0 X27.0000 Y316.4553 Z3.0000
G1 X27.0000 Y316.4553 Z-0.0000 F1080.00
G1 X1.0000 Y316.4553 Z-0.0000 F1080.00
G1 X1.0000 Y316.4553 Z-0.0000 F1080.00
G1 X27.0000 Y316.4553 Z-0.0000 F1080.00
G0 X27.0000 Y316.4553 Z5.0000
G0 X27.0000 Y315.2553 Z5.0000
G0 X27.0000 Y315.2553 Z3.0000
G1 X27.0000 Y315.2553 Z-0.0000 F1080.00
G1 X1.0000 Y315.2553 Z-0.0000 F1080.00
G1 X1.0000 Y315.2553 Z-0.0000 F1080.00
G1 X27.0000 Y315.2553 Z-0.0000 F1080.00
G0 X27.0000 Y315.2553 Z5.0000
G0 X27.0000 Y314.0553 Z5.0000
G0 X27.0000 Y314.0553 Z3.0000
G1 X27.0000 Y314.0553 Z-0.0000 F1080.00
G1 X1.0000 Y314.0553 Z-0.0000 F1080.00
G1 X1.0000 Y314.0553 Z-0.0000 F1080.00
G1 X27.0000 Y314.0553 Z-0.0000 F1080.00
G0 X27.0000 Y314.0553 Z5.0000
G0 X27.0000 Y312.8553 Z5.0000
G0 X27.0000 Y312.8553 Z3.0000
G1 X27.0000 Y312.8553 Z-0.0000 F1080.00
G1 X1.0000 Y312.8553 Z-0.0000 F1080.00
G1 X1.0000 Y312.8553 Z-0.0000 F1080.00
G1 X27.0000 Y312.8553 Z-0.0000 F1080.00
G0 X27.0000 Y312.8553 Z5.0000
G0 X27.0000 Y311.6553 Z5.0000
G0 X27.0000 Y311.6553 Z3.0000
G1 X27.0000 Y311.6553 Z-0.0000 F1080.00
G1 X1.0000 Y311.6553 Z-0.0000 F1080.00
G1 X1.0000 Y311.6553 Z-0.0000 F1080.00
G1 X27.0000 Y311.6553 Z-0.0000 F1080.00
G0 X27.0000 Y311.6553 Z5.0000
G0 X27.0000 Y310.4553 Z5.0000
G0 X27.0000 Y310.4553 Z3.0000
G1 X27.0000 Y310.4553 Z-0.0000 F1080.00
G1 X1.0000 Y310.4553 Z-0.0000 F1080.00
G1 X1.0000 Y310.4553 Z-0.0000 F1080.00
G1 X27.0000 Y310.4553 Z-0.0000 F1080.00
G0 X27.0000 Y310.4553 Z5.0000
G0 X27.0000 Y309.2553 Z5.0000
G0 X27.0000 Y309.2553 Z3.0000
G1 X27.0000 Y309.2553 Z-0.0000 F1080.00
G1 X1.0000 Y309.2553 Z-0.0000 F1080.00
G1 X1.0000 Y309.2553 Z-0.0000 F1080.00
G1 X27.0000 Y309.2553 Z-0.0000 F1080.00
G0 X27.0000 Y309.2553 Z5.0000
G0 X27.0000 Y308.0553 Z5.0000
G0 X27.0000 Y308.0553 Z3.0000
G1 X27.0000 Y308.0553 Z-0.0000 F1080.00
G1 X1.0000 Y308.0553 Z-0.0000 F1080.00
G1 X1.0000 Y308.0553 Z-0.0000 F1080.00
G1 X27.0000 Y308.0553 Z-0.0000 F1080.00
G0 X27.0000 Y308.0553 Z5.0000
G0 X27.0000 Y306.8553 Z5.0000
G0 X27.0000 Y306.8553 Z3.0000
G1 X27.0000 Y306.8553 Z-0.0000 F1080.00
G1 X1.0000 Y306.8553 Z-0.0000 F1080.00
G1 X1.0000 Y306.8553 Z-0.0000 F1080.00
G1 X27.0000 Y306.8553 Z-0.0000 F1080.00
G0 X27.0000 Y306.8553 Z5.0000
G0 X27.0000 Y305.6553 Z5.0000
G0 X27.0000 Y305.6553 Z3.0000
G1 X27.0000 Y305.6553 Z-0.0000 F1080.00
G1 X1.0000 Y305.6553 Z-0.0000 F1080.00
G1 X1.0000 Y305.6553 Z-0.0000 F1080.00
G1 X27.0000 Y305.6553 Z-0.0000 F1080.00
G0 X27.0000 Y305.6553 Z5.0000
G0 X27.0000 Y304.4553 Z5.0000
G0 X27.0000 Y304.4553 Z3.0000
G1 X27.0000 Y304.4553 Z-0.0000 F1080.00
G1 X1.0000 Y304.4553 Z-0.0000 F1080.00
G1 X1.0000 Y304.4553 Z-0.0000 F1080.00
G1 X27.0000 Y304.4553 Z-0.0000 F1080.00
G0 X27.0000 Y304.4553 Z5.0000
G0 X27.0000 Y303.2553 Z5.0000
G0 X27.0000 Y303.2553 Z3.0000
G1 X27.0000 Y303.2553 Z-0.0000 F1080.00
G1 X1.0000 Y303.2553 Z-0.0000 F1080.00
G1 X1.0000 Y303.2553 Z-0.0000 F1080.00
G1 X27.0000 Y303.2553 Z-0.0000 F1080.00
G0 X27.0000 Y303.2553 Z5.0000
G0 X27.0000 Y302.0553 Z5.0000
G0 X27.0000 Y302.0553 Z3.0000
G1 X27.0000 Y302.0553 Z-0.0000 F1080.00
G1 X1.0000 Y302.0553 Z-0.0000 F1080.00
G1 X1.0000 Y302.0553 Z-0.0000 F1080.00
G1 X27.0000 Y302.0553 Z-0.0000 F1080.00
G0 X27.0000 Y302.0553 Z5.0000
G0 X27.0000 Y300.8553 Z5.0000
G0 X27.0000 Y300.8553 Z3.0000
G1 X27.0000 Y300.8553 Z-0.0000 F1080.00
G1 X1.0000 Y300.8553 Z-0.0000 F1080.00
G1 X1.0000 Y300.8553 Z-0.0000 F1080.00
G1 X27.0000 Y300.8553 Z-0.0000 F1080.00
G0 X27.0000 Y300.8553 Z5.0000
G0 X27.0000 Y299.6553 Z5.0000
G0 X27.0000 Y299.6553 Z3.0000
G1 X27.0000 Y299.6553 Z-0.0000 F1080.00
G1 X1.0000 Y299.6553 Z-0.0000 F1080.00
G1 X1.0000 Y299.6553 Z-0.0000 F1080.00
G1 X27.0000 Y299.6553 Z-0.0000 F1080.00
G0 X27.0000 Y299.6553 Z5.0000
G0 X27.0000 Y298.4553 Z5.0000
G0 X27.0000 Y298.4553 Z3.0000
G1 X27.0000 Y298.4553 Z-0.0000 F1080.00
G1 X1.0000 Y298.4553 Z-0.0000 F1080.00
G1 X1.0000 Y298.4553 Z-0.0000 F1080.00
G1 X27.0000 Y298.4553 Z-0.0000 F1080.00
G0 X27.0000 Y298.4553 Z5.0000
G0 X27.0000 Y297.2553 Z5.0000
G0 X27.0000 Y297.2553 Z3.0000
G1 X27.0000 Y297.2553 Z-0.0000 F1080.00
G1 X1.0000 Y297.2553 Z-0.0000 F1080.00
G1 X1.0000 Y297.2553 Z-0.0000 F1080.00
G1 X27.0000 Y297.2553 Z-0.0000 F1080.00
G0 X27.0000 Y297.2553 Z5.0000
G0 X27.0000 Y296.0553 Z5.0000
G0 X27.0000 Y296.0553 Z3.0000
G1 X27.0000 Y296.0553 Z-0.0000 F1080.00
G1 X1.0000 Y296.0553 Z-0.0000 F1080.00
G1 X1.0000 Y296.0553 Z-0.0000 F1080.00
G1 X27.0000 Y296.0553 Z-0.0000 F1080.00
G0 X27.0000 Y296.0553 Z5.0000
G0 X27.0000 Y294.8553 Z5.0000
G0 X27.0000 Y294.8553 Z3.0000
G1 X27.0000 Y294.8553 Z-0.0000 F1080.00
G1 X1.0000 Y294.8553 Z-0.0000 F1080.00
G1 X1.0000 Y294.8553 Z-0.0000 F1080.00
G1 X27.0000 Y294.8553 Z-0.0000 F1080.00
G0 X27.0000 Y294.8553 Z5.0000
G0 X27.0000 Y293.6553 Z5.0000
G0 X27.0000 Y293.6553 Z3.0000
G1 X27.0000 Y293.6553 Z-0.0000 F1080.00
G1 X1.0000 Y293.6553 Z-0.0000 F1080.00
G1 X1.0000 Y293.6553 Z-0.0000 F1080.00
G1 X27.0000 Y293.6553 Z-0.0000 F1080.00
G0 X27.0000 Y293.6553 Z5.0000
G0 X27.0000 Y292.4553 Z5.0000
G0 X27.0000 Y292.4553 Z3.0000
G1 X27.0000 Y292.4553 Z-0.0000 F1080.00
G1 X1.0000 Y292.4553 Z-0.0000 F1080.00
G1 X1.0000 Y292.4553 Z-0.0000 F1080.00
G1 X27.0000 Y292.4553 Z-0.0000 F1080.00
G0 X27.0000 Y292.4553 Z5.0000
G0 X27.0000 Y291.2553 Z5.0000
G0 X27.0000 Y291.2553 Z3.0000
G1 X27.0000 Y291.2553 Z-0.0000 F1080.00
G1 X1.0000 Y291.2553 Z-0.0000 F1080.00
G1 X1.0000 Y291.2553 Z-0.0000 F1080.00
G1 X27.0000 Y291.2553 Z-0.0000 F1080.00
G0 X27.0000 Y291.2553 Z5.0000
G0 X27.0000 Y290.0553 Z5.0000
G0 X27.0000 Y290.0553 Z3.0000
G1 X27.0000 Y290.0553 Z-0.0000 F1080.00
G1 X1.0000 Y290.0553 Z-0.0000 F1080.00
G1 X1.0000 Y290.0553 Z-0.0000 F1080.00
G1 X27.0000 Y290.0553 Z-0.0000 F1080.00
G0 X27.0000 Y290.0553 Z5.0000
G0 X27.0000 Y288.8553 Z5.0000
G0 X27.0000 Y288.8553 Z3.0000
G1 X27.0000 Y288.8553 Z-0.0000 F1080.00
G1 X1.0000 Y288.8553 Z-0.0000 F1080.00
G1 X1.0000 Y288.8553 Z-0.0000 F1080.00
G1 X27.0000 Y288.8553 Z-0.0000 F1080.00
G0 X27.0000 Y288.8553 Z5.0000
G0 X27.0000 Y287.6553 Z5.0000
G0 X27.0000 Y287.6553 Z3.0000
G1 X27.0000 Y287.6553 Z-0.0000 F1080.00
G1 X1.0000 Y287.6553 Z-0.0000 F1080.00
G1 X1.0000 Y287.6553 Z-0.0000 F1080.00
G1 X27.0000 Y287.6553 Z-0.0000 F1080.00
G0 X27.0000 Y287.6553 Z5.0000
G0 X27.0000 Y286.4553 Z5.0000
G0 X27.0000 Y286.4553 Z3.0000
G1 X27.0000 Y286.4553 Z-0.0000 F1080.00
G1 X1.0000 Y286.4553 Z-0.0000 F1080.00
G1 X1.0000 Y286.4553 Z-0.0000 F1080.00
G1 X27.0000 Y286.4553 Z-0.0000 F1080.00
G0 X27.0000 Y286.4553 Z5.0000
G0 X27.0000 Y285.2553 Z5.0000
G0 X27.0000 Y285.2553 Z3.0000
G1 X27.0000 Y285.2553 Z-0.0000 F1080.00
G1 X1.0000 Y285.2553 Z-0.0000 F1080.00
G1 X1.0000 Y285.2553 Z-0.0000 F1080.00
G1 X27.0000 Y285.2553 Z-0.0000 F1080.00
G0 X27.0000 Y285.2553 Z5.0000
G0 X27.0000 Y284.0553 Z5.0000
G0 X27.0000 Y284.0553 Z3.0000
G1 X27.0000 Y284.0553 Z-0.0000 F1080.00
G1 X1.0000 Y284.0553 Z-0.0000 F1080.00
G1 X1.0000 Y284.0553 Z-0.0000 F1080.00
G1 X27.0000 Y284.0553 Z-0.0000 F1080.00
G0 X27.0000 Y284.0553 Z5.0000
G0 X27.0000 Y282.8553 Z5.0000
G0 X27.0000 Y282.8553 Z3.0000
G1 X27.0000 Y282.8553 Z-0.0000 F1080.00
G1 X1.0000 Y282.8553 Z-0.0000 F1080.00
G1 X1.0000 Y282.8553 Z-0.0000 F1080.00
G1 X27.0000 Y282.8553 Z-0.0000 F1080.00
G0 X27.0000 Y282.8553 Z5.0000
G0 X27.0000 Y281.6553 Z5.0000
G0 X27.0000 Y281.6553 Z3.0000
G1 X27.0000 Y281.6553 Z-0.0000 F1080.00
G1 X1.0000 Y281.6553 Z-0.0000 F1080.00
G1 X1.0000 Y281.6553 Z-0.0000 F1080.00
G1 X27.0000 Y281.6553 Z-0.0000 F1080.00
G0 X27.0000 Y281.6553 Z5.0000
G0 X27.0000 Y280.4553 Z5.0000
G0 X27.0000 Y280.4553 Z3.0000
G1 X27.0000 Y280.4553 Z-0.0000 F1080.00
G1 X1.0000 Y280.4553 Z-0.0000 F1080.00
G1 X1.0000 Y280.4553 Z-0.0000 F1080.00
G1 X27.0000 Y280.4553 Z-0.0000 F1080.00
G0 X27.0000 Y280.4553 Z5.0000
G0 X27.0000 Y279.2553 Z5.0000
G0 X27.0000 Y279.2553 Z3.0000
G1 X27.0000 Y279.2553 Z-0.0000 F1080.00
G1 X1.0000 Y279.2553 Z-0.0000 F1080.00
G1 X1.0000 Y279.2553 Z-0.0000 F1080.00
G1 X27.0000 Y279.2553 Z-0.0000 F1080.00
G0 X27.0000 Y279.2553 Z5.0000
G0 X27.0000 Y278.0553 Z5.0000
G0 X27.0000 Y278.0553 Z3.0000
G1 X27.0000 Y278.0553 Z-0.0000 F1080.00
G1 X1.0000 Y278.0553 Z-0.0000 F1080.00
G1 X1.0000 Y278.0553 Z-0.0000 F1080.00
G1 X27.0000 Y278.0553 Z-0.0000 F1080.00
G0 X27.0000 Y278.0553 Z5.0000
G0 X27.0000 Y276.8553 Z5.0000
G0 X27.0000 Y276.8553 Z3.0000
G1 X27.0000 Y276.8553 Z-0.0000 F1080.00
G1 X1.0000 Y276.8553 Z-0.0000 F1080.00
G1 X1.0000 Y276.8553 Z-0.0000 F1080.00
G1 X27.0000 Y276.8553 Z-0.0000 F1080.00
G0 X27.0000 Y276.8553 Z5.0000
G0 X27.0000 Y275.6553 Z5.0000
G0 X27.0000 Y275.6553 Z3.0000
G1 X27.0000 Y275.6553 Z-0.0000 F1080.00
G1 X1.0000 Y275.6553 Z-0.0000 F1080.00
G1 X1.0000 Y275.6553 Z-0.0000 F1080.00
G1 X27.0000 Y275.6553 Z-0.0000 F1080.00
G0 X27.0000 Y275.6553 Z5.0000
G0 X27.0000 Y274.4553 Z5.0000
G0 X27.0000 Y274.4553 Z3.0000
G1 X27.0000 Y274.4553 Z-0.0000 F1080.00
G1 X1.0000 Y274.4553 Z-0.0000 F1080.00
G1 X1.0000 Y274.4553 Z-0.0000 F1080.00
G1 X27.0000 Y274.4553 Z-0.0000 F1080.00
G0 X27.0000 Y274.4553 Z5.0000
G0 X27.0000 Y273.2553 Z5.0000
G0 X27.0000 Y273.2553 Z3.0000
G1 X27.0000 Y273.2553 Z-0.0000 F1080.00
G1 X1.0000 Y273.2553 Z-0.0000 F1080.00
G1 X1.0000 Y273.2553 Z-0.0000 F1080.00
G1 X27.0000 Y273.2553 Z-0.0000 F1080.00
G0 X27.0000 Y273.2553 Z5.0000
G0 X27.0000 Y272.0553 Z5.0000
G0 X27.0000 Y272.0553 Z3.0000
G1 X27.0000 Y272.0553 Z-0.0000 F1080.00
G1 X1.0000 Y272.0553 Z-0.0000 F1080.00
G1 X1.0000 Y272.0553 Z-0.0000 F1080.00
G1 X27.0000 Y272.0553 Z-0.0000 F1080.00
G0 X27.0000 Y272.0553 Z5.0000
G0 X27.0000 Y270.8553 Z5.0000
G0 X27.0000 Y270.8553 Z3.0000
G1 X27.0000 Y270.8553 Z-0.0000 F1080.00
G1 X1.0000 Y270.8553 Z-0.0000 F1080.00
G1 X1.0000 Y270.8553 Z-0.0000 F1080.00
G1 X27.0000 Y270.8553 Z-0.0000 F1080.00
G0 X27.0000 Y270.8553 Z5.0000
G0 X27.0000 Y269.6553 Z5.0000
G0 X27.0000 Y269.6553 Z3.0000
G1 X27.0000 Y269.6553 Z-0.0000 F1080.00
G1 X1.0000 Y269.6553 Z-0.0000 F1080.00
G1 X1.0000 Y269.6553 Z-0.0000 F1080.00
G1 X27.0000 Y269.6553 Z-0.0000 F1080.00
G0 X27.0000 Y269.6553 Z5.0000
G0 X27.0000 Y268.4553 Z5.0000
G0 X27.0000 Y268.4553 Z3.0000
G1 X27.0000 Y268.4553 Z-0.0000 F1080.00
G1 X1.0000 Y268.4553 Z-0.0000 F1080.00
G1 X1.0000 Y268.4553 Z-0.0000 F1080.00
G1 X27.0000 Y268.4553 Z-0.0000 F1080.00
G0 X27.0000 Y268.4553 Z5.0000
G0 X27.0000 Y267.2553 Z5.0000
G0 X27.0000 Y267.2553 Z3.0000
G1 X27.0000 Y267.2553 Z-0.0000 F1080.00
G1 X1.0000 Y267.2553 Z-0.0000 F1080.00
G1 X1.0000 Y267.2553 Z-0.0000 F1080.00
G1 X27.0000 Y267.2553 Z-0.0000 F1080.00
G0 X27.0000 Y267.2553 Z5.0000
G0 X27.0000 Y266.0553 Z5.0000
G0 X27.0000 Y266.0553 Z3.0000
G1 X27.0000 Y266.0553 Z-0.0000 F1080.00
G1 X1.0000 Y266.0553 Z-0.0000 F1080.00
G1 X1.0000 Y266.0553 Z-0.0000 F1080.00
G1 X27.0000 Y266.0553 Z-0.0000 F1080.00
G0 X27.0000 Y266.0553 Z5.0000
G0 X27.0000 Y264.8553 Z5.0000
G0 X27.0000 Y264.8553 Z3.0000
G1 X27.0000 Y264.8553 Z-0.0000 F1080.00
G1 X1.0000 Y264.8553 Z-0.0000 F1080.00
G1 X1.0000 Y264.8553 Z-0.0000 F1080.00
G1 X27.0000 Y264.8553 Z-0.0000 F1080.00
G0 X27.0000 Y264.8553 Z5.0000
G0 X27.0000 Y263.6553 Z5.0000
G0 X27.0000 Y263.6553 Z3.0000
G1 X27.0000 Y263.6553 Z-0.0000 F1080.00
G1 X1.0000 Y263.6553 Z-0.0000 F1080.00
G1 X1.0000 Y263.6553 Z-0.0000 F1080.00
G1 X27.0000 Y263.6553 Z-0.0000 F1080.00
G0 X27.0000 Y263.6553 Z5.0000
G0 X27.0000 Y262.4553 Z5.0000
G0 X27.0000 Y262.4553 Z3.0000
G1 X27.0000 Y262.4553 Z-0.0000 F1080.00
G1 X1.0000 Y262.4553 Z-0.0000 F1080.00
G1 X1.0000 Y262.4553 Z-0.0000 F1080.00
G1 X27.0000 Y262.4553 Z-0.0000 F1080.00
G0 X27.0000 Y262.4553 Z5.0000
G0 X27.0000 Y261.2553 Z5.0000
G0 X27.0000 Y261.2553 Z3.0000
G1 X27.0000 Y261.2553 Z-0.0000 F1080.00
G1 X1.0000 Y261.2553 Z-0.0000 F1080.00
G1 X1.0000 Y261.2553 Z-0.0000 F1080.00
G1 X27.0000 Y261.2553 Z-0.0000 F1080.00
G0 X27.0000 Y261.2553 Z5.0000
G0 X27.0000 Y260.0553 Z5.0000
G0 X27.0000 Y260.0553 Z3.0000
G1 X27.0000 Y260.0553 Z-0.0000 F1080.00
G1 X1.0000 Y260.0553 Z-0.0000 F1080.00
G1 X1.0000 Y260.0553 Z-0.0000 F1080.00
G1 X27.0000 Y260.0553 Z-0.0000 F1080.00
G0 X27.0000 Y260.0553 Z5.0000
G0 X27.0000 Y258.8553 Z5.0000
G0 X27.0000 Y258.8553 Z3.0000
G1 X27.0000 Y258.8553 Z-0.0000 F1080.00
G1 X1.0000 Y258.8553 Z-0.0000 F1080.00
G1 X1.0000 Y258.8553 Z-0.0000 F1080.00
G1 X27.0000 Y258.8553 Z-0.0000 F1080.00
G0 X27.0000 Y258.8553 Z5.0000
G0 X27.0000 Y257.6553 Z5.0000
G0 X27.0000 Y257.6553 Z3.0000
G1 X27.0000 Y257.6553 Z-0.0000 F1080.00
G1 X1.0000 Y257.6553 Z-0.0000 F1080.00
G1 X1.0000 Y257.6553 Z-0.0000 F1080.00
G1 X27.0000 Y257.6553 Z-0.0000 F1080.00
G0 X27.0000 Y257.6553 Z5.0000
G0 X27.0000 Y256.4553 Z5.0000
G0 X27.0000 Y256.4553 Z3.0000
G1 X27.0000 Y256.4553 Z-0.0000 F1080.00
G1 X1.0000 Y256.4553 Z-0.0000 F1080.00
G1 X1.0000 Y256.4553 Z-0.0000 F1080.00
G1 X27.0000 Y256.4553 Z-0.0000 F1080.00
G0 X27.0000 Y256.4553 Z5.0000
G0 X27.0000 Y255.2553 Z5.0000
G0 X27.0000 Y255.2553 Z3.0000
G1 X27.0000 Y255.2553 Z-0.0000 F1080.00
G1 X1.0000 Y255.2553 Z-0.0000 F1080.00
G1 X1.0000 Y255.2553 Z-0.0000 F1080.00
G1 X27.0000 Y255.2553 Z-0.0000 F1080.00
G0 X27.0000 Y255.2553 Z5.0000
G0 X27.0000 Y254.0553 Z5.0000
G0 X27.0000 Y254.0553 Z3.0000
G1 X27.0000 Y254.0553 Z-0.0000 F1080.00
G1 X1.0000 Y254.0553 Z-0.0000 F1080.00
G1 X1.0000 Y254.0553 Z-0.0000 F1080.00
G1 X27.0000 Y254.0553 Z-0.0000 F1080.00
G0 X27.0000 Y254.0553 Z5.0000
G0 X27.0000 Y252.8553 Z5.0000
G0 X27.0000 Y252.8553 Z3.0000
G1 X27.0000 Y252.8553 Z-0.0000 F1080.00
G1 X1.0000 Y252.8553 Z-0.0000 F1080.00
G1 X1.0000 Y252.8553 Z-0.0000 F1080.00
G1 X27.0000 Y252.8553 Z-0.0000 F1080.00
G0 X27.0000 Y252.8553 Z5.0000
G0 X27.0000 Y251.6553 Z5.0000
G0 X27.0000 Y251.6553 Z3.0000
G1 X27.0000 Y251.6553 Z-0.0000 F1080.00
G1 X1.0000 Y251.6553 Z-0.0000 F1080.00
G1 X1.0000 Y251.6553 Z-0.0000 F1080.00
G1 X27.0000 Y251.6553 Z-0.0000 F1080.00
G0 X27.0000 Y251.6553 Z5.0000
G0 X27.0000 Y250.4553 Z5.0000
G0 X27.0000 Y250.4553 Z3.0000
G1 X27.0000 Y250.4553 Z-0.0000 F1080.00
G1 X1.0000 Y250.4553 Z-0.0000 F1080.00
G1 X1.0000 Y250.4553 Z-0.0000 F1080.00
G1 X27.0000 Y250.4553 Z-0.0000 F1080.00
G0 X27.0000 Y250.4553 Z5.0000
G0 X27.0000 Y249.2553 Z5.0000
G0 X27.0000 Y249.2553 Z3.0000
G1 X27.0000 Y249.2553 Z-0.0000 F1080.00
G1 X1.0000 Y249.2553 Z-0.0000 F1080.00
G1 X1.0000 Y249.2553 Z-0.0000 F1080.00
G1 X27.0000 Y249.2553 Z-0.0000 F1080.00
G0 X27.0000 Y249.2553 Z5.0000
G0 X27.0000 Y248.0553 Z5.0000
G0 X27.0000 Y248.0553 Z3.0000
G1 X27.0000 Y248.0553 Z-0.0000 F1080.00
G1 X1.0000 Y248.0553 Z-0.0000 F1080.00
G1 X1.0000 Y248.0553 Z-0.0000 F1080.00
G1 X27.0000 Y248.0553 Z-0.0000 F1080.00
G0 X27.0000 Y248.0553 Z5.0000
G0 X27.0000 Y246.8553 Z5.0000
G0 X27.0000 Y246.8553 Z3.0000
G1 X27.0000 Y246.8553 Z-0.0000 F1080.00
G1 X1.0000 Y246.8553 Z-0.0000 F1080.00
G1 X1.0000 Y246.8553 Z-0.0000 F1080.00
G1 X27.0000 Y246.8553 Z-0.0000 F1080.00
G0 X27.0000 Y246.8553 Z5.0000
G0 X27.0000 Y245.6553 Z5.0000
G0 X27.0000 Y245.6553 Z3.0000
G1 X27.0000 Y245.6553 Z-0.0000 F1080.00
G1 X1.0000 Y245.6553 Z-0.0000 F1080.00
G1 X1.0000 Y245.6553 Z-0.0000 F1080.00
G1 X27.0000 Y245.6553 Z-0.0000 F1080.00
G0 X27.0000 Y245.6553 Z5.0000
G0 X27.0000 Y244.4553 Z5.0000
G0 X27.0000 Y244.4553 Z3.0000
G1 X27.0000 Y244.4553 Z-0.0000 F1080.00
G1 X1.0000 Y244.4553 Z-0.0000 F1080.00
G1 X1.0000 Y244.4553 Z-0.0000 F1080.00
G1 X27.0000 Y244.4553 Z-0.0000 F1080.00
G0 X27.0000 Y244.4553 Z5.0000
G0 X27.0000 Y243.2553 Z5.0000
G0 X27.0000 Y243.2553 Z3.0000
G1 X27.0000 Y243.2553 Z-0.0000 F1080.00
G1 X1.0000 Y243.2553 Z-0.0000 F1080.00
G1 X1.0000 Y243.2553 Z-0.0000 F1080.00
G1 X27.0000 Y243.2553 Z-0.0000 F1080.00
G0 X27.0000 Y243.2553 Z5.0000
G0 X27.0000 Y242.0553 Z5.0000
G0 X27.0000 Y242.0553 Z3.0000
G1 X27.0000 Y242.0553 Z-0.0000 F1080.00
G1 X1.0000 Y242.0553 Z-0.0000 F1080.00
G1 X1.0000 Y242.0553 Z-0.0000 F1080.00
G1 X27.0000 Y242.0553 Z-0.0000 F1080.00
G0 X27.0000 Y242.0553 Z5.0000
G0 X27.0000 Y240.8553 Z5.0000
G0 X27.0000 Y240.8553 Z3.0000
G1 X27.0000 Y240.8553 Z-0.0000 F1080.00
G1 X1.0000 Y240.8553 Z-0.0000 F1080.00
G1 X1.0000 Y240.8553 Z-0.0000 F1080.00
G1 X27.0000 Y240.8553 Z-0.0000 F1080.00
G0 X27.0000 Y240.8553 Z5.0000
G0 X27.0000 Y239.6553 Z5.0000
G0 X27.0000 Y239.6553 Z3.0000
G1 X27.0000 Y239.6553 Z-0.0000 F1080.00
G1 X1.0000 Y239.6553 Z-0.0000 F1080.00
G1 X1.0000 Y239.6553 Z-0.0000 F1080.00
G1 X27.0000 Y239.6553 Z-0.0000 F1080.00
G0 X27.0000 Y239.6553 Z5.0000
G0 X27.0000 Y238.4553 Z5.0000
G0 X27.0000 Y238.4553 Z3.0000
G1 X27.0000 Y238.4553 Z-0.0000 F1080.00
G1 X1.0000 Y238.4553 Z-0.0000 F1080.00
G1 X1.0000 Y238.4553 Z-0.0000 F1080.00
G1 X27.0000 Y238.4553 Z-0.0000 F1080.00
G0 X27.0000 Y238.4553 Z5.0000
G0 X27.0000 Y237.2553 Z5.0000
G0 X27.0000 Y237.2553 Z3.0000
G1 X27.0000 Y237.2553 Z-0.0000 F1080.00
G1 X1.0000 Y237.2553 Z-0.0000 F1080.00
G1 X1.0000 Y237.2553 Z-0.0000 F1080.00
G1 X27.0000 Y237.2553 Z-0.0000 F1080.00
G0 X27.0000 Y237.2553 Z5.0000
G0 X27.0000 Y236.0553 Z5.0000
G0 X27.0000 Y236.0553 Z3.0000
G1 X27.0000 Y236.0553 Z-0.0000 F1080.00
G1 X1.0000 Y236.0553 Z-0.0000 F1080.00
G1 X1.0000 Y236.0553 Z-0.0000 F1080.00
G1 X27.0000 Y236.0553 Z-0.0000 F1080.00
G0 X27.0000 Y236.0553 Z5.0000
G0 X27.0000 Y234.8553 Z5.0000
G0 X27.0000 Y234.8553 Z3.0000
G1 X27.0000 Y234.8553 Z-0.0000 F1080.00
G1 X1.0000 Y234.8553 Z-0.0000 F1080.00
G1 X1.0000 Y234.8553 Z-0.0000 F1080.00
G1 X27.0000 Y234.8553 Z-0.0000 F1080.00
G0 X27.0000 Y234.8553 Z5.0000
G0 X27.0000 Y233.6553 Z5.0000
G0 X27.0000 Y233.6553 Z3.0000
G1 X27.0000 Y233.6553 Z-0.0000 F1080.00
G1 X1.0000 Y233.6553 Z-0.0000 F1080.00
G1 X1.0000 Y233.6553 Z-0.0000 F1080.00
G1 X27.0000 Y233.6553 Z-0.0000 F1080.00
G0 X27.0000 Y233.6553 Z5.0000
G0 X27.0000 Y232.4553 Z5.0000
G0 X27.0000 Y232.4553 Z3.0000
G1 X27.0000 Y232.4553 Z-0.0000 F1080.00
G1 X1.0000 Y232.4553 Z-0.0000 F1080.00
G1 X1.0000 Y232.4553 Z-0.0000 F1080.00
G1 X27.0000 Y232.4553 Z-0.0000 F1080.00
G0 X27.0000 Y232.4553 Z5.0000
G0 X27.0000 Y231.2553 Z5.0000
G0 X27.0000 Y231.2553 Z3.0000
G1 X27.0000 Y231.2553 Z-0.0000 F1080.00
G1 X1.0000 Y231.2553 Z-0.0000 F1080.00
G1 X1.0000 Y231.2553 Z-0.0000 F1080.00
G1 X27.0000 Y231.2553 Z-0.0000 F1080.00
G0 X27.0000 Y231.2553 Z5.0000
G0 X27.0000 Y230.0553 Z5.0000
G0 X27.0000 Y230.0553 Z3.0000
G1 X27.0000 Y230.0553 Z-0.0000 F1080.00
G1 X1.0000 Y230.0553 Z-0.0000 F1080.00
G1 X1.0000 Y230.0553 Z-0.0000 F1080.00
G1 X27.0000 Y230.0553 Z-0.0000 F1080.00
G0 X27.0000 Y230.0553 Z5.0000
G0 X27.0000 Y228.8553 Z5.0000
G0 X27.0000 Y228.8553 Z3.0000
G1 X27.0000 Y228.8553 Z-0.0000 F1080.00
G1 X1.0000 Y228.8553 Z-0.0000 F1080.00
G1 X1.0000 Y228.8553 Z-0.0000 F1080.00
G1 X27.0000 Y228.8553 Z-0.0000 F1080.00
G0 X27.0000 Y228.8553 Z5.0000
G0 X27.0000 Y227.6553 Z5.0000
G0 X27.0000 Y227.6553 Z3.0000
G1 X27.0000 Y227.6553 Z-0.0000 F1080.00
G1 X1.0000 Y227.6553 Z-0.0000 F1080.00
G1 X1.0000 Y227.6553 Z-0.0000 F1080.00
G1 X27.0000 Y227.6553 Z-0.0000 F1080.00
G0 X27.0000 Y227.6553 Z5.0000
G0 X27.0000 Y226.4553 Z5.0000
G0 X27.0000 Y226.4553 Z3.0000
G1 X27.0000 Y226.4553 Z-0.0000 F1080.00
G1 X1.0000 Y226.4553 Z-0.0000 F1080.00
G1 X1.0000 Y226.4553 Z-0.0000 F1080.00
G1 X27.0000 Y226.4553 Z-0.0000 F1080.00
G0 X27.0000 Y226.4553 Z5.0000
G0 X27.0000 Y225.2553 Z5.0000
G0 X27.0000 Y225.2553 Z3.0000
G1 X27.0000 Y225.2553 Z-0.0000 F1080.00
G1 X1.0000 Y225.2553 Z-0.0000 F1080.00
G1 X1.0000 Y225.2553 Z-0.0000 F1080.00
G1 X27.0000 Y225.2553 Z-0.0000 F1080.00
G0 X27.0000 Y225.2553 Z5.0000
G0 X27.0000 Y224.0553 Z5.0000
G0 X27.0000 Y224.0553 Z3.0000
G1 X27.0000 Y224.0553 Z-0.0000 F1080.00
G1 X1.0000 Y224.0553 Z-0.0000 F1080.00
G1 X1.0000 Y224.0553 Z-0.0000 F1080.00
G1 X27.0000 Y224.0553 Z-0.0000 F1080.00
G0 X27.0000 Y224.0553 Z5.0000
G0 X27.0000 Y222.8553 Z5.0000
G0 X27.0000 Y222.8553 Z3.0000
G1 X27.0000 Y222.8553 Z-0.0000 F1080.00
G1 X1.0000 Y222.8553 Z-0.0000 F1080.00
G1 X1.0000 Y222.8553 Z-0.0000 F1080.00
G1 X27.0000 Y222.8553 Z-0.0000 F1080.00
G0 X27.0000 Y222.8553 Z5.0000
G0 X27.0000 Y221.6553 Z5.0000
G0 X27.0000 Y221.6553 Z3.0000
G1 X27.0000 Y221.6553 Z-0.0000 F1080.00
G1 X1.0000 Y221.6553 Z-0.0000 F1080.00
G1 X1.0000 Y221.6553 Z-0.0000 F1080.00
G1 X27.0000 Y221.6553 Z-0.0000 F1080.00
G0 X27.0000 Y221.6553 Z5.0000
G0 X27.0000 Y220.4553 Z5.0000
G0 X27.0000 Y220.4553 Z3.0000
G1 X27.0000 Y220.4553 Z-0.0000 F1080.00
G1 X1.0000 Y220.4553 Z-0.0000 F1080.00
G1 X1.0000 Y220.4553 Z-0.0000 F1080.00
G1 X27.0000 Y220.4553 Z-0.0000 F1080.00
G0 X27.0000 Y220.4553 Z5.0000
G0 X27.0000 Y219.2553 Z5.0000
G0 X27.0000 Y219.2553 Z3.0000
G1 X27.0000 Y219.2553 Z-0.0000 F1080.00
G1 X1.0000 Y219.2553 Z-0.0000 F1080.00
G1 X1.0000 Y219.2553 Z-0.0000 F1080.00
G1 X27.0000 Y219.2553 Z-0.0000 F1080.00
G0 X27.0000 Y219.2553 Z5.0000
G0 X27.0000 Y218.0553 Z5.0000
G0 X27.0000 Y218.0553 Z3.0000
G1 X27.0000 Y218.0553 Z-0.0000 F1080.00
G1 X1.0000 Y218.0553 Z-0.0000 F1080.00
G1 X1.0000 Y218.0553 Z-0.0000 F1080.00
G1 X27.0000 Y218.0553 Z-0.0000 F1080.00
G0 X27.0000 Y218.0553 Z5.0000
G0 X27.0000 Y216.8553 Z5.0000
G0 X27.0000 Y216.8553 Z3.0000
G1 X27.0000 Y216.8553 Z-0.0000 F1080.00
G1 X1.0000 Y216.8553 Z-0.0000 F1080.00
G1 X1.0000 Y216.8553 Z-0.0000 F1080.00
G1 X27.0000 Y216.8553 Z-0.0000 F1080.00
G0 X27.0000 Y216.8553 Z5.0000
G0 X27.0000 Y215.6553 Z5.0000
G0 X27.0000 Y215.6553 Z3.0000
G1 X27.0000 Y215.6553 Z-0.0000 F1080.00
G1 X1.0000 Y215.6553 Z-0.0000 F1080.00
G1 X1.0000 Y215.6553 Z-0.0000 F1080.00
G1 X27.0000 Y215.6553 Z-0.0000 F1080.00
G0 X27.0000 Y215.6553 Z5.0000
G0 X27.0000 Y214.4553 Z5.0000
G0 X27.0000 Y214.4553 Z3.0000
G1 X27.0000 Y214.4553 Z-0.0000 F1080.00
G1 X1.0000 Y214.4553 Z-0.0000 F1080.00
G1 X1.0000 Y214.4553 Z-0.0000 F1080.00
G1 X27.0000 Y214.4553 Z-0.0000 F1080.00
G0 X27.0000 Y214.4553 Z5.0000
G0 X27.0000 Y213.2553 Z5.0000
G0 X27.0000 Y213.2553 Z3.0000
G1 X27.0000 Y213.2553 Z-0.0000 F1080.00
G1 X1.0000 Y213.2553 Z-0.0000 F1080.00
G1 X1.0000 Y213.2553 Z-0.0000 F1080.00
G1 X27.0000 Y213.2553 Z-0.0000 F1080.00
G0 X27.0000 Y213.2553 Z5.0000
G0 X27.0000 Y212.0553 Z5.0000
G0 X27.0000 Y212.0553 Z3.0000
G1 X27.0000 Y212.0553 Z-0.0000 F1080.00
G1 X1.0000 Y212.0553 Z-0.0000 F1080.00
G1 X1.0000 Y212.0553 Z-0.0000 F1080.00
G1 X27.0000 Y212.0553 Z-0.0000 F1080.00
G0 X27.0000 Y212.0553 Z5.0000
G0 X27.0000 Y210.8553 Z5.0000
G0 X27.0000 Y210.8553 Z3.0000
G1 X27.0000 Y210.8553 Z-0.0000 F1080.00
G1 X1.0000 Y210.8553 Z-0.0000 F1080.00
G1 X1.0000 Y210.8553 Z-0.0000 F1080.00
G1 X27.0000 Y210.8553 Z-0.0000 F1080.00
G0 X27.0000 Y210.8553 Z5.0000
G0 X27.0000 Y209.6553 Z5.0000
G0 X27.0000 Y209.6553 Z3.0000
G1 X27.0000 Y209.6553 Z-0.0000 F1080.00
G1 X1.0000 Y209.6553 Z-0.0000 F1080.00
G1 X1.0000 Y209.6553 Z-0.0000 F1080.00
G1 X27.0000 Y209.6553 Z-0.0000 F1080.00
G0 X27.0000 Y209.6553 Z5.0000
G0 X27.0000 Y208.4553 Z5.0000
G0 X27.0000 Y208.4553 Z3.0000
G1 X27.0000 Y208.4553 Z-0.0000 F1080.00
G1 X1.0000 Y208.4553 Z-0.0000 F1080.00
G1 X1.0000 Y208.4553 Z-0.0000 F1080.00
G1 X27.0000 Y208.4553 Z-0.0000 F1080.00
G0 X27.0000 Y208.4553 Z5.0000
G0 X27.0000 Y207.2553 Z5.0000
G0 X27.0000 Y207.2553 Z3.0000
G1 X27.0000 Y207.2553 Z-0.0000 F1080.00
G1 X1.0000 Y207.2553 Z-0.0000 F1080.00
G1 X1.0000 Y207.2553 Z-0.0000 F1080.00
G1 X27.0000 Y207.2553 Z-0.0000 F1080.00
G0 X27.0000 Y207.2553 Z5.0000
G0 X27.0000 Y206.0553 Z5.0000
G0 X27.0000 Y206.0553 Z3.0000
G1 X27.0000 Y206.0553 Z-0.0000 F1080.00
G1 X1.0000 Y206.0553 Z-0.0000 F1080.00
G1 X1.0000 Y206.0553 Z-0.0000 F1080.00
G1 X27.0000 Y206.0553 Z-0.0000 F1080.00
G0 X27.0000 Y206.0553 Z5.0000
G0 X27.0000 Y204.8553 Z5.0000
G0 X27.0000 Y204.8553 Z3.0000
G1 X27.0000 Y204.8553 Z-0.0000 F1080.00
G1 X1.0000 Y204.8553 Z-0.0000 F1080.00
G1 X1.0000 Y204.8553 Z-0.0000 F1080.00
G1 X27.0000 Y204.8553 Z-0.0000 F1080.00
G0 X27.0000 Y204.8553 Z5.0000
G0 X27.0000 Y203.6553 Z5.0000
G0 X27.0000 Y203.6553 Z3.0000
G1 X27.0000 Y203.6553 Z-0.0000 F1080.00
G1 X1.0000 Y203.6553 Z-0.0000 F1080.00
G1 X1.0000 Y203.6553 Z-0.0000 F1080.00
G1 X27.0000 Y203.6553 Z-0.0000 F1080.00
G0 X27.0000 Y203.6553 Z5.0000
G0 X27.0000 Y202.4553 Z5.0000
G0 X27.0000 Y202.4553 Z3.0000
G1 X27.0000 Y202.4553 Z-0.0000 F1080.00
G1 X1.0000 Y202.4553 Z-0.0000 F1080.00
G1 X1.0000 Y202.4553 Z-0.0000 F1080.00
G1 X27.0000 Y202.4553 Z-0.0000 F1080.00
G0 X27.0000 Y202.4553 Z5.0000
G0 X27.0000 Y201.2553 Z5.0000
G0 X27.0000 Y201.2553 Z3.0000
G1 X27.0000 Y201.2553 Z-0.0000 F1080.00
G1 X1.0000 Y201.2553 Z-0.0000 F1080.00
G1 X1.0000 Y201.2553 Z-0.0000 F1080.00
G1 X27.0000 Y201.2553 Z-0.0000 F1080.00
G0 X27.0000 Y201.2553 Z5.0000
G0 X27.0000 Y200.0553 Z5.0000
G0 X27.0000 Y200.0553 Z3.0000
G1 X27.0000 Y200.0553 Z-0.0000 F1080.00
G1 X1.0000 Y200.0553 Z-0.0000 F1080.00
G1 X1.0000 Y200.0553 Z-0.0000 F1080.00
G1 X27.0000 Y200.0553 Z-0.0000 F1080.00
G0 X27.0000 Y200.0553 Z5.0000
G0 X27.0000 Y198.8553 Z5.0000
G0 X27.0000 Y198.8553 Z3.0000
G1 X27.0000 Y198.8553 Z-0.0000 F1080.00
G1 X1.0000 Y198.8553 Z-0.0000 F1080.00
G1 X1.0000 Y198.8553 Z-0.0000 F1080.00
G1 X27.0000 Y198.8553 Z-0.0000 F1080.00
G0 X27.0000 Y198.8553 Z5.0000
G0 X27.0000 Y197.6553 Z5.0000
G0 X27.0000 Y197.6553 Z3.0000
G1 X27.0000 Y197.6553 Z-0.0000 F1080.00
G1 X1.0000 Y197.6553 Z-0.0000 F1080.00
G1 X1.0000 Y197.6553 Z-0.0000 F1080.00
G1 X27.0000 Y197.6553 Z-0.0000 F1080.00
G0 X27.0000 Y197.6553 Z5.0000
G0 X27.0000 Y196.4553 Z5.0000
G0 X27.0000 Y196.4553 Z3.0000
G1 X27.0000 Y196.4553 Z-0.0000 F1080.00
G1 X1.0000 Y196.4553 Z-0.0000 F1080.00
G1 X1.0000 Y196.4553 Z-0.0000 F1080.00
G1 X27.0000 Y196.4553 Z-0.0000 F1080.00
G0 X27.0000 Y196.4553 Z5.0000
G0 X27.0000 Y195.2553 Z5.0000
G0 X27.0000 Y195.2553 Z3.0000
G1 X27.0000 Y195.2553 Z-0.0000 F1080.00
G1 X1.0000 Y195.2553 Z-0.0000 F1080.00
G1 X1.0000 Y195.2553 Z-0.0000 F1080.00
G1 X27.0000 Y195.2553 Z-0.0000 F1080.00
G0 X27.0000 Y195.2553 Z5.0000
G0 X27.0000 Y194.0553 Z5.0000
G0 X27.0000 Y194.0553 Z3.0000
G1 X27.0000 Y194.0553 Z-0.0000 F1080.00
G1 X1.0000 Y194.0553 Z-0.0000 F1080.00
G1 X1.0000 Y194.0553 Z-0.0000 F1080.00
G1 X27.0000 Y194.0553 Z-0.0000 F1080.00
G0 X27.0000 Y194.0553 Z5.0000
G0 X27.0000 Y192.8553 Z5.0000
G0 X27.0000 Y192.8553 Z3.0000
G1 X27.0000 Y192.8553 Z-0.0000 F1080.00
G1 X1.0000 Y192.8553 Z-0.0000 F1080.00
G1 X1.0000 Y192.8553 Z-0.0000 F1080.00
G1 X27.0000 Y192.8553 Z-0.0000 F1080.00
G0 X27.0000 Y192.8553 Z5.0000
G0 X27.0000 Y191.6553 Z5.0000
G0 X27.0000 Y191.6553 Z3.0000
G1 X27.0000 Y191.6553 Z-0.0000 F1080.00
G1 X1.0000 Y191.6553 Z-0.0000 F1080.00
G1 X1.0000 Y191.6553 Z-0.0000 F1080.00
G1 X27.0000 Y191.6553 Z-0.0000 F1080.00
G0 X27.0000 Y191.6553 Z5.0000
G0 X27.0000 Y190.4553 Z5.0000
G0 X27.0000 Y190.4553 Z3.0000
G1 X27.0000 Y190.4553 Z-0.0000 F1080.00
G1 X1.0000 Y190.4553 Z-0.0000 F1080.00
G1 X1.0000 Y190.4553 Z-0.0000 F1080.00
G1 X27.0000 Y190.4553 Z-0.0000 F1080.00
G0 X27.0000 Y190.4553 Z5.0000
G0 X27.0000 Y189.2553 Z5.0000
G0 X27.0000 Y189.2553 Z3.0000
G1 X27.0000 Y189.2553 Z-0.0000 F1080.00
G1 X1.0000 Y189.2553 Z-0.0000 F1080.00
G1 X1.0000 Y189.2553 Z-0.0000 F1080.00
G1 X27.0000 Y189.2553 Z-0.0000 F1080.00
G0 X27.0000 Y189.2553 Z5.0000
G0 X27.0000 Y188.0553 Z5.0000
G0 X27.0000 Y188.0553 Z3.0000
G1 X27.0000 Y188.0553 Z-0.0000 F1080.00
G1 X1.0000 Y188.0553 Z-0.0000 F1080.00
G1 X1.0000 Y188.0553 Z-0.0000 F1080.00
G1 X27.0000 Y188.0553 Z-0.0000 F1080.00
G0 X27.0000 Y188.0553 Z5.0000
G0 X27.0000 Y186.8553 Z5.0000
G0 X27.0000 Y186.8553 Z3.0000
G1 X27.0000 Y186.8553 Z-0.0000 F1080.00
G1 X1.0000 Y186.8553 Z-0.0000 F1080.00
G1 X1.0000 Y186.8553 Z-0.0000 F1080.00
G1 X27.0000 Y186.8553 Z-0.0000 F1080.00
G0 X27.0000 Y186.8553 Z5.0000
G0 X27.0000 Y185.6553 Z5.0000
G0 X27.0000 Y185.6553 Z3.0000
G1 X27.0000 Y185.6553 Z-0.0000 F1080.00
G1 X1.0000 Y185.6553 Z-0.0000 F1080.00
G1 X1.0000 Y185.6553 Z-0.0000 F1080.00
G1 X27.0000 Y185.6553 Z-0.0000 F1080.00
G0 X27.0000 Y185.6553 Z5.0000
G0 X27.0000 Y184.4553 Z5.0000
G0 X27.0000 Y184.4553 Z3.0000
G1 X27.0000 Y184.4553 Z-0.0000 F1080.00
G1 X1.0000 Y184.4553 Z-0.0000 F1080.00
G1 X1.0000 Y184.4553 Z-0.0000 F1080.00
G1 X27.0000 Y184.4553 Z-0.0000 F1080.00
G0 X27.0000 Y184.4553 Z5.0000
G0 X27.0000 Y183.2553 Z5.0000
G0 X27.0000 Y183.2553 Z3.0000
G1 X27.0000 Y183.2553 Z-0.0000 F1080.00
G1 X1.0000 Y183.2553 Z-0.0000 F1080.00
G1 X1.0000 Y183.2553 Z-0.0000 F1080.00
G1 X27.0000 Y183.2553 Z-0.0000 F1080.00
G0 X27.0000 Y183.2553 Z5.0000
G0 X27.0000 Y182.0553 Z5.0000
G0 X27.0000 Y182.0553 Z3.0000
G1 X27.0000 Y182.0553 Z-0.0000 F1080.00
G1 X1.0000 Y182.0553 Z-0.0000 F1080.00
G1 X1.0000 Y182.0553 Z-0.0000 F1080.00
G1 X27.0000 Y182.0553 Z-0.0000 F1080.00
G0 X27.0000 Y182.0553 Z5.0000
G0 X27.0000 Y180.8553 Z5.0000
G0 X27.0000 Y180.8553 Z3.0000
G1 X27.0000 Y180.8553 Z-0.0000 F1080.00
G1 X1.0000 Y180.8553 Z-0.0000 F1080.00
G1 X1.0000 Y180.8553 Z-0.0000 F1080.00
G1 X27.0000 Y180.8553 Z-0.0000 F1080.00
G0 X27.0000 Y180.8553 Z5.0000
G0 X27.0000 Y179.6553 Z5.0000
G0 X27.0000 Y179.6553 Z3.0000
G1 X27.0000 Y179.6553 Z-0.0000 F1080.00
G1 X1.0000 Y179.6553 Z-0.0000 F1080.00
G1 X1.0000 Y179.6553 Z-0.0000 F1080.00
G1 X27.0000 Y179.6553 Z-0.0000 F1080.00
G0 X27.0000 Y179.6553 Z5.0000
G0 X27.0000 Y178.4553 Z5.0000
G0 X27.0000 Y178.4553 Z3.0000
G1 X27.0000 Y178.4553 Z-0.0000 F1080.00
G1 X1.0000 Y178.4553 Z-0.0000 F1080.00
G1 X1.0000 Y178.4553 Z-0.0000 F1080.00
G1 X27.0000 Y178.4553 Z-0.0000 F1080.00
G0 X27.0000 Y178.4553 Z5.0000
G0 X27.0000 Y177.2553 Z5.0000
G0 X27.0000 Y177.2553 Z3.0000
G1 X27.0000 Y177.2553 Z-0.0000 F1080.00
G1 X1.0000 Y177.2553 Z-0.0000 F1080.00
G1 X1.0000 Y177.2553 Z-0.0000 F1080.00
G1 X27.0000 Y177.2553 Z-0.0000 F1080.00
G0 X27.0000 Y177.2553 Z5.0000
G0 X27.0000 Y176.0553 Z5.0000
G0 X27.0000 Y176.0553 Z3.0000
G1 X27.0000 Y176.0553 Z-0.0000 F1080.00
G1 X1.0000 Y176.0553 Z-0.0000 F1080.00
G1 X1.0000 Y176.0553 Z-0.0000 F1080.00
G1 X27.0000 Y176.0553 Z-0.0000 F1080.00
G0 X27.0000 Y176.0553 Z5.0000
G0 X27.0000 Y174.8553 Z5.0000
G0 X27.0000 Y174.8553 Z3.0000
G1 X27.0000 Y174.8553 Z-0.0000 F1080.00
G1 X1.0000 Y174.8553 Z-0.0000 F1080.00
G1 X1.0000 Y174.8553 Z-0.0000 F1080.00
G1 X27.0000 Y174.8553 Z-0.0000 F1080.00
G0 X27.0000 Y174.8553 Z5.0000
G0 X27.0000 Y173.6553 Z5.0000
G0 X27.0000 Y173.6553 Z3.0000
G1 X27.0000 Y173.6553 Z-0.0000 F1080.00
G1 X1.0000 Y173.6553 Z-0.0000 F1080.00
G1 X1.0000 Y173.6553 Z-0.0000 F1080.00
G1 X27.0000 Y173.6553 Z-0.0000 F1080.00
G0 X27.0000 Y173.6553 Z5.0000
G0 X27.0000 Y172.4553 Z5.0000
G0 X27.0000 Y172.4553 Z3.0000
G1 X27.0000 Y172.4553 Z-0.0000 F1080.00
G1 X1.0000 Y172.4553 Z-0.0000 F1080.00
G1 X1.0000 Y172.4553 Z-0.0000 F1080.00
G1 X27.0000 Y172.4553 Z-0.0000 F1080.00
G0 X27.0000 Y172.4553 Z5.0000
G0 X27.0000 Y171.2553 Z5.0000
G0 X27.0000 Y171.2553 Z3.0000
G1 X27.0000 Y171.2553 Z-0.0000 F1080.00
G1 X1.0000 Y171.2553 Z-0.0000 F1080.00
G1 X1.0000 Y171.2553 Z-0.0000 F1080.00
G1 X27.0000 Y171.2553 Z-0.0000 F1080.00
G0 X27.0000 Y171.2553 Z5.0000
G0 X27.0000 Y170.0553 Z5.0000
G0 X27.0000 Y170.0553 Z3.0000
G1 X27.0000 Y170.0553 Z-0.0000 F1080.00
G1 X1.0000 Y170.0553 Z-0.0000 F1080.00
G1 X1.0000 Y170.0553 Z-0.0000 F1080.00
G1 X27.0000 Y170.0553 Z-0.0000 F1080.00
G0 X27.0000 Y170.0553 Z5.0000
G0 X27.0000 Y168.8553 Z5.0000
G0 X27.0000 Y168.8553 Z3.0000
G1 X27.0000 Y168.8553 Z-0.0000 F1080.00
G1 X1.0000 Y168.8553 Z-0.0000 F1080.00
G1 X1.0000 Y168.8553 Z-0.0000 F1080.00
G1 X27.0000 Y168.8553 Z-0.0000 F1080.00
G0 X27.0000 Y168.8553 Z5.0000
G0 X27.0000 Y167.6553 Z5.0000
G0 X27.0000 Y167.6553 Z3.0000
G1 X27.0000 Y167.6553 Z-0.0000 F1080.00
G1 X1.0000 Y167.6553 Z-0.0000 F1080.00
G1 X1.0000 Y167.6553 Z-0.0000 F1080.00
G1 X27.0000 Y167.6553 Z-0.0000 F1080.00
G0 X27.0000 Y167.6553 Z5.0000
G0 X27.0000 Y166.4553 Z5.0000
G0 X27.0000 Y166.4553 Z3.0000
G1 X27.0000 Y166.4553 Z-0.0000 F1080.00
G1 X1.0000 Y166.4553 Z-0.0000 F1080.00
G1 X1.0000 Y166.4553 Z-0.0000 F1080.00
G1 X27.0000 Y166.4553 Z-0.0000 F1080.00
G0 X27.0000 Y166.4553 Z5.0000
G0 X27.0000 Y165.2553 Z5.0000
G0 X27.0000 Y165.2553 Z3.0000
G1 X27.0000 Y165.2553 Z-0.0000 F1080.00
G1 X1.0000 Y165.2553 Z-0.0000 F1080.00
G1 X1.0000 Y165.2553 Z-0.0000 F1080.00
G1 X27.0000 Y165.2553 Z-0.0000 F1080.00
G0 X27.0000 Y165.2553 Z5.0000
G0 X27.0000 Y164.0553 Z5.0000
G0 X27.0000 Y164.0553 Z3.0000
G1 X27.0000 Y164.0553 Z-0.0000 F1080.00
G1 X1.0000 Y164.0553 Z-0.0000 F1080.00
G1 X1.0000 Y164.0553 Z-0.0000 F1080.00
G1 X27.0000 Y164.0553 Z-0.0000 F1080.00
G0 X27.0000 Y164.0553 Z5.0000
G0 X27.0000 Y162.8553 Z5.0000
G0 X27.0000 Y162.8553 Z3.0000
G1 X27.0000 Y162.8553 Z-0.0000 F1080.00
G1 X1.0000 Y162.8553 Z-0.0000 F1080.00
G1 X1.0000 Y162.8553 Z-0.0000 F1080.00
G1 X27.0000 Y162.8553 Z-0.0000 F1080.00
G0 X27.0000 Y162.8553 Z5.0000
G0 X27.0000 Y161.6553 Z5.0000
G0 X27.0000 Y161.6553 Z3.0000
G1 X27.0000 Y161.6553 Z-0.0000 F1080.00
G1 X1.0000 Y161.6553 Z-0.0000 F1080.00
G1 X1.0000 Y161.6553 Z-0.0000 F1080.00
G1 X27.0000 Y161.6553 Z-0.0000 F1080.00
G0 X27.0000 Y161.6553 Z5.0000
G0 X27.0000 Y160.4553 Z5.0000
G0 X27.0000 Y160.4553 Z3.0000
G1 X27.0000 Y160.4553 Z-0.0000 F1080.00
G1 X1.0000 Y160.4553 Z-0.0000 F1080.00
G1 X1.0000 Y160.4553 Z-0.0000 F1080.00
G1 X27.0000 Y160.4553 Z-0.0000 F1080.00
G0 X27.0000 Y160.4553 Z5.0000
G0 X27.0000 Y159.2553 Z5.0000
G0 X27.0000 Y159.2553 Z3.0000
G1 X27.0000 Y159.2553 Z-0.0000 F1080.00
G1 X1.0000 Y159.2553 Z-0.0000 F1080.00
G1 X1.0000 Y159.2553 Z-0.0000 F1080.00
G1 X27.0000 Y159.2553 Z-0.0000 F1080.00
G0 X27.0000 Y159.2553 Z5.0000
G0 X27.0000 Y158.0553 Z5.0000
G0 X27.0000 Y158.0553 Z3.0000
G1 X27.0000 Y158.0553 Z-0.0000 F1080.00
G1 X1.0000 Y158.0553 Z-0.0000 F1080.00
G1 X1.0000 Y158.0553 Z-0.0000 F1080.00
G1 X27.0000 Y158.0553 Z-0.0000 F1080.00
G0 X27.0000 Y158.0553 Z5.0000
G0 X27.0000 Y156.8553 Z5.0000
G0 X27.0000 Y156.8553 Z3.0000
G1 X27.0000 Y156.8553 Z-0.0000 F1080.00
G1 X1.0000 Y156.8553 Z-0.0000 F1080.00
G1 X1.0000 Y156.8553 Z-0.0000 F1080.00
G1 X27.0000 Y156.8553 Z-0.0000 F1080.00
G0 X27.0000 Y156.8553 Z5.0000
G0 X27.0000 Y155.6553 Z5.0000
G0 X27.0000 Y155.6553 Z3.0000
G1 X27.0000 Y155.6553 Z-0.0000 F1080.00
G1 X1.0000 Y155.6553 Z-0.0000 F1080.00
G1 X1.0000 Y155.6553 Z-0.0000 F1080.00
G1 X27.0000 Y155.6553 Z-0.0000 F1080.00
G0 X27.0000 Y155.6553 Z5.0000
G0 X27.0000 Y154.4553 Z5.0000
G0 X27.0000 Y154.4553 Z3.0000
G1 X27.0000 Y154.4553 Z-0.0000 F1080.00
G1 X1.0000 Y154.4553 Z-0.0000 F1080.00
G1 X1.0000 Y154.4553 Z-0.0000 F1080.00
G1 X27.0000 Y154.4553 Z-0.0000 F1080.00
G0 X27.0000 Y154.4553 Z5.0000
G0 X27.0000 Y153.2553 Z5.0000
G0 X27.0000 Y153.2553 Z3.0000
G1 X27.0000 Y153.2553 Z-0.0000 F1080.00
G1 X1.0000 Y153.2553 Z-0.0000 F1080.00
G1 X1.0000 Y153.2553 Z-0.0000 F1080.00
G1 X27.0000 Y153.2553 Z-0.0000 F1080.00
G0 X27.0000 Y153.2553 Z5.0000
G0 X27.0000 Y152.0553 Z5.0000
G0 X27.0000 Y152.0553 Z3.0000
G1 X27.0000 Y152.0553 Z-0.0000 F1080.00
G1 X1.0000 Y152.0553 Z-0.0000 F1080.00
G1 X1.0000 Y152.0553 Z-0.0000 F1080.00
G1 X27.0000 Y152.0553 Z-0.0000 F1080.00
G0 X27.0000 Y152.0553 Z5.0000
G0 X27.0000 Y150.8553 Z5.0000
G0 X27.0000 Y150.8553 Z3.0000
G1 X27.0000 Y150.8553 Z-0.0000 F1080.00
G1 X1.0000 Y150.8553 Z-0.0000 F1080.00
G1 X1.0000 Y150.8553 Z-0.0000 F1080.00
G1 X27.0000 Y150.8553 Z-0.0000 F1080.00
G0 X27.0000 Y150.8553 Z5.0000
G0 X27.0000 Y149.6553 Z5.0000
G0 X27.0000 Y149.6553 Z3.0000
G1 X27.0000 Y149.6553 Z-0.0000 F1080.00
G1 X1.0000 Y149.6553 Z-0.0000 F1080.00
G1 X1.0000 Y149.6553 Z-0.0000 F1080.00
G1 X27.0000 Y149.6553 Z-0.0000 F1080.00
G0 X27.0000 Y149.6553 Z5.0000
G0 X27.0000 Y148.4553 Z5.0000
G0 X27.0000 Y148.4553 Z3.0000
G1 X27.0000 Y148.4553 Z-0.0000 F1080.00
G1 X1.0000 Y148.4553 Z-0.0000 F1080.00
G1 X1.0000 Y148.4553 Z-0.0000 F1080.00
G1 X27.0000 Y148.4553 Z-0.0000 F1080.00
G0 X27.0000 Y148.4553 Z5.0000
G0 X27.0000 Y147.2553 Z5.0000
G0 X27.0000 Y147.2553 Z3.0000
G1 X27.0000 Y147.2553 Z-0.0000 F1080.00
G1 X1.0000 Y147.2553 Z-0.0000 F1080.00
G1 X1.0000 Y147.2553 Z-0.0000 F1080.00
G1 X27.0000 Y147.2553 Z-0.0000 F1080.00
G0 X27.0000 Y147.2553 Z5.0000
G0 X27.0000 Y146.0553 Z5.0000
G0 X27.0000 Y146.0553 Z3.0000
G1 X27.0000 Y146.0553 Z-0.0000 F1080.00
G1 X1.0000 Y146.0553 Z-0.0000 F1080.00
G1 X1.0000 Y146.0553 Z-0.0000 F1080.00
G1 X27.0000 Y146.0553 Z-0.0000 F1080.00
G0 X27.0000 Y146.0553 Z5.0000
G0 X27.0000 Y144.8553 Z5.0000
G0 X27.0000 Y144.8553 Z3.0000
G1 X27.0000 Y144.8553 Z-0.0000 F1080.00
G1 X1.0000 Y144.8553 Z-0.0000 F1080.00
G1 X1.0000 Y144.8553 Z-0.0000 F1080.00
G1 X27.0000 Y144.8553 Z-0.0000 F1080.00
G0 X27.0000 Y144.8553 Z5.0000
G0 X27.0000 Y143.6553 Z5.0000
G0 X27.0000 Y143.6553 Z3.0000
G1 X27.0000 Y143.6553 Z-0.0000 F1080.00
G1 X1.0000 Y143.6553 Z-0.0000 F1080.00
G1 X1.0000 Y143.6553 Z-0.0000 F1080.00
G1 X27.0000 Y143.6553 Z-0.0000 F1080.00
G0 X27.0000 Y143.6553 Z5.0000
G0 X27.0000 Y142.4553 Z5.0000
G0 X27.0000 Y142.4553 Z3.0000
G1 X27.0000 Y142.4553 Z-0.0000 F1080.00
G1 X1.0000 Y142.4553 Z-0.0000 F1080.00
G1 X1.0000 Y142.4553 Z-0.0000 F1080.00
G1 X27.0000 Y142.4553 Z-0.0000 F1080.00
G0 X27.0000 Y142.4553 Z5.0000
G0 X27.0000 Y141.2553 Z5.0000
G0 X27.0000 Y141.2553 Z3.0000
G1 X27.0000 Y141.2553 Z-0.0000 F1080.00
G1 X1.0000 Y141.2553 Z-0.0000 F1080.00
G1 X1.0000 Y141.2553 Z-0.0000 F1080.00
G1 X27.0000 Y141.2553 Z-0.0000 F1080.00
G0 X27.0000 Y141.2553 Z5.0000
G0 X27.0000 Y140.0553 Z5.0000
G0 X27.0000 Y140.0553 Z3.0000
G1 X27.0000 Y140.0553 Z-0.0000 F1080.00
G1 X1.0000 Y140.0553 Z-0.0000 F1080.00
G1 X1.0000 Y140.0553 Z-0.0000 F1080.00
G1 X27.0000 Y140.0553 Z-0.0000 F1080.00
G0 X27.0000 Y140.0553 Z5.0000
G0 X27.0000 Y138.8553 Z5.0000
G0 X27.0000 Y138.8553 Z3.0000
G1 X27.0000 Y138.8553 Z-0.0000 F1080.00
G1 X1.0000 Y138.8553 Z-0.0000 F1080.00
G1 X1.0000 Y138.8553 Z-0.0000 F1080.00
G1 X27.0000 Y138.8553 Z-0.0000 F1080.00
G0 X27.0000 Y138.8553 Z5.0000
G0 X27.0000 Y137.6553 Z5.0000
G0 X27.0000 Y137.6553 Z3.0000
G1 X27.0000 Y137.6553 Z-0.0000 F1080.00
G1 X1.0000 Y137.6553 Z-0.0000 F1080.00
G1 X1.0000 Y137.6553 Z-0.0000 F1080.00
G1 X27.0000 Y137.6553 Z-0.0000 F1080.00
G0 X27.0000 Y137.6553 Z5.0000
G0 X27.0000 Y136.4553 Z5.0000
G0 X27.0000 Y136.4553 Z3.0000
G1 X27.0000 Y136.4553 Z-0.0000 F1080.00
G1 X1.0000 Y136.4553 Z-0.0000 F1080.00
G1 X1.0000 Y136.4553 Z-0.0000 F1080.00
G1 X27.0000 Y136.4553 Z-0.0000 F1080.00
G0 X27.0000 Y136.4553 Z5.0000
G0 X27.0000 Y135.2553 Z5.0000
G0 X27.0000 Y135.2553 Z3.0000
G1 X27.0000 Y135.2553 Z-0.0000 F1080.00
G1 X1.0000 Y135.2553 Z-0.0000 F1080.00
G1 X1.0000 Y135.2553 Z-0.0000 F1080.00
G1 X27.0000 Y135.2553 Z-0.0000 F1080.00
G0 X27.0000 Y135.2553 Z5.0000
G0 X27.0000 Y134.0553 Z5.0000
G0 X27.0000 Y134.0553 Z3.0000
G1 X27.0000 Y134.0553 Z-0.0000 F1080.00
G1 X1.0000 Y134.0553 Z-0.0000 F1080.00
G1 X1.0000 Y134.0553 Z-0.0000 F1080.00
G1 X27.0000 Y134.0553 Z-0.0000 F1080.00
G0 X27.0000 Y134.0553 Z5.0000
G0 X27.0000 Y132.8553 Z5.0000
G0 X27.0000 Y132.8553 Z3.0000
G1 X27.0000 Y132.8553 Z-0.0000 F1080.00
G1 X1.0000 Y132.8553 Z-0.0000 F1080.00
G1 X1.0000 Y132.8553 Z-0.0000 F1080.00
G1 X27.0000 Y132.8553 Z-0.0000 F1080.00
G0 X27.0000 Y132.8553 Z5.0000
G0 X27.0000 Y131.6553 Z5.0000
G0 X27.0000 Y131.6553 Z3.0000
G1 X27.0000 Y131.6553 Z-0.0000 F1080.00
G1 X1.0000 Y131.6553 Z-0.0000 F1080.00
G1 X1.0000 Y131.6553 Z-0.0000 F1080.00
G1 X27.0000 Y131.6553 Z-0.0000 F1080.00
G0 X27.0000 Y131.6553 Z5.0000
G0 X27.0000 Y130.4553 Z5.0000
G0 X27.0000 Y130.4553 Z3.0000
G1 X27.0000 Y130.4553 Z-0.0000 F1080.00
G1 X1.0000 Y130.4553 Z-0.0000 F1080.00
G1 X1.0000 Y130.4553 Z-0.0000 F1080.00
G1 X27.0000 Y130.4553 Z-0.0000 F1080.00
G0 X27.0000 Y130.4553 Z5.0000
G0 X27.0000 Y129.2553 Z5.0000
G0 X27.0000 Y129.2553 Z3.0000
G1 X27.0000 Y129.2553 Z-0.0000 F1080.00
G1 X1.0000 Y129.2553 Z-0.0000 F1080.00
G1 X1.0000 Y129.2553 Z-0.0000 F1080.00
G1 X27.0000 Y129.2553 Z-0.0000 F1080.00
G0 X27.0000 Y129.2553 Z5.0000
G0 X27.0000 Y128.0553 Z5.0000
G0 X27.0000 Y128.0553 Z3.0000
G1 X27.0000 Y128.0553 Z-0.0000 F1080.00
G1 X1.0000 Y128.0553 Z-0.0000 F1080.00
G1 X1.0000 Y128.0553 Z-0.0000 F1080.00
G1 X27.0000 Y128.0553 Z-0.0000 F1080.00
G0 X27.0000 Y128.0553 Z5.0000
G0 X27.0000 Y126.8553 Z5.0000
G0 X27.0000 Y126.8553 Z3.0000
G1 X27.0000 Y126.8553 Z-0.0000 F1080.00
G1 X1.0000 Y126.8553 Z-0.0000 F1080.00
G1 X1.0000 Y126.8553 Z-0.0000 F1080.00
G1 X27.0000 Y126.8553 Z-0.0000 F1080.00
G0 X27.0000 Y126.8553 Z5.0000
G0 X27.0000 Y125.6553 Z5.0000
G0 X27.0000 Y125.6553 Z3.0000
G1 X27.0000 Y125.6553 Z-0.0000 F1080.00
G1 X1.0000 Y125.6553 Z-0.0000 F1080.00
G1 X1.0000 Y125.6553 Z-0.0000 F1080.00
G1 X27.0000 Y125.6553 Z-0.0000 F1080.00
G0 X27.0000 Y125.6553 Z5.0000
G0 X27.0000 Y124.4553 Z5.0000
G0 X27.0000 Y124.4553 Z3.0000
G1 X27.0000 Y124.4553 Z-0.0000 F1080.00
G1 X1.0000 Y124.4553 Z-0.0000 F1080.00
G1 X1.0000 Y124.4553 Z-0.0000 F1080.00
G1 X27.0000 Y124.4553 Z-0.0000 F1080.00
G0 X27.0000 Y124.4553 Z5.0000
G0 X27.0000 Y123.2553 Z5.0000
G0 X27.0000 Y123.2553 Z3.0000
G1 X27.0000 Y123.2553 Z-0.0000 F1080.00
G1 X1.0000 Y123.2553 Z-0.0000 F1080.00
G1 X1.0000 Y123.2553 Z-0.0000 F1080.00
G1 X27.0000 Y123.2553 Z-0.0000 F1080.00
G0 X27.0000 Y123.2553 Z5.0000
G0 X27.0000 Y122.0553 Z5.0000
G0 X27.0000 Y122.0553 Z3.0000
G1 X27.0000 Y122.0553 Z-0.0000 F1080.00
G1 X1.0000 Y122.0553 Z-0.0000 F1080.00
G1 X1.0000 Y122.0553 Z-0.0000 F1080.00
G1 X27.0000 Y122.0553 Z-0.0000 F1080.00
G0 X27.0000 Y122.0553 Z5.0000
G0 X27.0000 Y120.8553 Z5.0000
G0 X27.0000 Y120.8553 Z3.0000
G1 X27.0000 Y120.8553 Z-0.0000 F1080.00
G1 X1.0000 Y120.8553 Z-0.0000 F1080.00
G1 X1.0000 Y120.8553 Z-0.0000 F1080.00
G1 X27.0000 Y120.8553 Z-0.0000 F1080.00
G0 X27.0000 Y120.8553 Z5.0000
G0 X27.0000 Y119.6553 Z5.0000
G0 X27.0000 Y119.6553 Z3.0000
G1 X27.0000 Y119.6553 Z-0.0000 F1080.00
G1 X1.0000 Y119.6553 Z-0.0000 F1080.00
G1 X1.0000 Y119.6553 Z-0.0000 F1080.00
G1 X27.0000 Y119.6553 Z-0.0000 F1080.00
G0 X27.0000 Y119.6553 Z5.0000
G0 X27.0000 Y118.4553 Z5.0000
G0 X27.0000 Y118.4553 Z3.0000
G1 X27.0000 Y118.4553 Z-0.0000 F1080.00
G1 X1.0000 Y118.4553 Z-0.0000 F1080.00
G1 X1.0000 Y118.4553 Z-0.0000 F1080.00
G1 X27.0000 Y118.4553 Z-0.0000 F1080.00
G0 X27.0000 Y118.4553 Z5.0000
G0 X27.0000 Y117.2553 Z5.0000
G0 X27.0000 Y117.2553 Z3.0000
G1 X27.0000 Y117.2553 Z-0.0000 F1080.00
G1 X1.0000 Y117.2553 Z-0.0000 F1080.00
G1 X1.0000 Y117.2553 Z-0.0000 F1080.00
G1 X27.0000 Y117.2553 Z-0.0000 F1080.00
G0 X27.0000 Y117.2553 Z5.0000
G0 X27.0000 Y116.0553 Z5.0000
G0 X27.0000 Y116.0553 Z3.0000
G1 X27.0000 Y116.0553 Z-0.0000 F1080.00
G1 X1.0000 Y116.0553 Z-0.0000 F1080.00
G1 X1.0000 Y116.0553 Z-0.0000 F1080.00
G1 X27.0000 Y116.0553 Z-0.0000 F1080.00
G0 X27.0000 Y116.0553 Z5.0000
G0 X27.0000 Y114.8553 Z5.0000
G0 X27.0000 Y114.8553 Z3.0000
G1 X27.0000 Y114.8553 Z-0.0000 F1080.00
G1 X1.0000 Y114.8553 Z-0.0000 F1080.00
G1 X1.0000 Y114.8553 Z-0.0000 F1080.00
G1 X27.0000 Y114.8553 Z-0.0000 F1080.00
G0 X27.0000 Y114.8553 Z5.0000
G0 X27.0000 Y113.6553 Z5.0000
G0 X27.0000 Y113.6553 Z3.0000
G1 X27.0000 Y113.6553 Z-0.0000 F1080.00
G1 X1.0000 Y113.6553 Z-0.0000 F1080.00
G1 X1.0000 Y113.6553 Z-0.0000 F1080.00
G1 X27.0000 Y113.6553 Z-0.0000 F1080.00
G0 X27.0000 Y113.6553 Z5.0000
G0 X27.0000 Y112.4553 Z5.0000
G0 X27.0000 Y112.4553 Z3.0000
G1 X27.0000 Y112.4553 Z-0.0000 F1080.00
G1 X1.0000 Y112.4553 Z-0.0000 F1080.00
G1 X1.0000 Y112.4553 Z-0.0000 F1080.00
G1 X27.0000 Y112.4553 Z-0.0000 F1080.00
G0 X27.0000 Y112.4553 Z5.0000
G0 X27.0000 Y111.2553 Z5.0000
G0 X27.0000 Y111.2553 Z3.0000
G1 X27.0000 Y111.2553 Z-0.0000 F1080.00
G1 X1.0000 Y111.2553 Z-0.0000 F1080.00
G1 X1.0000 Y111.2553 Z-0.0000 F1080.00
G1 X27.0000 Y111.2553 Z-0.0000 F1080.00
G0 X27.0000 Y111.2553 Z5.0000
G0 X27.0000 Y110.0553 Z5.0000
G0 X27.0000 Y110.0553 Z3.0000
G1 X27.0000 Y110.0553 Z-0.0000 F1080.00
G1 X1.0000 Y110.0553 Z-0.0000 F1080.00
G1 X1.0000 Y110.0553 Z-0.0000 F1080.00
G1 X27.0000 Y110.0553 Z-0.0000 F1080.00
G0 X27.0000 Y110.0553 Z5.0000
G0 X27.0000 Y108.8553 Z5.0000
G0 X27.0000 Y108.8553 Z3.0000
G1 X27.0000 Y108.8553 Z-0.0000 F1080.00
G1 X1.0000 Y108.8553 Z-0.0000 F1080.00
G1 X1.0000 Y108.8553 Z-0.0000 F1080.00
G1 X27.0000 Y108.8553 Z-0.0000 F1080.00
G0 X27.0000 Y108.8553 Z5.0000
G0 X27.0000 Y107.6553 Z5.0000
G0 X27.0000 Y107.6553 Z3.0000
G1 X27.0000 Y107.6553 Z-0.0000 F1080.00
G1 X1.0000 Y107.6553 Z-0.0000 F1080.00
G1 X1.0000 Y107.6553 Z-0.0000 F1080.00
G1 X27.0000 Y107.6553 Z-0.0000 F1080.00
G0 X27.0000 Y107.6553 Z5.0000
G0 X27.0000 Y106.4553 Z5.0000
G0 X27.0000 Y106.4553 Z3.0000
G1 X27.0000 Y106.4553 Z-0.0000 F1080.00
G1 X1.0000 Y106.4553 Z-0.0000 F1080.00
G1 X1.0000 Y106.4553 Z-0.0000 F1080.00
G1 X27.0000 Y106.4553 Z-0.0000 F1080.00
G0 X27.0000 Y106.4553 Z5.0000
G0 X27.0000 Y105.2553 Z5.0000
G0 X27.0000 Y105.2553 Z3.0000
G1 X27.0000 Y105.2553 Z-0.0000 F1080.00
G1 X1.0000 Y105.2553 Z-0.0000 F1080.00
G1 X1.0000 Y105.2553 Z-0.0000 F1080.00
G1 X27.0000 Y105.2553 Z-0.0000 F1080.00
G0 X27.0000 Y105.2553 Z5.0000
G0 X27.0000 Y104.0553 Z5.0000
G0 X27.0000 Y104.0553 Z3.0000
G1 X27.0000 Y104.0553 Z-0.0000 F1080.00
G1 X1.0000 Y104.0553 Z-0.0000 F1080.00
G1 X1.0000 Y104.0553 Z-0.0000 F1080.00
G1 X27.0000 Y104.0553 Z-0.0000 F1080.00
G0 X27.0000 Y104.0553 Z5.0000
G0 X27.0000 Y102.8553 Z5.0000
G0 X27.0000 Y102.8553 Z3.0000
G1 X27.0000 Y102.8553 Z-0.0000 F1080.00
G1 X1.0000 Y102.8553 Z-0.0000 F1080.00
G1 X1.0000 Y102.8553 Z-0.0000 F1080.00
G1 X27.0000 Y102.8553 Z-0.0000 F1080.00
G0 X27.0000 Y102.8553 Z5.0000
G0 X27.0000 Y101.6553 Z5.0000
G0 X27.0000 Y101.6553 Z3.0000
G1 X27.0000 Y101.6553 Z-0.0000 F1080.00
G1 X1.0000 Y101.6553 Z-0.0000 F1080.00
G1 X1.0000 Y101.6553 Z-0.0000 F1080.00
G1 X27.0000 Y101.6553 Z-0.0000 F1080.00
G0 X27.0000 Y101.6553 Z5.0000
G0 X27.0000 Y100.4553 Z5.0000
G0 X27.0000 Y100.4553 Z3.0000
G1 X27.0000 Y100.4553 Z-0.0000 F1080.00
G1 X1.0000 Y100.4553 Z-0.0000 F1080.00
G1 X1.0000 Y100.4553 Z-0.0000 F1080.00
G1 X27.0000 Y100.4553 Z-0.0000 F1080.00
G0 X27.0000 Y100.4553 Z5.0000
G0 X27.0000 Y99.2553 Z5.0000
G0 X27.0000 Y99.2553 Z3.0000
G1 X27.0000 Y99.2553 Z-0.0000 F1080.00
G1 X1.0000 Y99.2553 Z-0.0000 F1080.00
G1 X1.0000 Y99.2553 Z-0.0000 F1080.00
G1 X27.0000 Y99.2553 Z-0.0000 F1080.00
G0 X27.0000 Y99.2553 Z5.0000
G0 X27.0000 Y98.0553 Z5.0000
G0 X27.0000 Y98.0553 Z3.0000
G1 X27.0000 Y98.0553 Z-0.0000 F1080.00
G1 X1.0000 Y98.0553 Z-0.0000 F1080.00
G1 X1.0000 Y98.0553 Z-0.0000 F1080.00
G1 X27.0000 Y98.0553 Z-0.0000 F1080.00
G0 X27.0000 Y98.0553 Z5.0000
G0 X27.0000 Y96.8553 Z5.0000
G0 X27.0000 Y96.8553 Z3.0000
G1 X27.0000 Y96.8553 Z-0.0000 F1080.00
G1 X1.0000 Y96.8553 Z-0.0000 F1080.00
G1 X1.0000 Y96.8553 Z-0.0000 F1080.00
G1 X27.0000 Y96.8553 Z-0.0000 F1080.00
G0 X27.0000 Y96.8553 Z5.0000
G0 X27.0000 Y95.6553 Z5.0000
G0 X27.0000 Y95.6553 Z3.0000
G1 X27.0000 Y95.6553 Z-0.0000 F1080.00
G1 X1.0000 Y95.6553 Z-0.0000 F1080.00
G1 X1.0000 Y95.6553 Z-0.0000 F1080.00
G1 X27.0000 Y95.6553 Z-0.0000 F1080.00
G0 X27.0000 Y95.6553 Z5.0000
G0 X27.0000 Y94.4553 Z5.0000
G0 X27.0000 Y94.4553 Z3.0000
G1 X27.0000 Y94.4553 Z-0.0000 F1080.00
G1 X1.0000 Y94.4553 Z-0.0000 F1080.00
G1 X1.0000 Y94.4553 Z-0.0000 F1080.00
G1 X27.0000 Y94.4553 Z-0.0000 F1080.00
G0 X27.0000 Y94.4553 Z5.0000
G0 X27.0000 Y93.2553 Z5.0000
G0 X27.0000 Y93.2553 Z3.0000
G1 X27.0000 Y93.2553 Z-0.0000 F1080.00
G1 X1.0000 Y93.2553 Z-0.0000 F1080.00
G1 X1.0000 Y93.2553 Z-0.0000 F1080.00
G1 X27.0000 Y93.2553 Z-0.0000 F1080.00
G0 X27.0000 Y93.2553 Z5.0000
G0 X27.0000 Y92.0553 Z5.0000
G0 X27.0000 Y92.0553 Z3.0000
G1 X27.0000 Y92.0553 Z-0.0000 F1080.00
G1 X1.0000 Y92.0553 Z-0.0000 F1080.00
G1 X1.0000 Y92.0553 Z-0.0000 F1080.00
G1 X27.0000 Y92.0553 Z-0.0000 F1080.00
G0 X27.0000 Y92.0553 Z5.0000
G0 X27.0000 Y90.8553 Z5.0000
G0 X27.0000 Y90.8553 Z3.0000
G1 X27.0000 Y90.8553 Z-0.0000 F1080.00
G1 X1.0000 Y90.8553 Z-0.0000 F1080.00
G1 X1.0000 Y90.8553 Z-0.0000 F1080.00
G1 X27.0000 Y90.8553 Z-0.0000 F1080.00
G0 X27.0000 Y90.8553 Z5.0000
G0 X27.0000 Y89.6553 Z5.0000
G0 X27.0000 Y89.6553 Z3.0000
G1 X27.0000 Y89.6553 Z-0.0000 F1080.00
G1 X1.0000 Y89.6553 Z-0.0000 F1080.00
G1 X1.0000 Y89.6553 Z-0.0000 F1080.00
G1 X27.0000 Y89.6553 Z-0.0000 F1080.00
G0 X27.0000 Y89.6553 Z5.0000
G0 X27.0000 Y88.4553 Z5.0000
G0 X27.0000 Y88.4553 Z3.0000
G1 X27.0000 Y88.4553 Z-0.0000 F1080.00
G1 X1.0000 Y88.4553 Z-0.0000 F1080.00
G1 X1.0000 Y88.4553 Z-0.0000 F1080.00
G1 X27.0000 Y88.4553 Z-0.0000 F1080.00
G0 X27.0000 Y88.4553 Z5.0000
G0 X27.0000 Y87.2553 Z5.0000
G0 X27.0000 Y87.2553 Z3.0000
G1 X27.0000 Y87.2553 Z-0.0000 F1080.00
G1 X1.0000 Y87.2553 Z-0.0000 F1080.00
G1 X1.0000 Y87.2553 Z-0.0000 F1080.00
G1 X27.0000 Y87.2553 Z-0.0000 F1080.00
G0 X27.0000 Y87.2553 Z5.0000
G0 X27.0000 Y86.0553 Z5.0000
G0 X27.0000 Y86.0553 Z3.0000
G1 X27.0000 Y86.0553 Z-0.0000 F1080.00
G1 X1.0000 Y86.0553 Z-0.0000 F1080.00
G1 X1.0000 Y86.0553 Z-0.0000 F1080.00
G1 X27.0000 Y86.0553 Z-0.0000 F1080.00
G0 X27.0000 Y86.0553 Z5.0000
G0 X27.0000 Y84.8553 Z5.0000
G0 X27.0000 Y84.8553 Z3.0000
G1 X27.0000 Y84.8553 Z-0.0000 F1080.00
G1 X1.0000 Y84.8553 Z-0.0000 F1080.00
G1 X1.0000 Y84.8553 Z-0.0000 F1080.00
G1 X27.0000 Y84.8553 Z-0.0000 F1080.00
G0 X27.0000 Y84.8553 Z5.0000
G0 X27.0000 Y83.6553 Z5.0000
G0 X27.0000 Y83.6553 Z3.0000
G1 X27.0000 Y83.6553 Z-0.0000 F1080.00
G1 X1.0000 Y83.6553 Z-0.0000 F1080.00
G1 X1.0000 Y83.6553 Z-0.0000 F1080.00
G1 X27.0000 Y83.6553 Z-0.0000 F1080.00
G0 X27.0000 Y83.6553 Z5.0000
G0 X27.0000 Y82.4553 Z5.0000
G0 X27.0000 Y82.4553 Z3.0000
G1 X27.0000 Y82.4553 Z-0.0000 F1080.00
G1 X1.0000 Y82.4553 Z-0.0000 F1080.00
G1 X1.0000 Y82.4553 Z-0.0000 F1080.00
G1 X27.0000 Y82.4553 Z-0.0000 F1080.00
G0 X27.0000 Y82.4553 Z5.0000
G0 X27.0000 Y81.2553 Z5.0000
G0 X27.0000 Y81.2553 Z3.0000
G1 X27.0000 Y81.2553 Z-0.0000 F1080.00
G1 X1.0000 Y81.2553 Z-0.0000 F1080.00
G1 X1.0000 Y81.2553 Z-0.0000 F1080.00
G1 X27.0000 Y81.2553 Z-0.0000 F1080.00
G0 X27.0000 Y81.2553 Z5.0000
G0 X27.0000 Y80.0553 Z5.0000
G0 X27.0000 Y80.0553 Z3.0000
G1 X27.0000 Y80.0553 Z-0.0000 F1080.00
G1 X1.0000 Y80.0553 Z-0.0000 F1080.00
G1 X1.0000 Y80.0553 Z-0.0000 F1080.00
G1 X27.0000 Y80.0553 Z-0.0000 F1080.00
G0 X27.0000 Y80.0553 Z5.0000
G0 X27.0000 Y78.8553 Z5.0000
G0 X27.0000 Y78.8553 Z3.0000
G1 X27.0000 Y78.8553 Z-0.0000 F1080.00
G1 X1.0000 Y78.8553 Z-0.0000 F1080.00
G1 X1.0000 Y78.8553 Z-0.0000 F1080.00
G1 X27.0000 Y78.8553 Z-0.0000 F1080.00
G0 X27.0000 Y78.8553 Z5.0000
G0 X27.0000 Y77.6553 Z5.0000
G0 X27.0000 Y77.6553 Z3.0000
G1 X27.0000 Y77.6553 Z-0.0000 F1080.00
G1 X1.0000 Y77.6553 Z-0.0000 F1080.00
G1 X1.0000 Y77.6553 Z-0.0000 F1080.00
G1 X27.0000 Y77.6553 Z-0.0000 F1080.00
G0 X27.0000 Y77.6553 Z5.0000
G0 X27.0000 Y76.4553 Z5.0000
G0 X27.0000 Y76.4553 Z3.0000
G1 X27.0000 Y76.4553 Z-0.0000 F1080.00
G1 X1.0000 Y76.4553 Z-0.0000 F1080.00
G1 X1.0000 Y76.4553 Z-0.0000 F1080.00
G1 X27.0000 Y76.4553 Z-0.0000 F1080.00
G0 X27.0000 Y76.4553 Z5.0000
G0 X27.0000 Y75.2553 Z5.0000
G0 X27.0000 Y75.2553 Z3.0000
G1 X27.0000 Y75.2553 Z-0.0000 F1080.00
G1 X1.0000 Y75.2553 Z-0.0000 F1080.00
G1 X1.0000 Y75.2553 Z-0.0000 F1080.00
G1 X27.0000 Y75.2553 Z-0.0000 F1080.00
G0 X27.0000 Y75.2553 Z5.0000
G0 X27.0000 Y74.0553 Z5.0000
G0 X27.0000 Y74.0553 Z3.0000
G1 X27.0000 Y74.0553 Z-0.0000 F1080.00
G1 X1.0000 Y74.0553 Z-0.0000 F1080.00
G1 X1.0000 Y74.0553 Z-0.0000 F1080.00
G1 X27.0000 Y74.0553 Z-0.0000 F1080.00
G0 X27.0000 Y74.0553 Z5.0000
G0 X27.0000 Y72.8553 Z5.0000
G0 X27.0000 Y72.8553 Z3.0000
G1 X27.0000 Y72.8553 Z-0.0000 F1080.00
G1 X1.0000 Y72.8553 Z-0.0000 F1080.00
G1 X1.0000 Y72.8553 Z-0.0000 F1080.00
G1 X27.0000 Y72.8553 Z-0.0000 F1080.00
G0 X27.0000 Y72.8553 Z5.0000
G0 X27.0000 Y71.6553 Z5.0000
G0 X27.0000 Y71.6553 Z3.0000
G1 X27.0000 Y71.6553 Z-0.0000 F1080.00
G1 X1.0000 Y71.6553 Z-0.0000 F1080.00
G1 X1.0000 Y71.6553 Z-0.0000 F1080.00
G1 X27.0000 Y71.6553 Z-0.0000 F1080.00
G0 X27.0000 Y71.6553 Z5.0000
G0 X27.0000 Y70.4553 Z5.0000
G0 X27.0000 Y70.4553 Z3.0000
G1 X27.0000 Y70.4553 Z-0.0000 F1080.00
G1 X1.0000 Y70.4553 Z-0.0000 F1080.00
G1 X1.0000 Y70.4553 Z-0.0000 F1080.00
G1 X27.0000 Y70.4553 Z-0.0000 F1080.00
G0 X27.0000 Y70.4553 Z5.0000
G0 X27.0000 Y69.2553 Z5.0000
G0 X27.0000 Y69.2553 Z3.0000
G1 X27.0000 Y69.2553 Z-0.0000 F1080.00
G1 X1.0000 Y69.2553 Z-0.0000 F1080.00
G1 X1.0000 Y69.2553 Z-0.0000 F1080.00
G1 X27.0000 Y69.2553 Z-0.0000 F1080.00
G0 X27.0000 Y69.2553 Z5.0000
G0 X27.0000 Y68.0553 Z5.0000
G0 X27.0000 Y68.0553 Z3.0000
G1 X27.0000 Y68.0553 Z-0.0000 F1080.00
G1 X1.0000 Y68.0553 Z-0.0000 F1080.00
G1 X1.0000 Y68.0553 Z-0.0000 F1080.00
G1 X27.0000 Y68.0553 Z-0.0000 F1080.00
G0 X27.0000 Y68.0553 Z5.0000
G0 X27.0000 Y66.8553 Z5.0000
G0 X27.0000 Y66.8553 Z3.0000
G1 X27.0000 Y66.8553 Z-0.0000 F1080.00
G1 X1.0000 Y66.8553 Z-0.0000 F1080.00
G1 X1.0000 Y66.8553 Z-0.0000 F1080.00
G1 X27.0000 Y66.8553 Z-0.0000 F1080.00
G0 X27.0000 Y66.8553 Z5.0000
G0 X27.0000 Y65.6553 Z5.0000
G0 X27.0000 Y65.6553 Z3.0000
G1 X27.0000 Y65.6553 Z-0.0000 F1080.00
G1 X1.0000 Y65.6553 Z-0.0000 F1080.00
G1 X1.0000 Y65.6553 Z-0.0000 F1080.00
G1 X27.0000 Y65.6553 Z-0.0000 F1080.00
G0 X27.0000 Y65.6553 Z5.0000
G0 X27.0000 Y64.4553 Z5.0000
G0 X27.0000 Y64.4553 Z3.0000
G1 X27.0000 Y64.4553 Z-0.0000 F1080.00
G1 X1.0000 Y64.4553 Z-0.0000 F1080.00
G1 X1.0000 Y64.4553 Z-0.0000 F1080.00
G1 X27.0000 Y64.4553 Z-0.0000 F1080.00
G0 X27.0000 Y64.4553 Z5.0000
G0 X27.0000 Y63.2553 Z5.0000
G0 X27.0000 Y63.2553 Z3.0000
G1 X27.0000 Y63.2553 Z-0.0000 F1080.00
G1 X1.0000 Y63.2553 Z-0.0000 F1080.00
G1 X1.0000 Y63.2553 Z-0.0000 F1080.00
G1 X27.0000 Y63.2553 Z-0.0000 F1080.00
G0 X27.0000 Y63.2553 Z5.0000
G0 X27.0000 Y62.0553 Z5.0000
G0 X27.0000 Y62.0553 Z3.0000
G1 X27.0000 Y62.0553 Z-0.0000 F1080.00
G1 X1.0000 Y62.0553 Z-0.0000 F1080.00
G1 X1.0000 Y62.0553 Z-0.0000 F1080.00
G1 X27.0000 Y62.0553 Z-0.0000 F1080.00
G0 X27.0000 Y62.0553 Z5.0000
G0 X27.0000 Y60.8553 Z5.0000
G0 X27.0000 Y60.8553 Z3.0000
G1 X27.0000 Y60.8553 Z-0.0000 F1080.00
G1 X1.0000 Y60.8553 Z-0.0000 F1080.00
G1 X1.0000 Y60.8553 Z-0.0000 F1080.00
G1 X27.0000 Y60.8553 Z-0.0000 F1080.00
G0 X27.0000 Y60.8553 Z5.0000
G0 X27.0000 Y59.6553 Z5.0000
G0 X27.0000 Y59.6553 Z3.0000
G1 X27.0000 Y59.6553 Z-0.0000 F1080.00
G1 X1.0000 Y59.6553 Z-0.0000 F1080.00
G1 X1.0000 Y59.6553 Z-0.0000 F1080.00
G1 X27.0000 Y59.6553 Z-0.0000 F1080.00
G0 X27.0000 Y59.6553 Z5.0000
G0 X27.0000 Y58.4553 Z5.0000
G0 X27.0000 Y58.4553 Z3.0000
G1 X27.0000 Y58.4553 Z-0.0000 F1080.00
G1 X1.0000 Y58.4553 Z-0.0000 F1080.00
G1 X1.0000 Y58.4553 Z-0.0000 F1080.00
G1 X27.0000 Y58.4553 Z-0.0000 F1080.00
G0 X27.0000 Y58.4553 Z5.0000
G0 X27.0000 Y57.2553 Z5.0000
G0 X27.0000 Y57.2553 Z3.0000
G1 X27.0000 Y57.2553 Z-0.0000 F1080.00
G1 X1.0000 Y57.2553 Z-0.0000 F1080.00
G1 X1.0000 Y57.2553 Z-0.0000 F1080.00
G1 X27.0000 Y57.2553 Z-0.0000 F1080.00
G0 X27.0000 Y57.2553 Z5.0000
G0 X27.0000 Y56.0553 Z5.0000
G0 X27.0000 Y56.0553 Z3.0000
G1 X27.0000 Y56.0553 Z-0.0000 F1080.00
G1 X1.0000 Y56.0553 Z-0.0000 F1080.00
G1 X1.0000 Y56.0553 Z-0.0000 F1080.00
G1 X27.0000 Y56.0553 Z-0.0000 F1080.00
G0 X27.0000 Y56.0553 Z5.0000
G0 X27.0000 Y54.8553 Z5.0000
G0 X27.0000 Y54.8553 Z3.0000
G1 X27.0000 Y54.8553 Z-0.0000 F1080.00
G1 X1.0000 Y54.8553 Z-0.0000 F1080.00
G1 X1.0000 Y54.8553 Z-0.0000 F1080.00
G1 X27.0000 Y54.8553 Z-0.0000 F1080.00
G0 X27.0000 Y54.8553 Z5.0000
G0 X27.0000 Y53.6553 Z5.0000
G0 X27.0000 Y53.6553 Z3.0000
G1 X27.0000 Y53.6553 Z-0.0000 F1080.00
G1 X1.0000 Y53.6553 Z-0.0000 F1080.00
G1 X1.0000 Y53.6553 Z-0.0000 F1080.00
G1 X27.0000 Y53.6553 Z-0.0000 F1080.00
G0 X27.0000 Y53.6553 Z5.0000
G0 X27.0000 Y52.4553 Z5.0000
G0 X27.0000 Y52.4553 Z3.0000
G1 X27.0000 Y52.4553 Z-0.0000 F1080.00
G1 X1.0000 Y52.4553 Z-0.0000 F1080.00
G1 X1.0000 Y52.4553 Z-0.0000 F1080.00
G1 X27.0000 Y52.4553 Z-0.0000 F1080.00
G0 X27.0000 Y52.4553 Z5.0000
G0 X27.0000 Y51.2553 Z5.0000
G0 X27.0000 Y51.2553 Z3.0000
G1 X27.0000 Y51.2553 Z-0.0000 F1080.00
G1 X1.0000 Y51.2553 Z-0.0000 F1080.00
G1 X1.0000 Y51.2553 Z-0.0000 F1080.00
G1 X27.0000 Y51.2553 Z-0.0000 F1080.00
G0 X27.0000 Y51.2553 Z5.0000
G0 X27.0000 Y50.0553 Z5.0000
G0 X27.0000 Y50.0553 Z3.0000
G1 X27.0000 Y50.0553 Z-0.0000 F1080.00
G1 X1.0000 Y50.0553 Z-0.0000 F1080.00
G1 X1.0000 Y50.0553 Z-0.0000 F1080.00
G1 X27.0000 Y50.0553 Z-0.0000 F1080.00
G0 X27.0000 Y50.0553 Z5.0000
G0 X27.0000 Y48.8553 Z5.0000
G0 X27.0000 Y48.8553 Z3.0000
G1 X27.0000 Y48.8553 Z-0.0000 F1080.00
G1 X1.0000 Y48.8553 Z-0.0000 F1080.00
G1 X1.0000 Y48.8553 Z-0.0000 F1080.00
G1 X27.0000 Y48.8553 Z-0.0000 F1080.00
G0 X27.0000 Y48.8553 Z5.0000
G0 X27.0000 Y47.6553 Z5.0000
G0 X27.0000 Y47.6553 Z3.0000
G1 X27.0000 Y47.6553 Z-0.0000 F1080.00
G1 X1.0000 Y47.6553 Z-0.0000 F1080.00
G1 X1.0000 Y47.6553 Z-0.0000 F1080.00
G1 X27.0000 Y47.6553 Z-0.0000 F1080.00
G0 X27.0000 Y47.6553 Z5.0000
G0 X27.0000 Y46.4553 Z5.0000
G0 X27.0000 Y46.4553 Z3.0000
G1 X27.0000 Y46.4553 Z-0.0000 F1080.00
G1 X1.0000 Y46.4553 Z-0.0000 F1080.00
G1 X1.0000 Y46.4553 Z-0.0000 F1080.00
G1 X27.0000 Y46.4553 Z-0.0000 F1080.00
G0 X27.0000 Y46.4553 Z5.0000
G0 X27.0000 Y45.2553 Z5.0000
G0 X27.0000 Y45.2553 Z3.0000
G1 X27.0000 Y45.2553 Z-0.0000 F1080.00
G1 X1.0000 Y45.2553 Z-0.0000 F1080.00
G1 X1.0000 Y45.2553 Z-0.0000 F1080.00
G1 X27.0000 Y45.2553 Z-0.0000 F1080.00
G0 X27.0000 Y45.2553 Z5.0000
G0 X27.0000 Y44.0553 Z5.0000
G0 X27.0000 Y44.0553 Z3.0000
G1 X27.0000 Y44.0553 Z-0.0000 F1080.00
G1 X1.0000 Y44.0553 Z-0.0000 F1080.00
G1 X1.0000 Y44.0553 Z-0.0000 F1080.00
G1 X27.0000 Y44.0553 Z-0.0000 F1080.00
G0 X27.0000 Y44.0553 Z5.0000
G0 X27.0000 Y42.8553 Z5.0000
G0 X27.0000 Y42.8553 Z3.0000
G1 X27.0000 Y42.8553 Z-0.0000 F1080.00
G1 X1.0000 Y42.8553 Z-0.0000 F1080.00
G1 X1.0000 Y42.8553 Z-0.0000 F1080.00
G1 X27.0000 Y42.8553 Z-0.0000 F1080.00
G0 X27.0000 Y42.8553 Z5.0000
G0 X27.0000 Y41.6553 Z5.0000
G0 X27.0000 Y41.6553 Z3.0000
G1 X27.0000 Y41.6553 Z-0.0000 F1080.00
G1 X1.0000 Y41.6553 Z-0.0000 F1080.00
G1 X1.0000 Y41.6553 Z-0.0000 F1080.00
G1 X27.0000 Y41.6553 Z-0.0000 F1080.00
G0 X27.0000 Y41.6553 Z5.0000
G0 X27.0000 Y40.4553 Z5.0000
G0 X27.0000 Y40.4553 Z3.0000
G1 X27.0000 Y40.4553 Z-0.0000 F1080.00
G1 X1.0000 Y40.4553 Z-0.0000 F1080.00
G1 X1.0000 Y40.4553 Z-0.0000 F1080.00
G1 X27.0000 Y40.4553 Z-0.0000 F1080.00
G0 X27.0000 Y40.4553 Z5.0000
G0 X27.0000 Y39.2553 Z5.0000
G0 X27.0000 Y39.2553 Z3.0000
G1 X27.0000 Y39.2553 Z-0.0000 F1080.00
G1 X1.0000 Y39.2553 Z-0.0000 F1080.00
G1 X1.0000 Y39.2553 Z-0.0000 F1080.00
G1 X27.0000 Y39.2553 Z-0.0000 F1080.00
G0 X27.0000 Y39.2553 Z5.0000
G0 X27.0000 Y38.0553 Z5.0000
G0 X27.0000 Y38.0553 Z3.0000
G1 X27.0000 Y38.0553 Z-0.0000 F1080.00
G1 X1.0000 Y38.0553 Z-0.0000 F1080.00
G1 X1.0000 Y38.0553 Z-0.0000 F1080.00
G1 X27.0000 Y38.0553 Z-0.0000 F1080.00
G0 X27.0000 Y38.0553 Z5.0000
G0 X27.0000 Y36.8553 Z5.0000
G0 X27.0000 Y36.8553 Z3.0000
G1 X27.0000 Y36.8553 Z-0.0000 F1080.00
G1 X1.0000 Y36.8553 Z-0.0000 F1080.00
G1 X1.0000 Y36.8553 Z-0.0000 F1080.00
G1 X27.0000 Y36.8553 Z-0.0000 F1080.00
G0 X27.0000 Y36.8553 Z5.0000
G0 X27.0000 Y35.6553 Z5.0000
G0 X27.0000 Y35.6553 Z3.0000
G1 X27.0000 Y35.6553 Z-0.0000 F1080.00
G1 X1.0000 Y35.6553 Z-0.0000 F1080.00
G1 X1.0000 Y35.6553 Z-0.0000 F1080.00
G1 X27.0000 Y35.6553 Z-0.0000 F1080.00
G0 X27.0000 Y35.6553 Z5.0000
G0 X27.0000 Y34.4553 Z5.0000
G0 X27.0000 Y34.4553 Z3.0000
G1 X27.0000 Y34.4553 Z-0.0000 F1080.00
G1 X1.0000 Y34.4553 Z-0.0000 F1080.00
G1 X1.0000 Y34.4553 Z-0.0000 F1080.00
G1 X27.0000 Y34.4553 Z-0.0000 F1080.00
G0 X27.0000 Y34.4553 Z5.0000
G0 X27.0000 Y33.2553 Z5.0000
G0 X27.0000 Y33.2553 Z3.0000
G1 X27.0000 Y33.2553 Z-0.0000 F1080.00
G1 X1.0000 Y33.2553 Z-0.0000 F1080.00
G1 X1.0000 Y33.2553 Z-0.0000 F1080.00
G1 X27.0000 Y33.2553 Z-0.0000 F1080.00
G0 X27.0000 Y33.2553 Z5.0000
G0 X27.0000 Y32.0553 Z5.0000
G0 X27.0000 Y32.0553 Z3.0000
G1 X27.0000 Y32.0553 Z-0.0000 F1080.00
G1 X1.0000 Y32.0553 Z-0.0000 F1080.00
G1 X1.0000 Y32.0553 Z-0.0000 F1080.00
G1 X27.0000 Y32.0553 Z-0.0000 F1080.00
G0 X27.0000 Y32.0553 Z5.0000
G0 X27.0000 Y30.8553 Z5.0000
G0 X27.0000 Y30.8553 Z3.0000
G1 X27.0000 Y30.8553 Z-0.0000 F1080.00
G1 X1.0000 Y30.8553 Z-0.0000 F1080.00
G1 X1.0000 Y30.8553 Z-0.0000 F1080.00
G1 X27.0000 Y30.8553 Z-0.0000 F1080.00
G0 X27.0000 Y30.8553 Z5.0000
G0 X27.0000 Y29.6553 Z5.0000
G0 X27.0000 Y29.6553 Z3.0000
G1 X27.0000 Y29.6553 Z-0.0000 F1080.00
G1 X1.0000 Y29.6553 Z-0.0000 F1080.00
G1 X1.0000 Y29.6553 Z-0.0000 F1080.00
G1 X27.0000 Y29.6553 Z-0.0000 F1080.00
G0 X27.0000 Y29.6553 Z5.0000
G0 X27.0000 Y28.4553 Z5.0000
G0 X27.0000 Y28.4553 Z3.0000
G1 X27.0000 Y28.4553 Z-0.0000 F1080.00
G1 X1.0000 Y28.4553 Z-0.0000 F1080.00
G1 X1.0000 Y28.4553 Z-0.0000 F1080.00
G1 X27.0000 Y28.4553 Z-0.0000 F1080.00
G0 X27.0000 Y28.4553 Z5.0000
G0 X27.0000 Y27.2553 Z5.0000
G0 X27.0000 Y27.2553 Z3.0000
G1 X27.0000 Y27.2553 Z-0.0000 F1080.00
G1 X1.0000 Y27.2553 Z-0.0000 F1080.00
G1 X1.0000 Y27.2553 Z-0.0000 F1080.00
G1 X27.0000 Y27.2553 Z-0.0000 F1080.00
G0 X27.0000 Y27.2553 Z5.0000
G0 X27.0000 Y26.0553 Z5.0000
G0 X27.0000 Y26.0553 Z3.0000
G1 X27.0000 Y26.0553 Z-0.0000 F1080.00
G1 X1.0000 Y26.0553 Z-0.0000 F1080.00
G1 X1.0000 Y26.0553 Z-0.0000 F1080.00
G1 X27.0000 Y26.0553 Z-0.0000 F1080.00
G0 X27.0000 Y26.0553 Z5.0000
G0 X27.0000 Y24.8553 Z5.0000
G0 X27.0000 Y24.8553 Z3.0000
G1 X27.0000 Y24.8553 Z-0.0000 F1080.00
G1 X1.0000 Y24.8553 Z-0.0000 F1080.00
G1 X1.0000 Y24.8553 Z-0.0000 F1080.00
G1 X27.0000 Y24.8553 Z-0.0000 F1080.00
G0 X27.0000 Y24.8553 Z5.0000
G0 X27.0000 Y23.6553 Z5.0000
G0 X27.0000 Y23.6553 Z3.0000
G1 X27.0000 Y23.6553 Z-0.0000 F1080.00
G1 X1.0000 Y23.6553 Z-0.0000 F1080.00
G1 X1.0000 Y23.6553 Z-0.0000 F1080.00
G1 X27.0000 Y23.6553 Z-0.0000 F1080.00
G0 X27.0000 Y23.6553 Z5.0000
G0 X27.0000 Y22.4553 Z5.0000
G0 X27.0000 Y22.4553 Z3.0000
G1 X27.0000 Y22.4553 Z-0.0000 F1080.00
G1 X1.0000 Y22.4553 Z-0.0000 F1080.00
G1 X1.0000 Y22.4553 Z-0.0000 F1080.00
G1 X27.0000 Y22.4553 Z-0.0000 F1080.00
G0 X27.0000 Y22.4553 Z5.0000
G0 X27.0000 Y21.2553 Z5.0000
G0 X27.0000 Y21.2553 Z3.0000
G1 X27.0000 Y21.2553 Z-0.0000 F1080.00
G1 X1.0000 Y21.2553 Z-0.0000 F1080.00
G1 X1.0000 Y21.2553 Z-0.0000 F1080.00
G1 X27.0000 Y21.2553 Z-0.0000 F1080.00
G0 X27.0000 Y21.2553 Z5.0000
G0 X27.0000 Y20.0553 Z5.0000
G0 X27.0000 Y20.0553 Z3.0000
G1 X27.0000 Y20.0553 Z-0.0000 F1080.00
G1 X1.0000 Y20.0553 Z-0.0000 F1080.00
G1 X1.0000 Y20.0553 Z-0.0000 F1080.00
G1 X27.0000 Y20.0553 Z-0.0000 F1080.00
G0 X27.0000 Y20.0553 Z5.0000
G0 X27.0000 Y18.8553 Z5.0000
G0 X27.0000 Y18.8553 Z3.0000
G1 X27.0000 Y18.8553 Z-0.0000 F1080.00
G1 X1.0000 Y18.8553 Z-0.0000 F1080.00
G1 X1.0000 Y18.8553 Z-0.0000 F1080.00
G1 X27.0000 Y18.8553 Z-0.0000 F1080.00
G0 X27.0000 Y18.8553 Z5.0000
G0 X27.0000 Y17.6553 Z5.0000
G0 X27.0000 Y17.6553 Z3.0000
G1 X27.0000 Y17.6553 Z-0.0000 F1080.00
G1 X1.0000 Y17.6553 Z-0.0000 F1080.00
G1 X1.0000 Y17.6553 Z-0.0000 F1080.00
G1 X27.0000 Y17.6553 Z-0.0000 F1080.00
G0 X27.0000 Y17.6553 Z5.0000
G0 X27.0000 Y16.4553 Z5.0000
G0 X27.0000 Y16.4553 Z3.0000
G1 X27.0000 Y16.4553 Z-0.0000 F1080.00
G1 X1.0000 Y16.4553 Z-0.0000 F1080.00
G1 X1.0000 Y16.4553 Z-0.0000 F1080.00
G1 X27.0000 Y16.4553 Z-0.0000 F1080.00
G0 X27.0000 Y16.4553 Z5.0000
G0 X27.0000 Y15.2553 Z5.0000
G0 X27.0000 Y15.2553 Z3.0000
G1 X27.0000 Y15.2553 Z-0.0000 F1080.00
G1 X1.0000 Y15.2553 Z-0.0000 F1080.00
G1 X1.0000 Y15.2553 Z-0.0000 F1080.00
G1 X27.0000 Y15.2553 Z-0.0000 F1080.00
G0 X27.0000 Y15.2553 Z5.0000
G0 X27.0000 Y14.0553 Z5.0000
G0 X27.0000 Y14.0553 Z3.0000
G1 X27.0000 Y14.0553 Z-0.0000 F1080.00
G1 X1.0000 Y14.0553 Z-0.0000 F1080.00
G1 X1.0000 Y14.0553 Z-0.0000 F1080.00
G1 X27.0000 Y14.0553 Z-0.0000 F1080.00
G0 X27.0000 Y14.0553 Z5.0000
G0 X27.0000 Y12.8553 Z5.0000
G0 X27.0000 Y12.8553 Z3.0000
G1 X27.0000 Y12.8553 Z-0.0000 F1080.00
G1 X1.0000 Y12.8553 Z-0.0000 F1080.00
G1 X1.0000 Y12.8553 Z-0.0000 F1080.00
G1 X27.0000 Y12.8553 Z-0.0000 F1080.00
G0 X27.0000 Y12.8553 Z5.0000
G0 X27.0000 Y11.6553 Z5.0000
G0 X27.0000 Y11.6553 Z3.0000
G1 X27.0000 Y11.6553 Z-0.0000 F1080.00
G1 X1.0000 Y11.6553 Z-0.0000 F1080.00
G1 X1.0000 Y11.6553 Z-0.0000 F1080.00
G1 X27.0000 Y11.6553 Z-0.0000 F1080.00
G0 X27.0000 Y11.6553 Z5.0000
G0 X27.0000 Y10.4553 Z5.0000
G0 X27.0000 Y10.4553 Z3.0000
G1 X27.0000 Y10.4553 Z-0.0000 F1080.00
G1 X1.0000 Y10.4553 Z-0.0000 F1080.00
G1 X1.0000 Y10.4553 Z-0.0000 F1080.00
G1 X27.0000 Y10.4553 Z-0.0000 F1080.00
G0 X27.0000 Y10.4553 Z5.0000
G0 X27.0000 Y9.2553 Z5.0000
G0 X27.0000 Y9.2553 Z3.0000
G1 X27.0000 Y9.2553 Z-0.0000 F1080.00
G1 X1.0000 Y9.2553 Z-0.0000 F1080.00
G1 X1.0000 Y9.2553 Z-0.0000 F1080.00
G1 X27.0000 Y9.2553 Z-0.0000 F1080.00
G0 X27.0000 Y9.2553 Z5.0000
G0 X27.0000 Y8.0553 Z5.0000
G0 X27.0000 Y8.0553 Z3.0000
G1 X27.0000 Y8.0553 Z-0.0000 F1080.00
G1 X1.0000 Y8.0553 Z-0.0000 F1080.00
G1 X1.0000 Y8.0553 Z-0.0000 F1080.00
G1 X27.0000 Y8.0553 Z-0.0000 F1080.00
G0 X27.0000 Y8.0553 Z5.0000
G0 X27.0000 Y6.8553 Z5.0000
G0 X27.0000 Y6.8553 Z3.0000
G1 X27.0000 Y6.8553 Z-0.0000 F1080.00
G1 X1.0000 Y6.8553 Z-0.0000 F1080.00
G1 X1.0000 Y6.8553 Z-0.0000 F1080.00
G1 X27.0000 Y6.8553 Z-0.0000 F1080.00
G0 X27.0000 Y6.8553 Z5.0000
G0 X27.0000 Y5.6553 Z5.0000
G0 X27.0000 Y5.6553 Z3.0000
G1 X27.0000 Y5.6553 Z-0.0000 F1080.00
G1 X1.0000 Y5.6553 Z-0.0000 F1080.00
G1 X1.0000 Y5.6553 Z-0.0000 F1080.00
G1 X27.0000 Y5.6553 Z-0.0000 F1080.00
G0 X27.0000 Y5.6553 Z5.0000
G0 X27.0000 Y4.4553 Z5.0000
G0 X27.0000 Y4.4553 Z3.0000
G1 X27.0000 Y4.4553 Z-0.0000 F1080.00
G1 X1.0000 Y4.4553 Z-0.0000 F1080.00
G1 X1.0000 Y4.4553 Z-0.0000 F1080.00
G1 X27.0000 Y4.4553 Z-0.0000 F1080.00
G0 X27.0000 Y4.4553 Z5.0000
G0 X27.0000 Y3.2553 Z5.0000
G0 X27.0000 Y3.2553 Z3.0000
G1 X27.0000 Y3.2553 Z-0.0000 F1080.00
G1 X1.0000 Y3.2553 Z-0.0000 F1080.00
G1 X1.0000 Y3.2553 Z-0.0000 F1080.00
G1 X27.0000 Y3.2553 Z-0.0000 F1080.00
G0 X27.0000 Y3.2553 Z5.0000
G0 X27.0000 Y2.0553 Z5.0000
G0 X27.0000 Y2.0553 Z3.0000
G1 X27.0000 Y2.0553 Z-0.0000 F1080.00
G1 X1.0000 Y2.0553 Z-0.0000 F1080.00
G1 X1.0000 Y2.0553 Z-0.0000 F1080.00
G1 X27.0000 Y2.0553 Z-0.0000 F1080.00
G0 Z5.0000
(finish operation: MillFace)
(begin postamble)
M5
G17 G90
; M2
