(Exported by FreeCAD)
(Post Processor: grbl_post)
(Output Time:2021-11-25 05:13:48.990614)
(begin preamble)
G17 G90
G21
(begin operation: T4: BALLMill)
(Path: T4: BALLMill)
(T4: BALLMill)
(begin toolchange)
; M6 T4
M3 S0.0000
(finish operation: T4: BALLMill)
(begin operation: Pocket_Shape001)
(Path: Pocket_Shape001)
(Pocket_Shape001)
G0 Z5.0000
G0 X26.6244 Y22.7500
G0 Z3.0000
G1 X26.6244 Y22.7500 Z-0.5000 F900.00
G1 X1.3756 Y22.7500 Z-0.5000 F900.00
G1 X1.3756 Y22.7000 Z-0.5000 F900.00
G1 X26.6244 Y22.7000 Z-0.5000 F900.00
G1 X26.6244 Y22.7500 Z-0.5000 F900.00
G0 Z5.0000
G0 X26.6244 Y5.6500
G0 Z3.0000
G1 X26.6244 Y5.6500 Z-0.5000 F900.00
G1 X1.3756 Y5.6500 Z-0.5000 F900.00
G1 X1.3756 Y5.6000 Z-0.5000 F900.00
G1 X26.6244 Y5.6000 Z-0.5000 F900.00
G1 X26.6244 Y5.6500 Z-0.5000 F900.00
G0 Z5.0000
G0 X26.6244 Y41.9500
G0 Z3.0000
G1 X26.6244 Y41.9500 Z-0.5000 F900.00
G1 X1.3756 Y41.9500 Z-0.5000 F900.00
G1 X1.3756 Y41.9000 Z-0.5000 F900.00
G1 X26.6244 Y41.9000 Z-0.5000 F900.00
G1 X26.6244 Y41.9500 Z-0.5000 F900.00
G0 Z5.0000
G0 X26.6244 Y52.4200
G0 Z3.0000
G1 X26.6244 Y52.4200 Z-0.5000 F900.00
G1 X1.3756 Y52.4200 Z-0.5000 F900.00
G1 X1.3756 Y52.3700 Z-0.5000 F900.00
G1 X26.6244 Y52.3700 Z-0.5000 F900.00
G1 X26.6244 Y52.4200 Z-0.5000 F900.00
G0 Z5.0000
G0 X26.6244 Y75.2500
G0 Z3.0000
G1 X26.6244 Y75.2500 Z-0.5000 F900.00
G1 X1.3756 Y75.2500 Z-0.5000 F900.00
G1 X1.3756 Y75.2000 Z-0.5000 F900.00
G1 X26.6244 Y75.2000 Z-0.5000 F900.00
G1 X26.6244 Y75.2500 Z-0.5000 F900.00
G0 Z5.0000
G0 X26.6244 Y129.6600
G0 Z3.0000
G1 X26.6244 Y129.6600 Z-0.5000 F900.00
G1 X1.3756 Y129.6600 Z-0.5000 F900.00
G1 X1.3756 Y129.6100 Z-0.5000 F900.00
G1 X26.6244 Y129.6100 Z-0.5000 F900.00
G1 X26.6244 Y129.6600 Z-0.5000 F900.00
G0 Z5.0000
G0 X26.6244 Y145.3400
G0 Z3.0000
G1 X26.6244 Y145.3400 Z-0.5000 F900.00
G1 X1.3756 Y145.3400 Z-0.5000 F900.00
G1 X1.3756 Y145.2900 Z-0.5000 F900.00
G1 X26.6244 Y145.2900 Z-0.5000 F900.00
G1 X26.6244 Y145.3400 Z-0.5000 F900.00
G0 Z5.0000
G0 X26.6244 Y179.5600
G0 Z3.0000
G1 X26.6244 Y179.5600 Z-0.5000 F900.00
G1 X1.3756 Y179.5600 Z-0.5000 F900.00
G1 X1.3756 Y179.5100 Z-0.5000 F900.00
G1 X26.6244 Y179.5100 Z-0.5000 F900.00
G1 X26.6244 Y179.5600 Z-0.5000 F900.00
G0 Z5.0000
G0 X26.6244 Y217.9700
G0 Z3.0000
G1 X26.6244 Y217.9700 Z-0.5000 F900.00
G1 X1.3756 Y217.9700 Z-0.5000 F900.00
G1 X1.3756 Y217.9200 Z-0.5000 F900.00
G1 X26.6244 Y217.9200 Z-0.5000 F900.00
G1 X26.6244 Y217.9700 Z-0.5000 F900.00
G0 Z5.0000
G0 X26.6244 Y239.4500
G0 Z3.0000
G1 X26.6244 Y239.4500 Z-0.5000 F900.00
G1 X1.3756 Y239.4500 Z-0.5000 F900.00
G1 X1.3756 Y239.4000 Z-0.5000 F900.00
G1 X26.6244 Y239.4000 Z-0.5000 F900.00
G1 X26.6244 Y239.4500 Z-0.5000 F900.00
G0 Z5.0000
G0 X26.6244 Y284.5800
G0 Z3.0000
G1 X26.6244 Y284.5800 Z-0.5000 F900.00
G1 X1.3756 Y284.5800 Z-0.5000 F900.00
G1 X1.3756 Y284.5300 Z-0.5000 F900.00
G1 X26.6244 Y284.5300 Z-0.5000 F900.00
G1 X26.6244 Y284.5800 Z-0.5000 F900.00
G0 Z5.0000
G0 X26.6244 Y336.3900
G0 Z3.0000
G1 X26.6244 Y336.3900 Z-0.5000 F900.00
G1 X1.3756 Y336.3900 Z-0.5000 F900.00
G1 X1.3756 Y336.3400 Z-0.5000 F900.00
G1 X26.6244 Y336.3400 Z-0.5000 F900.00
G1 X26.6244 Y336.3900 Z-0.5000 F900.00
G0 Z5.0000
G0 X26.6244 Y364.3400
G0 Z3.0000
G1 X26.6244 Y364.3400 Z-0.5000 F900.00
G1 X1.3756 Y364.3400 Z-0.5000 F900.00
G1 X1.3756 Y364.2900 Z-0.5000 F900.00
G1 X26.6244 Y364.2900 Z-0.5000 F900.00
G1 X26.6244 Y364.3400 Z-0.5000 F900.00
G0 Z5.0000
G0 X26.6244 Y393.9400
G0 Z3.0000
G1 X26.6244 Y393.9400 Z-0.5000 F900.00
G1 X1.3756 Y393.9400 Z-0.5000 F900.00
G1 X1.3756 Y393.8900 Z-0.5000 F900.00
G1 X26.6244 Y393.8900 Z-0.5000 F900.00
G1 X26.6244 Y393.9400 Z-0.5000 F900.00
G0 Z5.0000
(finish operation: Pocket_Shape001)
(begin postamble)
M5
G17 G90
; M2
