(Exported by FreeCAD)
(Post Processor: grbl_post)
(Output Time:2021-11-25 00:04:38.305548)
(begin preamble)
G17 G90
G21
(begin operation: T3: 1/8inMILL)
(Path: T3: 1/8inMILL)
(T3: 1/8inMILL)
(begin toolchange)
; M6 T3
M3 S0.0000
(finish operation: T3: 1/8inMILL)
(begin operation: Pocket_Shape)
(Path: Pocket_Shape)
(Pocket_Shape)
G0 Z5.0000
G0 X19.0957 Y68.8181
G0 Z3.0000
G1 X19.0957 Y68.8181 Z-0.5000 F1080.00
G1 X20.7942 Y67.8375 Z-0.5000 F1080.00
G1 X20.7942 Y59.9922 Z-0.5000 F1080.00
G1 X14.0000 Y56.0695 Z-0.5000 F1080.00
G1 X7.2058 Y59.9922 Z-0.5000 F1080.00
G1 X7.2058 Y67.8375 Z-0.5000 F1080.00
G1 X14.0000 Y71.7601 Z-0.5000 F1080.00
G1 X19.0957 Y68.8181 Z-0.5000 F1080.00
G0 X19.0957 Y68.8181 Z5.0000
G0 X20.7942 Y59.9922 Z5.0000
G0 X20.7942 Y59.9922 Z2.5000
G1 X20.7942 Y59.9922 Z-0.5000 F1080.00
G1 X20.7942 Y62.3963 Z-0.5000 F1080.00
G1 X15.1059 Y56.7080 Z-0.5000 F1080.00
G1 X14.0000 Y56.0695 Z-0.5000 F1080.00
G1 X12.7722 Y56.7784 Z-0.5000 F1080.00
G1 X20.7942 Y64.8005 Z-0.5000 F1080.00
G1 X20.7942 Y67.2047 Z-0.5000 F1080.00
G1 X11.2480 Y57.6584 Z-0.5000 F1080.00
G1 X9.7238 Y58.5384 Z-0.5000 F1080.00
G1 X19.6712 Y68.4858 Z-0.5000 F1080.00
G1 X18.1471 Y69.3658 Z-0.5000 F1080.00
G1 X8.1996 Y59.4184 Z-0.5000 F1080.00
G1 X7.2058 Y59.9922 Z-0.5000 F1080.00
G1 X7.2058 Y60.8287 Z-0.5000 F1080.00
G1 X16.6229 Y70.2458 Z-0.5000 F1080.00
G1 X15.0987 Y71.1258 Z-0.5000 F1080.00
G1 X7.2058 Y63.2329 Z-0.5000 F1080.00
G1 X7.2058 Y65.6370 Z-0.5000 F1080.00
G1 X12.4121 Y70.8433 Z-0.5000 F1080.00
G1 X7.2058 Y67.8375 Z-0.5000 F1080.00
G1 X7.2058 Y65.6370 Z-0.5000 F1080.00
G1 X7.2058 Y65.6370 Z-1.0000 F1080.00
G1 X7.2058 Y67.8375 Z-1.0000 F1080.00
G1 X12.4121 Y70.8433 Z-1.0000 F1080.00
G1 X7.2058 Y65.6370 Z-1.0000 F1080.00
G1 X7.2058 Y63.2329 Z-1.0000 F1080.00
G1 X15.0987 Y71.1258 Z-1.0000 F1080.00
G1 X16.6229 Y70.2458 Z-1.0000 F1080.00
G1 X7.2058 Y60.8287 Z-1.0000 F1080.00
G1 X7.2058 Y59.9922 Z-1.0000 F1080.00
G1 X8.1996 Y59.4184 Z-1.0000 F1080.00
G1 X18.1471 Y69.3658 Z-1.0000 F1080.00
G1 X19.6712 Y68.4858 Z-1.0000 F1080.00
G1 X9.7238 Y58.5384 Z-1.0000 F1080.00
G1 X11.2480 Y57.6584 Z-1.0000 F1080.00
G1 X20.7942 Y67.2047 Z-1.0000 F1080.00
G1 X20.7942 Y64.8005 Z-1.0000 F1080.00
G1 X12.7722 Y56.7784 Z-1.0000 F1080.00
G1 X14.0000 Y56.0695 Z-1.0000 F1080.00
G1 X15.1059 Y56.7080 Z-1.0000 F1080.00
G1 X20.7942 Y62.3963 Z-1.0000 F1080.00
G1 X20.7942 Y59.9922 Z-1.0000 F1080.00
G1 X20.7942 Y59.9922 Z-1.0000 F1080.00
G1 X14.0000 Y56.0695 Z-1.0000 F1080.00
G1 X7.2058 Y59.9922 Z-1.0000 F1080.00
G1 X7.2058 Y67.8375 Z-1.0000 F1080.00
G1 X14.0000 Y71.7601 Z-1.0000 F1080.00
G1 X20.7942 Y67.8375 Z-1.0000 F1080.00
G1 X20.7942 Y59.9922 Z-1.0000 F1080.00
G1 X20.7942 Y59.9922 Z-1.5000 F1080.00
G1 X14.0000 Y56.0695 Z-1.5000 F1080.00
G1 X7.2058 Y59.9922 Z-1.5000 F1080.00
G1 X7.2058 Y67.8375 Z-1.5000 F1080.00
G1 X14.0000 Y71.7601 Z-1.5000 F1080.00
G1 X20.7942 Y67.8375 Z-1.5000 F1080.00
G1 X20.7942 Y59.9922 Z-1.5000 F1080.00
G1 X20.7942 Y59.9922 Z-1.5000 F1080.00
G1 X20.7942 Y62.3963 Z-1.5000 F1080.00
G1 X15.1059 Y56.7080 Z-1.5000 F1080.00
G1 X14.0000 Y56.0695 Z-1.5000 F1080.00
G1 X12.7722 Y56.7784 Z-1.5000 F1080.00
G1 X20.7942 Y64.8005 Z-1.5000 F1080.00
G1 X20.7942 Y67.2047 Z-1.5000 F1080.00
G1 X11.2480 Y57.6584 Z-1.5000 F1080.00
G1 X9.7238 Y58.5384 Z-1.5000 F1080.00
G1 X19.6712 Y68.4858 Z-1.5000 F1080.00
G1 X18.1471 Y69.3658 Z-1.5000 F1080.00
G1 X8.1996 Y59.4184 Z-1.5000 F1080.00
G1 X7.2058 Y59.9922 Z-1.5000 F1080.00
G1 X7.2058 Y60.8287 Z-1.5000 F1080.00
G1 X16.6229 Y70.2458 Z-1.5000 F1080.00
G1 X15.0987 Y71.1258 Z-1.5000 F1080.00
G1 X7.2058 Y63.2329 Z-1.5000 F1080.00
G1 X7.2058 Y65.6370 Z-1.5000 F1080.00
G1 X12.4121 Y70.8433 Z-1.5000 F1080.00
G1 X7.2058 Y67.8375 Z-1.5000 F1080.00
G1 X7.2058 Y65.6370 Z-1.5000 F1080.00
G1 X7.2058 Y65.6370 Z-2.0000 F1080.00
G1 X7.2058 Y67.8375 Z-2.0000 F1080.00
G1 X12.4121 Y70.8433 Z-2.0000 F1080.00
G1 X7.2058 Y65.6370 Z-2.0000 F1080.00
G1 X7.2058 Y63.2329 Z-2.0000 F1080.00
G1 X15.0987 Y71.1258 Z-2.0000 F1080.00
G1 X16.6229 Y70.2458 Z-2.0000 F1080.00
G1 X7.2058 Y60.8287 Z-2.0000 F1080.00
G1 X7.2058 Y59.9922 Z-2.0000 F1080.00
G1 X8.1996 Y59.4184 Z-2.0000 F1080.00
G1 X18.1471 Y69.3658 Z-2.0000 F1080.00
G1 X19.6712 Y68.4858 Z-2.0000 F1080.00
G1 X9.7238 Y58.5384 Z-2.0000 F1080.00
G1 X11.2480 Y57.6584 Z-2.0000 F1080.00
G1 X20.7942 Y67.2047 Z-2.0000 F1080.00
G1 X20.7942 Y64.8005 Z-2.0000 F1080.00
G1 X12.7722 Y56.7784 Z-2.0000 F1080.00
G1 X14.0000 Y56.0695 Z-2.0000 F1080.00
G1 X15.1059 Y56.7080 Z-2.0000 F1080.00
G1 X20.7942 Y62.3963 Z-2.0000 F1080.00
G1 X20.7942 Y59.9922 Z-2.0000 F1080.00
G1 X20.7942 Y59.9922 Z-2.0000 F1080.00
G1 X14.0000 Y56.0695 Z-2.0000 F1080.00
G1 X7.2058 Y59.9922 Z-2.0000 F1080.00
G1 X7.2058 Y67.8375 Z-2.0000 F1080.00
G1 X14.0000 Y71.7601 Z-2.0000 F1080.00
G1 X20.7942 Y67.8375 Z-2.0000 F1080.00
G1 X20.7942 Y59.9922 Z-2.0000 F1080.00
G0 Z5.0000
G0 X19.0957 Y117.3282
G0 Z3.0000
G1 X19.0957 Y117.3282 Z-0.5000 F1080.00
G1 X20.7942 Y116.3475 Z-0.5000 F1080.00
G1 X20.7942 Y108.5022 Z-0.5000 F1080.00
G1 X14.0000 Y104.5796 Z-0.5000 F1080.00
G1 X7.2058 Y108.5022 Z-0.5000 F1080.00
G1 X7.2058 Y116.3475 Z-0.5000 F1080.00
G1 X14.0000 Y120.2702 Z-0.5000 F1080.00
G1 X19.0957 Y117.3282 Z-0.5000 F1080.00
G0 X19.0957 Y117.3282 Z5.0000
G0 X20.7942 Y108.5022 Z5.0000
G0 X20.7942 Y108.5022 Z2.5000
G1 X20.7942 Y108.5022 Z-0.5000 F1080.00
G1 X20.7942 Y110.9064 Z-0.5000 F1080.00
G1 X15.1059 Y105.2181 Z-0.5000 F1080.00
G1 X14.0000 Y104.5796 Z-0.5000 F1080.00
G1 X12.7722 Y105.2885 Z-0.5000 F1080.00
G1 X20.7942 Y113.3105 Z-0.5000 F1080.00
G1 X20.7942 Y115.7147 Z-0.5000 F1080.00
G1 X11.2480 Y106.1684 Z-0.5000 F1080.00
G1 X9.7238 Y107.0484 Z-0.5000 F1080.00
G1 X19.6712 Y116.9959 Z-0.5000 F1080.00
G1 X18.1471 Y117.8759 Z-0.5000 F1080.00
G1 X8.1996 Y107.9284 Z-0.5000 F1080.00
G1 X7.2058 Y108.5022 Z-0.5000 F1080.00
G1 X7.2058 Y109.3387 Z-0.5000 F1080.00
G1 X16.6229 Y118.7558 Z-0.5000 F1080.00
G1 X15.0987 Y119.6358 Z-0.5000 F1080.00
G1 X7.2058 Y111.7429 Z-0.5000 F1080.00
G1 X7.2058 Y114.1471 Z-0.5000 F1080.00
G1 X12.4121 Y119.3534 Z-0.5000 F1080.00
G1 X7.2058 Y116.3475 Z-0.5000 F1080.00
G1 X7.2058 Y114.1471 Z-0.5000 F1080.00
G1 X7.2058 Y114.1471 Z-1.0000 F1080.00
G1 X7.2058 Y116.3475 Z-1.0000 F1080.00
G1 X12.4121 Y119.3534 Z-1.0000 F1080.00
G1 X7.2058 Y114.1471 Z-1.0000 F1080.00
G1 X7.2058 Y111.7429 Z-1.0000 F1080.00
G1 X15.0987 Y119.6358 Z-1.0000 F1080.00
G1 X16.6229 Y118.7558 Z-1.0000 F1080.00
G1 X7.2058 Y109.3387 Z-1.0000 F1080.00
G1 X7.2058 Y108.5022 Z-1.0000 F1080.00
G1 X8.1996 Y107.9284 Z-1.0000 F1080.00
G1 X18.1471 Y117.8759 Z-1.0000 F1080.00
G1 X19.6712 Y116.9959 Z-1.0000 F1080.00
G1 X9.7238 Y107.0484 Z-1.0000 F1080.00
G1 X11.2480 Y106.1684 Z-1.0000 F1080.00
G1 X20.7942 Y115.7147 Z-1.0000 F1080.00
G1 X20.7942 Y113.3105 Z-1.0000 F1080.00
G1 X12.7722 Y105.2885 Z-1.0000 F1080.00
G1 X14.0000 Y104.5796 Z-1.0000 F1080.00
G1 X15.1059 Y105.2181 Z-1.0000 F1080.00
G1 X20.7942 Y110.9064 Z-1.0000 F1080.00
G1 X20.7942 Y108.5022 Z-1.0000 F1080.00
G1 X20.7942 Y108.5022 Z-1.0000 F1080.00
G1 X14.0000 Y104.5796 Z-1.0000 F1080.00
G1 X7.2058 Y108.5022 Z-1.0000 F1080.00
G1 X7.2058 Y116.3475 Z-1.0000 F1080.00
G1 X14.0000 Y120.2702 Z-1.0000 F1080.00
G1 X20.7942 Y116.3475 Z-1.0000 F1080.00
G1 X20.7942 Y108.5022 Z-1.0000 F1080.00
G1 X20.7942 Y108.5022 Z-1.5000 F1080.00
G1 X14.0000 Y104.5796 Z-1.5000 F1080.00
G1 X7.2058 Y108.5022 Z-1.5000 F1080.00
G1 X7.2058 Y116.3475 Z-1.5000 F1080.00
G1 X14.0000 Y120.2702 Z-1.5000 F1080.00
G1 X20.7942 Y116.3475 Z-1.5000 F1080.00
G1 X20.7942 Y108.5022 Z-1.5000 F1080.00
G1 X20.7942 Y108.5022 Z-1.5000 F1080.00
G1 X20.7942 Y110.9064 Z-1.5000 F1080.00
G1 X15.1059 Y105.2181 Z-1.5000 F1080.00
G1 X14.0000 Y104.5796 Z-1.5000 F1080.00
G1 X12.7722 Y105.2885 Z-1.5000 F1080.00
G1 X20.7942 Y113.3105 Z-1.5000 F1080.00
G1 X20.7942 Y115.7147 Z-1.5000 F1080.00
G1 X11.2480 Y106.1684 Z-1.5000 F1080.00
G1 X9.7238 Y107.0484 Z-1.5000 F1080.00
G1 X19.6712 Y116.9959 Z-1.5000 F1080.00
G1 X18.1471 Y117.8759 Z-1.5000 F1080.00
G1 X8.1996 Y107.9284 Z-1.5000 F1080.00
G1 X7.2058 Y108.5022 Z-1.5000 F1080.00
G1 X7.2058 Y109.3387 Z-1.5000 F1080.00
G1 X16.6229 Y118.7558 Z-1.5000 F1080.00
G1 X15.0987 Y119.6358 Z-1.5000 F1080.00
G1 X7.2058 Y111.7429 Z-1.5000 F1080.00
G1 X7.2058 Y114.1471 Z-1.5000 F1080.00
G1 X12.4121 Y119.3534 Z-1.5000 F1080.00
G1 X7.2058 Y116.3475 Z-1.5000 F1080.00
G1 X7.2058 Y114.1471 Z-1.5000 F1080.00
G1 X7.2058 Y114.1471 Z-2.0000 F1080.00
G1 X7.2058 Y116.3475 Z-2.0000 F1080.00
G1 X12.4121 Y119.3534 Z-2.0000 F1080.00
G1 X7.2058 Y114.1471 Z-2.0000 F1080.00
G1 X7.2058 Y111.7429 Z-2.0000 F1080.00
G1 X15.0987 Y119.6358 Z-2.0000 F1080.00
G1 X16.6229 Y118.7558 Z-2.0000 F1080.00
G1 X7.2058 Y109.3387 Z-2.0000 F1080.00
G1 X7.2058 Y108.5022 Z-2.0000 F1080.00
G1 X8.1996 Y107.9284 Z-2.0000 F1080.00
G1 X18.1471 Y117.8759 Z-2.0000 F1080.00
G1 X19.6712 Y116.9959 Z-2.0000 F1080.00
G1 X9.7238 Y107.0484 Z-2.0000 F1080.00
G1 X11.2480 Y106.1684 Z-2.0000 F1080.00
G1 X20.7942 Y115.7147 Z-2.0000 F1080.00
G1 X20.7942 Y113.3105 Z-2.0000 F1080.00
G1 X12.7722 Y105.2885 Z-2.0000 F1080.00
G1 X14.0000 Y104.5796 Z-2.0000 F1080.00
G1 X15.1059 Y105.2181 Z-2.0000 F1080.00
G1 X20.7942 Y110.9064 Z-2.0000 F1080.00
G1 X20.7942 Y108.5022 Z-2.0000 F1080.00
G1 X20.7942 Y108.5022 Z-2.0000 F1080.00
G1 X14.0000 Y104.5796 Z-2.0000 F1080.00
G1 X7.2058 Y108.5022 Z-2.0000 F1080.00
G1 X7.2058 Y116.3475 Z-2.0000 F1080.00
G1 X14.0000 Y120.2702 Z-2.0000 F1080.00
G1 X20.7942 Y116.3475 Z-2.0000 F1080.00
G1 X20.7942 Y108.5022 Z-2.0000 F1080.00
G0 Z5.0000
G0 X23.8588 Y158.4626
G0 Z3.0000
G1 X23.8588 Y158.4626 Z-0.5000 F1080.00
G1 X25.1244 Y157.7319 Z-0.5000 F1080.00
G1 X25.1244 Y151.8866 Z-0.5000 F1080.00
G1 X20.0622 Y148.9640 Z-0.5000 F1080.00
G1 X15.0000 Y151.8866 Z-0.5000 F1080.00
G1 X15.0000 Y157.7319 Z-0.5000 F1080.00
G1 X20.0622 Y160.6546 Z-0.5000 F1080.00
G1 X23.8588 Y158.4626 Z-0.5000 F1080.00
G0 X23.8588 Y158.4626 Z5.0000
G0 X25.1244 Y151.8866 Z5.0000
G0 X25.1244 Y151.8866 Z2.5000
G1 X25.1244 Y151.8866 Z-0.5000 F1080.00
G1 X25.1244 Y154.2908 Z-0.5000 F1080.00
G1 X19.8944 Y149.0608 Z-0.5000 F1080.00
G1 X18.3702 Y149.9408 Z-0.5000 F1080.00
G1 X25.1244 Y156.6949 Z-0.5000 F1080.00
G1 X25.1244 Y157.7319 Z-0.5000 F1080.00
G1 X24.2576 Y158.2323 Z-0.5000 F1080.00
G1 X16.8460 Y150.8208 Z-0.5000 F1080.00
G1 X15.3219 Y151.7008 Z-0.5000 F1080.00
G1 X22.7334 Y159.1123 Z-0.5000 F1080.00
G1 X21.2092 Y159.9923 Z-0.5000 F1080.00
G1 X15.0000 Y153.7831 Z-0.5000 F1080.00
G1 X15.0000 Y156.1872 Z-0.5000 F1080.00
G1 X15.0000 Y157.7319 Z-0.5000 F1080.00
G1 X18.6547 Y159.8420 Z-0.5000 F1080.00
G1 X15.0000 Y156.1872 Z-0.5000 F1080.00
G1 X15.0000 Y156.1872 Z-1.0000 F1080.00
G1 X18.6547 Y159.8420 Z-1.0000 F1080.00
G1 X15.0000 Y157.7319 Z-1.0000 F1080.00
G1 X15.0000 Y156.1872 Z-1.0000 F1080.00
G1 X15.0000 Y153.7831 Z-1.0000 F1080.00
G1 X21.2092 Y159.9923 Z-1.0000 F1080.00
G1 X22.7334 Y159.1123 Z-1.0000 F1080.00
G1 X15.3219 Y151.7008 Z-1.0000 F1080.00
G1 X16.8460 Y150.8208 Z-1.0000 F1080.00
G1 X24.2576 Y158.2323 Z-1.0000 F1080.00
G1 X25.1244 Y157.7319 Z-1.0000 F1080.00
G1 X25.1244 Y156.6949 Z-1.0000 F1080.00
G1 X18.3702 Y149.9408 Z-1.0000 F1080.00
G1 X19.8944 Y149.0608 Z-1.0000 F1080.00
G1 X25.1244 Y154.2908 Z-1.0000 F1080.00
G1 X25.1244 Y151.8866 Z-1.0000 F1080.00
G1 X25.1244 Y151.8866 Z-1.0000 F1080.00
G1 X20.0622 Y148.9640 Z-1.0000 F1080.00
G1 X15.0000 Y151.8866 Z-1.0000 F1080.00
G1 X15.0000 Y157.7319 Z-1.0000 F1080.00
G1 X20.0622 Y160.6546 Z-1.0000 F1080.00
G1 X25.1244 Y157.7319 Z-1.0000 F1080.00
G1 X25.1244 Y151.8866 Z-1.0000 F1080.00
G1 X25.1244 Y151.8866 Z-1.5000 F1080.00
G1 X20.0622 Y148.9640 Z-1.5000 F1080.00
G1 X15.0000 Y151.8866 Z-1.5000 F1080.00
G1 X15.0000 Y157.7319 Z-1.5000 F1080.00
G1 X20.0622 Y160.6546 Z-1.5000 F1080.00
G1 X25.1244 Y157.7319 Z-1.5000 F1080.00
G1 X25.1244 Y151.8866 Z-1.5000 F1080.00
G1 X25.1244 Y151.8866 Z-1.5000 F1080.00
G1 X25.1244 Y154.2908 Z-1.5000 F1080.00
G1 X19.8944 Y149.0608 Z-1.5000 F1080.00
G1 X18.3702 Y149.9408 Z-1.5000 F1080.00
G1 X25.1244 Y156.6949 Z-1.5000 F1080.00
G1 X25.1244 Y157.7319 Z-1.5000 F1080.00
G1 X24.2576 Y158.2323 Z-1.5000 F1080.00
G1 X16.8460 Y150.8208 Z-1.5000 F1080.00
G1 X15.3219 Y151.7008 Z-1.5000 F1080.00
G1 X22.7334 Y159.1123 Z-1.5000 F1080.00
G1 X21.2092 Y159.9923 Z-1.5000 F1080.00
G1 X15.0000 Y153.7831 Z-1.5000 F1080.00
G1 X15.0000 Y156.1872 Z-1.5000 F1080.00
G1 X15.0000 Y157.7319 Z-1.5000 F1080.00
G1 X18.6547 Y159.8420 Z-1.5000 F1080.00
G1 X15.0000 Y156.1872 Z-1.5000 F1080.00
G1 X15.0000 Y156.1872 Z-2.0000 F1080.00
G1 X18.6547 Y159.8420 Z-2.0000 F1080.00
G1 X15.0000 Y157.7319 Z-2.0000 F1080.00
G1 X15.0000 Y156.1872 Z-2.0000 F1080.00
G1 X15.0000 Y153.7831 Z-2.0000 F1080.00
G1 X21.2092 Y159.9923 Z-2.0000 F1080.00
G1 X22.7334 Y159.1123 Z-2.0000 F1080.00
G1 X15.3219 Y151.7008 Z-2.0000 F1080.00
G1 X16.8460 Y150.8208 Z-2.0000 F1080.00
G1 X24.2576 Y158.2323 Z-2.0000 F1080.00
G1 X25.1244 Y157.7319 Z-2.0000 F1080.00
G1 X25.1244 Y156.6949 Z-2.0000 F1080.00
G1 X18.3702 Y149.9408 Z-2.0000 F1080.00
G1 X19.8944 Y149.0608 Z-2.0000 F1080.00
G1 X25.1244 Y154.2908 Z-2.0000 F1080.00
G1 X25.1244 Y151.8866 Z-2.0000 F1080.00
G1 X25.1244 Y151.8866 Z-2.0000 F1080.00
G1 X20.0622 Y148.9640 Z-2.0000 F1080.00
G1 X15.0000 Y151.8866 Z-2.0000 F1080.00
G1 X15.0000 Y157.7319 Z-2.0000 F1080.00
G1 X20.0622 Y160.6546 Z-2.0000 F1080.00
G1 X25.1244 Y157.7319 Z-2.0000 F1080.00
G1 X25.1244 Y151.8866 Z-2.0000 F1080.00
G0 Z5.0000
G0 X11.7345 Y168.7466
G0 Z3.0000
G1 X11.7345 Y168.7466 Z-0.5000 F1080.00
G1 X13.0000 Y168.0159 Z-0.5000 F1080.00
G1 X13.0000 Y162.1706 Z-0.5000 F1080.00
G1 X7.9378 Y159.2480 Z-0.5000 F1080.00
G1 X2.8756 Y162.1706 Z-0.5000 F1080.00
G1 X2.8756 Y168.0159 Z-0.5000 F1080.00
G1 X7.9378 Y170.9386 Z-0.5000 F1080.00
G1 X11.7345 Y168.7466 Z-0.5000 F1080.00
G0 X11.7345 Y168.7466 Z5.0000
G0 X13.0000 Y162.1706 Z5.0000
G0 X13.0000 Y162.1706 Z2.5000
G1 X13.0000 Y162.1706 Z-0.5000 F1080.00
G1 X13.0000 Y164.5748 Z-0.5000 F1080.00
G1 X7.7701 Y159.3448 Z-0.5000 F1080.00
G1 X6.2459 Y160.2248 Z-0.5000 F1080.00
G1 X13.0000 Y166.9789 Z-0.5000 F1080.00
G1 X13.0000 Y168.0159 Z-0.5000 F1080.00
G1 X12.1332 Y168.5163 Z-0.5000 F1080.00
G1 X4.7217 Y161.1048 Z-0.5000 F1080.00
G1 X3.1975 Y161.9848 Z-0.5000 F1080.00
G1 X10.6091 Y169.3963 Z-0.5000 F1080.00
G1 X9.0849 Y170.2763 Z-0.5000 F1080.00
G1 X2.8756 Y164.0671 Z-0.5000 F1080.00
G1 X2.8756 Y166.4712 Z-0.5000 F1080.00
G1 X2.8756 Y168.0159 Z-0.5000 F1080.00
G1 X6.5304 Y170.1260 Z-0.5000 F1080.00
G1 X2.8756 Y166.4712 Z-0.5000 F1080.00
G1 X2.8756 Y166.4712 Z-1.0000 F1080.00
G1 X6.5304 Y170.1260 Z-1.0000 F1080.00
G1 X2.8756 Y168.0159 Z-1.0000 F1080.00
G1 X2.8756 Y166.4712 Z-1.0000 F1080.00
G1 X2.8756 Y164.0671 Z-1.0000 F1080.00
G1 X9.0849 Y170.2763 Z-1.0000 F1080.00
G1 X10.6091 Y169.3963 Z-1.0000 F1080.00
G1 X3.1975 Y161.9848 Z-1.0000 F1080.00
G1 X4.7217 Y161.1048 Z-1.0000 F1080.00
G1 X12.1332 Y168.5163 Z-1.0000 F1080.00
G1 X13.0000 Y168.0159 Z-1.0000 F1080.00
G1 X13.0000 Y166.9789 Z-1.0000 F1080.00
G1 X6.2459 Y160.2248 Z-1.0000 F1080.00
G1 X7.7701 Y159.3448 Z-1.0000 F1080.00
G1 X13.0000 Y164.5748 Z-1.0000 F1080.00
G1 X13.0000 Y162.1706 Z-1.0000 F1080.00
G1 X13.0000 Y162.1706 Z-1.0000 F1080.00
G1 X7.9378 Y159.2480 Z-1.0000 F1080.00
G1 X2.8756 Y162.1706 Z-1.0000 F1080.00
G1 X2.8756 Y168.0159 Z-1.0000 F1080.00
G1 X7.9378 Y170.9386 Z-1.0000 F1080.00
G1 X13.0000 Y168.0159 Z-1.0000 F1080.00
G1 X13.0000 Y162.1706 Z-1.0000 F1080.00
G1 X13.0000 Y162.1706 Z-1.5000 F1080.00
G1 X7.9378 Y159.2480 Z-1.5000 F1080.00
G1 X2.8756 Y162.1706 Z-1.5000 F1080.00
G1 X2.8756 Y168.0159 Z-1.5000 F1080.00
G1 X7.9378 Y170.9386 Z-1.5000 F1080.00
G1 X13.0000 Y168.0159 Z-1.5000 F1080.00
G1 X13.0000 Y162.1706 Z-1.5000 F1080.00
G1 X13.0000 Y162.1706 Z-1.5000 F1080.00
G1 X13.0000 Y164.5748 Z-1.5000 F1080.00
G1 X7.7701 Y159.3448 Z-1.5000 F1080.00
G1 X6.2459 Y160.2248 Z-1.5000 F1080.00
G1 X13.0000 Y166.9789 Z-1.5000 F1080.00
G1 X13.0000 Y168.0159 Z-1.5000 F1080.00
G1 X12.1332 Y168.5163 Z-1.5000 F1080.00
G1 X4.7217 Y161.1048 Z-1.5000 F1080.00
G1 X3.1975 Y161.9848 Z-1.5000 F1080.00
G1 X10.6091 Y169.3963 Z-1.5000 F1080.00
G1 X9.0849 Y170.2763 Z-1.5000 F1080.00
G1 X2.8756 Y164.0671 Z-1.5000 F1080.00
G1 X2.8756 Y166.4712 Z-1.5000 F1080.00
G1 X2.8756 Y168.0159 Z-1.5000 F1080.00
G1 X6.5304 Y170.1260 Z-1.5000 F1080.00
G1 X2.8756 Y166.4712 Z-1.5000 F1080.00
G1 X2.8756 Y166.4712 Z-2.0000 F1080.00
G1 X6.5304 Y170.1260 Z-2.0000 F1080.00
G1 X2.8756 Y168.0159 Z-2.0000 F1080.00
G1 X2.8756 Y166.4712 Z-2.0000 F1080.00
G1 X2.8756 Y164.0671 Z-2.0000 F1080.00
G1 X9.0849 Y170.2763 Z-2.0000 F1080.00
G1 X10.6091 Y169.3963 Z-2.0000 F1080.00
G1 X3.1975 Y161.9848 Z-2.0000 F1080.00
G1 X4.7217 Y161.1048 Z-2.0000 F1080.00
G1 X12.1332 Y168.5163 Z-2.0000 F1080.00
G1 X13.0000 Y168.0159 Z-2.0000 F1080.00
G1 X13.0000 Y166.9789 Z-2.0000 F1080.00
G1 X6.2459 Y160.2248 Z-2.0000 F1080.00
G1 X7.7701 Y159.3448 Z-2.0000 F1080.00
G1 X13.0000 Y164.5748 Z-2.0000 F1080.00
G1 X13.0000 Y162.1706 Z-2.0000 F1080.00
G1 X13.0000 Y162.1706 Z-2.0000 F1080.00
G1 X7.9378 Y159.2480 Z-2.0000 F1080.00
G1 X2.8756 Y162.1706 Z-2.0000 F1080.00
G1 X2.8756 Y168.0159 Z-2.0000 F1080.00
G1 X7.9378 Y170.9386 Z-2.0000 F1080.00
G1 X13.0000 Y168.0159 Z-2.0000 F1080.00
G1 X13.0000 Y162.1706 Z-2.0000 F1080.00
G0 Z5.0000
G0 X20.3947 Y261.9908
G0 Z3.0000
G1 X20.3947 Y261.9908 Z-0.5000 F1080.00
G1 X22.5263 Y260.7602 Z-0.5000 F1080.00
G1 X22.5263 Y250.9149 Z-0.5000 F1080.00
G1 X14.0000 Y245.9922 Z-0.5000 F1080.00
G1 X5.4737 Y250.9149 Z-0.5000 F1080.00
G1 X5.4737 Y260.7602 Z-0.5000 F1080.00
G1 X14.0000 Y265.6828 Z-0.5000 F1080.00
G1 X20.3947 Y261.9908 Z-0.5000 F1080.00
G0 X20.3947 Y261.9908 Z5.0000
G0 X22.5263 Y250.9149 Z5.0000
G0 X22.5263 Y250.9149 Z2.5000
G1 X22.5263 Y250.9149 Z-0.5000 F1080.00
G1 X22.5263 Y253.3190 Z-0.5000 F1080.00
G1 X16.8380 Y247.6307 Z-0.5000 F1080.00
G1 X14.0000 Y245.9922 Z-0.5000 F1080.00
G1 X13.2363 Y246.4332 Z-0.5000 F1080.00
G1 X22.5263 Y255.7232 Z-0.5000 F1080.00
G1 X22.5263 Y258.1273 Z-0.5000 F1080.00
G1 X11.7121 Y247.3131 Z-0.5000 F1080.00
G1 X10.1879 Y248.1931 Z-0.5000 F1080.00
G1 X22.5263 Y260.5315 Z-0.5000 F1080.00
G1 X22.5263 Y260.7602 Z-0.5000 F1080.00
G1 X21.1471 Y261.5565 Z-0.5000 F1080.00
G1 X8.6637 Y249.0731 Z-0.5000 F1080.00
G1 X7.1395 Y249.9531 Z-0.5000 F1080.00
G1 X19.6229 Y262.4364 Z-0.5000 F1080.00
G1 X18.0987 Y263.3164 Z-0.5000 F1080.00
G1 X5.6154 Y250.8331 Z-0.5000 F1080.00
G1 X5.4737 Y250.9149 Z-0.5000 F1080.00
G1 X5.4737 Y253.0956 Z-0.5000 F1080.00
G1 X16.5745 Y264.1964 Z-0.5000 F1080.00
G1 X15.0503 Y265.0764 Z-0.5000 F1080.00
G1 X5.4737 Y255.4998 Z-0.5000 F1080.00
G1 X5.4737 Y257.9039 Z-0.5000 F1080.00
G1 X12.2316 Y264.6618 Z-0.5000 F1080.00
G1 X6.5433 Y261.3777 Z-0.5000 F1080.00
G1 X5.4737 Y260.3081 Z-0.5000 F1080.00
G1 X5.4737 Y260.7602 Z-0.5000 F1080.00
G1 X6.5433 Y261.3777 Z-0.5000 F1080.00
G1 X6.5433 Y261.3777 Z-1.0000 F1080.00
G1 X5.4737 Y260.7602 Z-1.0000 F1080.00
G1 X5.4737 Y260.3081 Z-1.0000 F1080.00
G1 X6.5433 Y261.3777 Z-1.0000 F1080.00
G1 X12.2316 Y264.6618 Z-1.0000 F1080.00
G1 X5.4737 Y257.9039 Z-1.0000 F1080.00
G1 X5.4737 Y255.4998 Z-1.0000 F1080.00
G1 X15.0503 Y265.0764 Z-1.0000 F1080.00
G1 X16.5745 Y264.1964 Z-1.0000 F1080.00
G1 X5.4737 Y253.0956 Z-1.0000 F1080.00
G1 X5.4737 Y250.9149 Z-1.0000 F1080.00
G1 X5.6154 Y250.8331 Z-1.0000 F1080.00
G1 X18.0987 Y263.3164 Z-1.0000 F1080.00
G1 X19.6229 Y262.4364 Z-1.0000 F1080.00
G1 X7.1395 Y249.9531 Z-1.0000 F1080.00
G1 X8.6637 Y249.0731 Z-1.0000 F1080.00
G1 X21.1471 Y261.5565 Z-1.0000 F1080.00
G1 X22.5263 Y260.7602 Z-1.0000 F1080.00
G1 X22.5263 Y260.5315 Z-1.0000 F1080.00
G1 X10.1879 Y248.1931 Z-1.0000 F1080.00
G1 X11.7121 Y247.3131 Z-1.0000 F1080.00
G1 X22.5263 Y258.1273 Z-1.0000 F1080.00
G1 X22.5263 Y255.7232 Z-1.0000 F1080.00
G1 X13.2363 Y246.4332 Z-1.0000 F1080.00
G1 X14.0000 Y245.9922 Z-1.0000 F1080.00
G1 X16.8380 Y247.6307 Z-1.0000 F1080.00
G1 X22.5263 Y253.3190 Z-1.0000 F1080.00
G1 X22.5263 Y250.9149 Z-1.0000 F1080.00
G1 X22.5263 Y250.9149 Z-1.0000 F1080.00
G1 X14.0000 Y245.9922 Z-1.0000 F1080.00
G1 X5.4737 Y250.9149 Z-1.0000 F1080.00
G1 X5.4737 Y260.7602 Z-1.0000 F1080.00
G1 X14.0000 Y265.6828 Z-1.0000 F1080.00
G1 X22.5263 Y260.7602 Z-1.0000 F1080.00
G1 X22.5263 Y250.9149 Z-1.0000 F1080.00
G1 X22.5263 Y250.9149 Z-1.5000 F1080.00
G1 X14.0000 Y245.9922 Z-1.5000 F1080.00
G1 X5.4737 Y250.9149 Z-1.5000 F1080.00
G1 X5.4737 Y260.7602 Z-1.5000 F1080.00
G1 X14.0000 Y265.6828 Z-1.5000 F1080.00
G1 X22.5263 Y260.7602 Z-1.5000 F1080.00
G1 X22.5263 Y250.9149 Z-1.5000 F1080.00
G1 X22.5263 Y250.9149 Z-1.5000 F1080.00
G1 X22.5263 Y253.3190 Z-1.5000 F1080.00
G1 X16.8380 Y247.6307 Z-1.5000 F1080.00
G1 X14.0000 Y245.9922 Z-1.5000 F1080.00
G1 X13.2363 Y246.4332 Z-1.5000 F1080.00
G1 X22.5263 Y255.7232 Z-1.5000 F1080.00
G1 X22.5263 Y258.1273 Z-1.5000 F1080.00
G1 X11.7121 Y247.3131 Z-1.5000 F1080.00
G1 X10.1879 Y248.1931 Z-1.5000 F1080.00
G1 X22.5263 Y260.5315 Z-1.5000 F1080.00
G1 X22.5263 Y260.7602 Z-1.5000 F1080.00
G1 X21.1471 Y261.5565 Z-1.5000 F1080.00
G1 X8.6637 Y249.0731 Z-1.5000 F1080.00
G1 X7.1395 Y249.9531 Z-1.5000 F1080.00
G1 X19.6229 Y262.4364 Z-1.5000 F1080.00
G1 X18.0987 Y263.3164 Z-1.5000 F1080.00
G1 X5.6154 Y250.8331 Z-1.5000 F1080.00
G1 X5.4737 Y250.9149 Z-1.5000 F1080.00
G1 X5.4737 Y253.0956 Z-1.5000 F1080.00
G1 X16.5745 Y264.1964 Z-1.5000 F1080.00
G1 X15.0503 Y265.0764 Z-1.5000 F1080.00
G1 X5.4737 Y255.4998 Z-1.5000 F1080.00
G1 X5.4737 Y257.9039 Z-1.5000 F1080.00
G1 X12.2316 Y264.6618 Z-1.5000 F1080.00
G1 X6.5433 Y261.3777 Z-1.5000 F1080.00
G1 X5.4737 Y260.3081 Z-1.5000 F1080.00
G1 X5.4737 Y260.7602 Z-1.5000 F1080.00
G1 X6.5433 Y261.3777 Z-1.5000 F1080.00
G1 X6.5433 Y261.3777 Z-2.0000 F1080.00
G1 X5.4737 Y260.7602 Z-2.0000 F1080.00
G1 X5.4737 Y260.3081 Z-2.0000 F1080.00
G1 X6.5433 Y261.3777 Z-2.0000 F1080.00
G1 X12.2316 Y264.6618 Z-2.0000 F1080.00
G1 X5.4737 Y257.9039 Z-2.0000 F1080.00
G1 X5.4737 Y255.4998 Z-2.0000 F1080.00
G1 X15.0503 Y265.0764 Z-2.0000 F1080.00
G1 X16.5745 Y264.1964 Z-2.0000 F1080.00
G1 X5.4737 Y253.0956 Z-2.0000 F1080.00
G1 X5.4737 Y250.9149 Z-2.0000 F1080.00
G1 X5.6154 Y250.8331 Z-2.0000 F1080.00
G1 X18.0987 Y263.3164 Z-2.0000 F1080.00
G1 X19.6229 Y262.4364 Z-2.0000 F1080.00
G1 X7.1395 Y249.9531 Z-2.0000 F1080.00
G1 X8.6637 Y249.0731 Z-2.0000 F1080.00
G1 X21.1471 Y261.5565 Z-2.0000 F1080.00
G1 X22.5263 Y260.7602 Z-2.0000 F1080.00
G1 X22.5263 Y260.5315 Z-2.0000 F1080.00
G1 X10.1879 Y248.1931 Z-2.0000 F1080.00
G1 X11.7121 Y247.3131 Z-2.0000 F1080.00
G1 X22.5263 Y258.1273 Z-2.0000 F1080.00
G1 X22.5263 Y255.7232 Z-2.0000 F1080.00
G1 X13.2363 Y246.4332 Z-2.0000 F1080.00
G1 X14.0000 Y245.9922 Z-2.0000 F1080.00
G1 X16.8380 Y247.6307 Z-2.0000 F1080.00
G1 X22.5263 Y253.3190 Z-2.0000 F1080.00
G1 X22.5263 Y250.9149 Z-2.0000 F1080.00
G1 X22.5263 Y250.9149 Z-2.0000 F1080.00
G1 X14.0000 Y245.9922 Z-2.0000 F1080.00
G1 X5.4737 Y250.9149 Z-2.0000 F1080.00
G1 X5.4737 Y260.7602 Z-2.0000 F1080.00
G1 X14.0000 Y265.6828 Z-2.0000 F1080.00
G1 X22.5263 Y260.7602 Z-2.0000 F1080.00
G1 X22.5263 Y250.9149 Z-2.0000 F1080.00
G0 Z5.0000
G0 X20.3947 Y313.8858
G0 Z3.0000
G1 X20.3947 Y313.8858 Z-0.5000 F1080.00
G1 X22.5263 Y312.6552 Z-0.5000 F1080.00
G1 X22.5263 Y302.8099 Z-0.5000 F1080.00
G1 X14.0000 Y297.8872 Z-0.5000 F1080.00
G1 X5.4737 Y302.8099 Z-0.5000 F1080.00
G1 X5.4737 Y312.6552 Z-0.5000 F1080.00
G1 X14.0000 Y317.5778 Z-0.5000 F1080.00
G1 X20.3947 Y313.8858 Z-0.5000 F1080.00
G0 X20.3947 Y313.8858 Z5.0000
G0 X22.5263 Y302.8099 Z5.0000
G0 X22.5263 Y302.8099 Z2.5000
G1 X22.5263 Y302.8099 Z-0.5000 F1080.00
G1 X22.5263 Y305.2140 Z-0.5000 F1080.00
G1 X16.8380 Y299.5257 Z-0.5000 F1080.00
G1 X14.0000 Y297.8872 Z-0.5000 F1080.00
G1 X13.2363 Y298.3282 Z-0.5000 F1080.00
G1 X22.5263 Y307.6182 Z-0.5000 F1080.00
G1 X22.5263 Y310.0223 Z-0.5000 F1080.00
G1 X11.7121 Y299.2081 Z-0.5000 F1080.00
G1 X10.1879 Y300.0881 Z-0.5000 F1080.00
G1 X22.5263 Y312.4265 Z-0.5000 F1080.00
G1 X22.5263 Y312.6552 Z-0.5000 F1080.00
G1 X21.1471 Y313.4515 Z-0.5000 F1080.00
G1 X8.6637 Y300.9681 Z-0.5000 F1080.00
G1 X7.1395 Y301.8481 Z-0.5000 F1080.00
G1 X19.6229 Y314.3314 Z-0.5000 F1080.00
G1 X18.0987 Y315.2114 Z-0.5000 F1080.00
G1 X5.6154 Y302.7281 Z-0.5000 F1080.00
G1 X5.4737 Y302.8099 Z-0.5000 F1080.00
G1 X5.4737 Y304.9906 Z-0.5000 F1080.00
G1 X16.5745 Y316.0914 Z-0.5000 F1080.00
G1 X15.0503 Y316.9714 Z-0.5000 F1080.00
G1 X5.4737 Y307.3948 Z-0.5000 F1080.00
G1 X5.4737 Y309.7989 Z-0.5000 F1080.00
G1 X12.2316 Y316.5568 Z-0.5000 F1080.00
G1 X6.5433 Y313.2727 Z-0.5000 F1080.00
G1 X5.4737 Y312.2031 Z-0.5000 F1080.00
G1 X5.4737 Y312.6552 Z-0.5000 F1080.00
G1 X6.5433 Y313.2727 Z-0.5000 F1080.00
G1 X6.5433 Y313.2727 Z-1.0000 F1080.00
G1 X5.4737 Y312.6552 Z-1.0000 F1080.00
G1 X5.4737 Y312.2031 Z-1.0000 F1080.00
G1 X6.5433 Y313.2727 Z-1.0000 F1080.00
G1 X12.2316 Y316.5568 Z-1.0000 F1080.00
G1 X5.4737 Y309.7989 Z-1.0000 F1080.00
G1 X5.4737 Y307.3948 Z-1.0000 F1080.00
G1 X15.0503 Y316.9714 Z-1.0000 F1080.00
G1 X16.5745 Y316.0914 Z-1.0000 F1080.00
G1 X5.4737 Y304.9906 Z-1.0000 F1080.00
G1 X5.4737 Y302.8099 Z-1.0000 F1080.00
G1 X5.6154 Y302.7281 Z-1.0000 F1080.00
G1 X18.0987 Y315.2114 Z-1.0000 F1080.00
G1 X19.6229 Y314.3314 Z-1.0000 F1080.00
G1 X7.1395 Y301.8481 Z-1.0000 F1080.00
G1 X8.6637 Y300.9681 Z-1.0000 F1080.00
G1 X21.1471 Y313.4515 Z-1.0000 F1080.00
G1 X22.5263 Y312.6552 Z-1.0000 F1080.00
G1 X22.5263 Y312.4265 Z-1.0000 F1080.00
G1 X10.1879 Y300.0881 Z-1.0000 F1080.00
G1 X11.7121 Y299.2081 Z-1.0000 F1080.00
G1 X22.5263 Y310.0223 Z-1.0000 F1080.00
G1 X22.5263 Y307.6182 Z-1.0000 F1080.00
G1 X13.2363 Y298.3282 Z-1.0000 F1080.00
G1 X14.0000 Y297.8872 Z-1.0000 F1080.00
G1 X16.8380 Y299.5257 Z-1.0000 F1080.00
G1 X22.5263 Y305.2140 Z-1.0000 F1080.00
G1 X22.5263 Y302.8099 Z-1.0000 F1080.00
G0 X22.5263 Y302.8099 Z5.0000
G0 X22.5263 Y302.8099 Z5.0000
G0 X22.5263 Y302.8099 Z2.0000
G1 X22.5263 Y302.8099 Z-1.0000 F1080.00
G1 X14.0000 Y297.8872 Z-1.0000 F1080.00
G1 X5.4737 Y302.8099 Z-1.0000 F1080.00
G1 X5.4737 Y312.6552 Z-1.0000 F1080.00
G1 X14.0000 Y317.5778 Z-1.0000 F1080.00
G1 X22.5263 Y312.6552 Z-1.0000 F1080.00
G1 X22.5263 Y302.8099 Z-1.0000 F1080.00
G1 X22.5263 Y302.8099 Z-1.5000 F1080.00
G1 X14.0000 Y297.8872 Z-1.5000 F1080.00
G1 X5.4737 Y302.8099 Z-1.5000 F1080.00
G1 X5.4737 Y312.6552 Z-1.5000 F1080.00
G1 X14.0000 Y317.5778 Z-1.5000 F1080.00
G1 X22.5263 Y312.6552 Z-1.5000 F1080.00
G1 X22.5263 Y302.8099 Z-1.5000 F1080.00
G0 X22.5263 Y302.8099 Z5.0000
G0 X22.5263 Y302.8099 Z5.0000
G0 X22.5263 Y302.8099 Z1.5000
G1 X22.5263 Y302.8099 Z-1.5000 F1080.00
G1 X22.5263 Y305.2140 Z-1.5000 F1080.00
G1 X16.8380 Y299.5257 Z-1.5000 F1080.00
G1 X14.0000 Y297.8872 Z-1.5000 F1080.00
G1 X13.2363 Y298.3282 Z-1.5000 F1080.00
G1 X22.5263 Y307.6182 Z-1.5000 F1080.00
G1 X22.5263 Y310.0223 Z-1.5000 F1080.00
G1 X11.7121 Y299.2081 Z-1.5000 F1080.00
G1 X10.1879 Y300.0881 Z-1.5000 F1080.00
G1 X22.5263 Y312.4265 Z-1.5000 F1080.00
G1 X22.5263 Y312.6552 Z-1.5000 F1080.00
G1 X21.1471 Y313.4515 Z-1.5000 F1080.00
G1 X8.6637 Y300.9681 Z-1.5000 F1080.00
G1 X7.1395 Y301.8481 Z-1.5000 F1080.00
G1 X19.6229 Y314.3314 Z-1.5000 F1080.00
G1 X18.0987 Y315.2114 Z-1.5000 F1080.00
G1 X5.6154 Y302.7281 Z-1.5000 F1080.00
G1 X5.4737 Y302.8099 Z-1.5000 F1080.00
G1 X5.4737 Y304.9906 Z-1.5000 F1080.00
G1 X16.5745 Y316.0914 Z-1.5000 F1080.00
G1 X15.0503 Y316.9714 Z-1.5000 F1080.00
G1 X5.4737 Y307.3948 Z-1.5000 F1080.00
G1 X5.4737 Y309.7989 Z-1.5000 F1080.00
G1 X12.2316 Y316.5568 Z-1.5000 F1080.00
G1 X6.5433 Y313.2727 Z-1.5000 F1080.00
G1 X5.4737 Y312.2031 Z-1.5000 F1080.00
G1 X5.4737 Y312.6552 Z-1.5000 F1080.00
G1 X6.5433 Y313.2727 Z-1.5000 F1080.00
G1 X6.5433 Y313.2727 Z-2.0000 F1080.00
G1 X5.4737 Y312.6552 Z-2.0000 F1080.00
G1 X5.4737 Y312.2031 Z-2.0000 F1080.00
G1 X6.5433 Y313.2727 Z-2.0000 F1080.00
G1 X12.2316 Y316.5568 Z-2.0000 F1080.00
G1 X5.4737 Y309.7989 Z-2.0000 F1080.00
G1 X5.4737 Y307.3948 Z-2.0000 F1080.00
G1 X15.0503 Y316.9714 Z-2.0000 F1080.00
G1 X16.5745 Y316.0914 Z-2.0000 F1080.00
G1 X5.4737 Y304.9906 Z-2.0000 F1080.00
G1 X5.4737 Y302.8099 Z-2.0000 F1080.00
G1 X5.6154 Y302.7281 Z-2.0000 F1080.00
G1 X18.0987 Y315.2114 Z-2.0000 F1080.00
G1 X19.6229 Y314.3314 Z-2.0000 F1080.00
G1 X7.1395 Y301.8481 Z-2.0000 F1080.00
G1 X8.6637 Y300.9681 Z-2.0000 F1080.00
G1 X21.1471 Y313.4515 Z-2.0000 F1080.00
G1 X22.5263 Y312.6552 Z-2.0000 F1080.00
G1 X22.5263 Y312.4265 Z-2.0000 F1080.00
G1 X10.1879 Y300.0881 Z-2.0000 F1080.00
G1 X11.7121 Y299.2081 Z-2.0000 F1080.00
G1 X22.5263 Y310.0223 Z-2.0000 F1080.00
G1 X22.5263 Y307.6182 Z-2.0000 F1080.00
G1 X13.2363 Y298.3282 Z-2.0000 F1080.00
G1 X14.0000 Y297.8872 Z-2.0000 F1080.00
G1 X16.8380 Y299.5257 Z-2.0000 F1080.00
G1 X22.5263 Y305.2140 Z-2.0000 F1080.00
G1 X22.5263 Y302.8099 Z-2.0000 F1080.00
G0 X22.5263 Y302.8099 Z5.0000
G0 X22.5263 Y302.8099 Z5.0000
G0 X22.5263 Y302.8099 Z1.0000
G1 X22.5263 Y302.8099 Z-2.0000 F1080.00
G1 X14.0000 Y297.8872 Z-2.0000 F1080.00
G1 X5.4737 Y302.8099 Z-2.0000 F1080.00
G1 X5.4737 Y312.6552 Z-2.0000 F1080.00
G1 X14.0000 Y317.5778 Z-2.0000 F1080.00
G1 X22.5263 Y312.6552 Z-2.0000 F1080.00
G1 X22.5263 Y302.8099 Z-2.0000 F1080.00
G0 Z5.0000
G0 X20.3947 Y356.4948
G0 Z3.0000
G1 X20.3947 Y356.4948 Z-0.5000 F1080.00
G1 X22.5263 Y355.2641 Z-0.5000 F1080.00
G1 X22.5263 Y345.4188 Z-0.5000 F1080.00
G1 X14.0000 Y340.4961 Z-0.5000 F1080.00
G1 X5.4737 Y345.4188 Z-0.5000 F1080.00
G1 X5.4737 Y355.2641 Z-0.5000 F1080.00
G1 X14.0000 Y360.1867 Z-0.5000 F1080.00
G1 X20.3947 Y356.4948 Z-0.5000 F1080.00
G0 X20.3947 Y356.4948 Z5.0000
G0 X22.5263 Y345.4188 Z5.0000
G0 X22.5263 Y345.4188 Z2.5000
G1 X22.5263 Y345.4188 Z-0.5000 F1080.00
G1 X22.5263 Y347.8230 Z-0.5000 F1080.00
G1 X16.8380 Y342.1346 Z-0.5000 F1080.00
G1 X14.0000 Y340.4961 Z-0.5000 F1080.00
G1 X13.2363 Y340.9371 Z-0.5000 F1080.00
G1 X22.5263 Y350.2271 Z-0.5000 F1080.00
G1 X22.5263 Y352.6313 Z-0.5000 F1080.00
G1 X11.7121 Y341.8171 Z-0.5000 F1080.00
G1 X10.1879 Y342.6971 Z-0.5000 F1080.00
G1 X22.5263 Y355.0354 Z-0.5000 F1080.00
G1 X22.5263 Y355.2641 Z-0.5000 F1080.00
G1 X21.1471 Y356.0604 Z-0.5000 F1080.00
G1 X8.6637 Y343.5770 Z-0.5000 F1080.00
G1 X7.1395 Y344.4570 Z-0.5000 F1080.00
G1 X19.6229 Y356.9404 Z-0.5000 F1080.00
G1 X18.0987 Y357.8204 Z-0.5000 F1080.00
G1 X5.6154 Y345.3370 Z-0.5000 F1080.00
G1 X5.4737 Y345.4188 Z-0.5000 F1080.00
G1 X5.4737 Y347.5995 Z-0.5000 F1080.00
G1 X16.5745 Y358.7003 Z-0.5000 F1080.00
G1 X15.0503 Y359.5803 Z-0.5000 F1080.00
G1 X5.4737 Y350.0037 Z-0.5000 F1080.00
G1 X5.4737 Y352.4079 Z-0.5000 F1080.00
G1 X12.2316 Y359.1658 Z-0.5000 F1080.00
G1 X6.5433 Y355.8816 Z-0.5000 F1080.00
G1 X5.4737 Y354.8120 Z-0.5000 F1080.00
G1 X5.4737 Y355.2641 Z-0.5000 F1080.00
G1 X6.5433 Y355.8816 Z-0.5000 F1080.00
G1 X6.5433 Y355.8816 Z-1.0000 F1080.00
G1 X5.4737 Y355.2641 Z-1.0000 F1080.00
G1 X5.4737 Y354.8120 Z-1.0000 F1080.00
G1 X6.5433 Y355.8816 Z-1.0000 F1080.00
G1 X12.2316 Y359.1658 Z-1.0000 F1080.00
G1 X5.4737 Y352.4079 Z-1.0000 F1080.00
G1 X5.4737 Y350.0037 Z-1.0000 F1080.00
G1 X15.0503 Y359.5803 Z-1.0000 F1080.00
G1 X16.5745 Y358.7003 Z-1.0000 F1080.00
G1 X5.4737 Y347.5995 Z-1.0000 F1080.00
G1 X5.4737 Y345.4188 Z-1.0000 F1080.00
G1 X5.6154 Y345.3370 Z-1.0000 F1080.00
G1 X18.0987 Y357.8204 Z-1.0000 F1080.00
G1 X19.6229 Y356.9404 Z-1.0000 F1080.00
G1 X7.1395 Y344.4570 Z-1.0000 F1080.00
G1 X8.6637 Y343.5770 Z-1.0000 F1080.00
G1 X21.1471 Y356.0604 Z-1.0000 F1080.00
G1 X22.5263 Y355.2641 Z-1.0000 F1080.00
G1 X22.5263 Y355.0354 Z-1.0000 F1080.00
G1 X10.1879 Y342.6971 Z-1.0000 F1080.00
G1 X11.7121 Y341.8171 Z-1.0000 F1080.00
G1 X22.5263 Y352.6313 Z-1.0000 F1080.00
G1 X22.5263 Y350.2271 Z-1.0000 F1080.00
G1 X13.2363 Y340.9371 Z-1.0000 F1080.00
G1 X14.0000 Y340.4961 Z-1.0000 F1080.00
G1 X16.8380 Y342.1346 Z-1.0000 F1080.00
G1 X22.5263 Y347.8230 Z-1.0000 F1080.00
G1 X22.5263 Y345.4188 Z-1.0000 F1080.00
G0 X22.5263 Y345.4188 Z5.0000
G0 X22.5263 Y345.4188 Z5.0000
G0 X22.5263 Y345.4188 Z2.0000
G1 X22.5263 Y345.4188 Z-1.0000 F1080.00
G1 X14.0000 Y340.4961 Z-1.0000 F1080.00
G1 X5.4737 Y345.4188 Z-1.0000 F1080.00
G1 X5.4737 Y355.2641 Z-1.0000 F1080.00
G1 X14.0000 Y360.1867 Z-1.0000 F1080.00
G1 X22.5263 Y355.2641 Z-1.0000 F1080.00
G1 X22.5263 Y345.4188 Z-1.0000 F1080.00
G1 X22.5263 Y345.4188 Z-1.5000 F1080.00
G1 X14.0000 Y340.4961 Z-1.5000 F1080.00
G1 X5.4737 Y345.4188 Z-1.5000 F1080.00
G1 X5.4737 Y355.2641 Z-1.5000 F1080.00
G1 X14.0000 Y360.1867 Z-1.5000 F1080.00
G1 X22.5263 Y355.2641 Z-1.5000 F1080.00
G1 X22.5263 Y345.4188 Z-1.5000 F1080.00
G0 X22.5263 Y345.4188 Z5.0000
G0 X22.5263 Y345.4188 Z5.0000
G0 X22.5263 Y345.4188 Z1.5000
G1 X22.5263 Y345.4188 Z-1.5000 F1080.00
G1 X22.5263 Y347.8230 Z-1.5000 F1080.00
G1 X16.8380 Y342.1346 Z-1.5000 F1080.00
G1 X14.0000 Y340.4961 Z-1.5000 F1080.00
G1 X13.2363 Y340.9371 Z-1.5000 F1080.00
G1 X22.5263 Y350.2271 Z-1.5000 F1080.00
G1 X22.5263 Y352.6313 Z-1.5000 F1080.00
G1 X11.7121 Y341.8171 Z-1.5000 F1080.00
G1 X10.1879 Y342.6971 Z-1.5000 F1080.00
G1 X22.5263 Y355.0354 Z-1.5000 F1080.00
G1 X22.5263 Y355.2641 Z-1.5000 F1080.00
G1 X21.1471 Y356.0604 Z-1.5000 F1080.00
G1 X8.6637 Y343.5770 Z-1.5000 F1080.00
G1 X7.1395 Y344.4570 Z-1.5000 F1080.00
G1 X19.6229 Y356.9404 Z-1.5000 F1080.00
G1 X18.0987 Y357.8204 Z-1.5000 F1080.00
G1 X5.6154 Y345.3370 Z-1.5000 F1080.00
G1 X5.4737 Y345.4188 Z-1.5000 F1080.00
G1 X5.4737 Y347.5995 Z-1.5000 F1080.00
G1 X16.5745 Y358.7003 Z-1.5000 F1080.00
G1 X15.0503 Y359.5803 Z-1.5000 F1080.00
G1 X5.4737 Y350.0037 Z-1.5000 F1080.00
G1 X5.4737 Y352.4079 Z-1.5000 F1080.00
G1 X12.2316 Y359.1658 Z-1.5000 F1080.00
G1 X6.5433 Y355.8816 Z-1.5000 F1080.00
G1 X5.4737 Y354.8120 Z-1.5000 F1080.00
G1 X5.4737 Y355.2641 Z-1.5000 F1080.00
G1 X6.5433 Y355.8816 Z-1.5000 F1080.00
G1 X6.5433 Y355.8816 Z-2.0000 F1080.00
G1 X5.4737 Y355.2641 Z-2.0000 F1080.00
G1 X5.4737 Y354.8120 Z-2.0000 F1080.00
G1 X6.5433 Y355.8816 Z-2.0000 F1080.00
G1 X12.2316 Y359.1658 Z-2.0000 F1080.00
G1 X5.4737 Y352.4079 Z-2.0000 F1080.00
G1 X5.4737 Y350.0037 Z-2.0000 F1080.00
G1 X15.0503 Y359.5803 Z-2.0000 F1080.00
G1 X16.5745 Y358.7003 Z-2.0000 F1080.00
G1 X5.4737 Y347.5995 Z-2.0000 F1080.00
G1 X5.4737 Y345.4188 Z-2.0000 F1080.00
G1 X5.6154 Y345.3370 Z-2.0000 F1080.00
G1 X18.0987 Y357.8204 Z-2.0000 F1080.00
G1 X19.6229 Y356.9404 Z-2.0000 F1080.00
G1 X7.1395 Y344.4570 Z-2.0000 F1080.00
G1 X8.6637 Y343.5770 Z-2.0000 F1080.00
G1 X21.1471 Y356.0604 Z-2.0000 F1080.00
G1 X22.5263 Y355.2641 Z-2.0000 F1080.00
G1 X22.5263 Y355.0354 Z-2.0000 F1080.00
G1 X10.1879 Y342.6971 Z-2.0000 F1080.00
G1 X11.7121 Y341.8171 Z-2.0000 F1080.00
G1 X22.5263 Y352.6313 Z-2.0000 F1080.00
G1 X22.5263 Y350.2271 Z-2.0000 F1080.00
G1 X13.2363 Y340.9371 Z-2.0000 F1080.00
G1 X14.0000 Y340.4961 Z-2.0000 F1080.00
G1 X16.8380 Y342.1346 Z-2.0000 F1080.00
G1 X22.5263 Y347.8230 Z-2.0000 F1080.00
G1 X22.5263 Y345.4188 Z-2.0000 F1080.00
G0 X22.5263 Y345.4188 Z5.0000
G0 X22.5263 Y345.4188 Z5.0000
G0 X22.5263 Y345.4188 Z1.0000
G1 X22.5263 Y345.4188 Z-2.0000 F1080.00
G1 X14.0000 Y340.4961 Z-2.0000 F1080.00
G1 X5.4737 Y345.4188 Z-2.0000 F1080.00
G1 X5.4737 Y355.2641 Z-2.0000 F1080.00
G1 X14.0000 Y360.1867 Z-2.0000 F1080.00
G1 X22.5263 Y355.2641 Z-2.0000 F1080.00
G1 X22.5263 Y345.4188 Z-2.0000 F1080.00
G0 Z5.0000
G0 X25.8744 Y428.0000
G0 Z3.0000
G1 X25.8744 Y428.0000 Z-0.5000 F1080.00
G1 X25.8744 Y426.0000 Z-0.5000 F1080.00
G1 X2.1256 Y426.0000 Z-0.5000 F1080.00
G1 X2.1256 Y428.0000 Z-0.5000 F1080.00
G1 X25.8744 Y428.0000 Z-0.5000 F1080.00
G0 X25.8744 Y428.0000 Z5.0000
G0 X25.8744 Y426.0000 Z5.0000
G0 X25.8744 Y426.0000 Z2.5000
G1 X25.8744 Y426.0000 Z-0.5000 F1080.00
G1 X25.8744 Y428.0000 Z-0.5000 F1080.00
G1 X25.4702 Y428.0000 Z-0.5000 F1080.00
G1 X23.4702 Y426.0000 Z-0.5000 F1080.00
G1 X21.0661 Y426.0000 Z-0.5000 F1080.00
G1 X23.0661 Y428.0000 Z-0.5000 F1080.00
G1 X20.6619 Y428.0000 Z-0.5000 F1080.00
G1 X18.6619 Y426.0000 Z-0.5000 F1080.00
G1 X16.2577 Y426.0000 Z-0.5000 F1080.00
G1 X18.2577 Y428.0000 Z-0.5000 F1080.00
G1 X15.8536 Y428.0000 Z-0.5000 F1080.00
G1 X13.8536 Y426.0000 Z-0.5000 F1080.00
G1 X11.4494 Y426.0000 Z-0.5000 F1080.00
G1 X13.4494 Y428.0000 Z-0.5000 F1080.00
G1 X11.0453 Y428.0000 Z-0.5000 F1080.00
G1 X9.0453 Y426.0000 Z-0.5000 F1080.00
G1 X6.6411 Y426.0000 Z-0.5000 F1080.00
G1 X8.6411 Y428.0000 Z-0.5000 F1080.00
G1 X6.2369 Y428.0000 Z-0.5000 F1080.00
G1 X4.2369 Y426.0000 Z-0.5000 F1080.00
G1 X2.1256 Y426.0000 Z-0.5000 F1080.00
G1 X2.1256 Y426.2928 Z-0.5000 F1080.00
G1 X3.8328 Y428.0000 Z-0.5000 F1080.00
G1 X2.1256 Y428.0000 Z-0.5000 F1080.00
G1 X2.1256 Y426.2928 Z-0.5000 F1080.00
G1 X2.1256 Y426.2928 Z-1.0000 F1080.00
G1 X2.1256 Y428.0000 Z-1.0000 F1080.00
G1 X3.8328 Y428.0000 Z-1.0000 F1080.00
G1 X2.1256 Y426.2928 Z-1.0000 F1080.00
G1 X2.1256 Y426.0000 Z-1.0000 F1080.00
G1 X4.2369 Y426.0000 Z-1.0000 F1080.00
G1 X6.2369 Y428.0000 Z-1.0000 F1080.00
G1 X8.6411 Y428.0000 Z-1.0000 F1080.00
G1 X6.6411 Y426.0000 Z-1.0000 F1080.00
G1 X9.0453 Y426.0000 Z-1.0000 F1080.00
G1 X11.0453 Y428.0000 Z-1.0000 F1080.00
G1 X13.4494 Y428.0000 Z-1.0000 F1080.00
G1 X11.4494 Y426.0000 Z-1.0000 F1080.00
G1 X13.8536 Y426.0000 Z-1.0000 F1080.00
G1 X15.8536 Y428.0000 Z-1.0000 F1080.00
G1 X18.2577 Y428.0000 Z-1.0000 F1080.00
G1 X16.2577 Y426.0000 Z-1.0000 F1080.00
G1 X18.6619 Y426.0000 Z-1.0000 F1080.00
G1 X20.6619 Y428.0000 Z-1.0000 F1080.00
G1 X23.0661 Y428.0000 Z-1.0000 F1080.00
G1 X21.0661 Y426.0000 Z-1.0000 F1080.00
G1 X23.4702 Y426.0000 Z-1.0000 F1080.00
G1 X25.4702 Y428.0000 Z-1.0000 F1080.00
G1 X25.8744 Y428.0000 Z-1.0000 F1080.00
G1 X25.8744 Y426.0000 Z-1.0000 F1080.00
G1 X25.8744 Y426.0000 Z-1.0000 F1080.00
G1 X2.1256 Y426.0000 Z-1.0000 F1080.00
G1 X2.1256 Y428.0000 Z-1.0000 F1080.00
G1 X25.8744 Y428.0000 Z-1.0000 F1080.00
G1 X25.8744 Y426.0000 Z-1.0000 F1080.00
G1 X25.8744 Y426.0000 Z-1.5000 F1080.00
G1 X2.1256 Y426.0000 Z-1.5000 F1080.00
G1 X2.1256 Y428.0000 Z-1.5000 F1080.00
G1 X25.8744 Y428.0000 Z-1.5000 F1080.00
G1 X25.8744 Y426.0000 Z-1.5000 F1080.00
G1 X25.8744 Y426.0000 Z-1.5000 F1080.00
G1 X25.8744 Y428.0000 Z-1.5000 F1080.00
G1 X25.4702 Y428.0000 Z-1.5000 F1080.00
G1 X23.4702 Y426.0000 Z-1.5000 F1080.00
G1 X21.0661 Y426.0000 Z-1.5000 F1080.00
G1 X23.0661 Y428.0000 Z-1.5000 F1080.00
G1 X20.6619 Y428.0000 Z-1.5000 F1080.00
G1 X18.6619 Y426.0000 Z-1.5000 F1080.00
G1 X16.2577 Y426.0000 Z-1.5000 F1080.00
G1 X18.2577 Y428.0000 Z-1.5000 F1080.00
G1 X15.8536 Y428.0000 Z-1.5000 F1080.00
G1 X13.8536 Y426.0000 Z-1.5000 F1080.00
G1 X11.4494 Y426.0000 Z-1.5000 F1080.00
G1 X13.4494 Y428.0000 Z-1.5000 F1080.00
G1 X11.0453 Y428.0000 Z-1.5000 F1080.00
G1 X9.0453 Y426.0000 Z-1.5000 F1080.00
G1 X6.6411 Y426.0000 Z-1.5000 F1080.00
G1 X8.6411 Y428.0000 Z-1.5000 F1080.00
G1 X6.2369 Y428.0000 Z-1.5000 F1080.00
G1 X4.2369 Y426.0000 Z-1.5000 F1080.00
G1 X2.1256 Y426.0000 Z-1.5000 F1080.00
G1 X2.1256 Y426.2928 Z-1.5000 F1080.00
G1 X3.8328 Y428.0000 Z-1.5000 F1080.00
G1 X2.1256 Y428.0000 Z-1.5000 F1080.00
G1 X2.1256 Y426.2928 Z-1.5000 F1080.00
G1 X2.1256 Y426.2928 Z-2.0000 F1080.00
G1 X2.1256 Y428.0000 Z-2.0000 F1080.00
G1 X3.8328 Y428.0000 Z-2.0000 F1080.00
G1 X2.1256 Y426.2928 Z-2.0000 F1080.00
G1 X2.1256 Y426.0000 Z-2.0000 F1080.00
G1 X4.2369 Y426.0000 Z-2.0000 F1080.00
G1 X6.2369 Y428.0000 Z-2.0000 F1080.00
G1 X8.6411 Y428.0000 Z-2.0000 F1080.00
G1 X6.6411 Y426.0000 Z-2.0000 F1080.00
G1 X9.0453 Y426.0000 Z-2.0000 F1080.00
G1 X11.0453 Y428.0000 Z-2.0000 F1080.00
G1 X13.4494 Y428.0000 Z-2.0000 F1080.00
G1 X11.4494 Y426.0000 Z-2.0000 F1080.00
G1 X13.8536 Y426.0000 Z-2.0000 F1080.00
G1 X15.8536 Y428.0000 Z-2.0000 F1080.00
G1 X18.2577 Y428.0000 Z-2.0000 F1080.00
G1 X16.2577 Y426.0000 Z-2.0000 F1080.00
G1 X18.6619 Y426.0000 Z-2.0000 F1080.00
G1 X20.6619 Y428.0000 Z-2.0000 F1080.00
G1 X23.0661 Y428.0000 Z-2.0000 F1080.00
G1 X21.0661 Y426.0000 Z-2.0000 F1080.00
G1 X23.4702 Y426.0000 Z-2.0000 F1080.00
G1 X25.4702 Y428.0000 Z-2.0000 F1080.00
G1 X25.8744 Y428.0000 Z-2.0000 F1080.00
G1 X25.8744 Y426.0000 Z-2.0000 F1080.00
G1 X25.8744 Y426.0000 Z-2.0000 F1080.00
G1 X2.1256 Y426.0000 Z-2.0000 F1080.00
G1 X2.1256 Y428.0000 Z-2.0000 F1080.00
G1 X25.8744 Y428.0000 Z-2.0000 F1080.00
G1 X25.8744 Y426.0000 Z-2.0000 F1080.00
G0 Z5.0000
(finish operation: Pocket_Shape)
(begin operation: Contour)
(Path: Contour)
(Contour)
(Compensated Tool Path. Diameter: 2.0)
G0 Z5.0000
G0 X28.7071 Y430.7071
G0 Z3.0000
G1 X28.7071 Y430.7071 Z-0.7500 F1080.00
G2 X29.0000 Y430.0000 Z-0.7500 I-0.7071 J-0.7071 F1080.00
G1 X29.0000 Y0.0000 Z-0.7500 F1080.00
G2 X28.0000 Y-1.0000 Z-0.7500 I-1.0000 J0.0000 F1080.00
G1 X0.0000 Y-1.0000 Z-0.7500 F1080.00
G2 X-1.0000 Y0.0000 Z-0.7500 I0.0000 J1.0000 F1080.00
G1 X-1.0000 Y430.0000 Z-0.7500 F1080.00
G2 X0.0000 Y431.0000 Z-0.7500 I1.0000 J-0.0000 F1080.00
G1 X28.0000 Y431.0000 Z-0.7500 F1080.00
G2 X28.7071 Y430.7071 Z-0.7500 I-0.0000 J-1.0000 F1080.00
G1 X28.7071 Y430.7071 Z-1.5000 F1080.00
G2 X29.0000 Y430.0000 Z-1.5000 I-0.7071 J-0.7071 F1080.00
G1 X29.0000 Y0.0000 Z-1.5000 F1080.00
G2 X28.0000 Y-1.0000 Z-1.5000 I-1.0000 J0.0000 F1080.00
G1 X0.0000 Y-1.0000 Z-1.5000 F1080.00
G2 X-1.0000 Y0.0000 Z-1.5000 I0.0000 J1.0000 F1080.00
G1 X-1.0000 Y430.0000 Z-1.5000 F1080.00
G2 X0.0000 Y431.0000 Z-1.5000 I1.0000 J-0.0000 F1080.00
G1 X28.0000 Y431.0000 Z-1.5000 F1080.00
G2 X28.7071 Y430.7071 Z-1.5000 I-0.0000 J-1.0000 F1080.00
G1 X28.7071 Y430.7071 Z-2.2500 F1080.00
G2 X29.0000 Y430.0000 Z-2.2500 I-0.7071 J-0.7071 F1080.00
G1 X29.0000 Y0.0000 Z-2.2500 F1080.00
G2 X28.0000 Y-1.0000 Z-2.2500 I-1.0000 J0.0000 F1080.00
G1 X0.0000 Y-1.0000 Z-2.2500 F1080.00
G2 X-1.0000 Y0.0000 Z-2.2500 I0.0000 J1.0000 F1080.00
G1 X-1.0000 Y430.0000 Z-2.2500 F1080.00
G2 X0.0000 Y431.0000 Z-2.2500 I1.0000 J-0.0000 F1080.00
G1 X28.0000 Y431.0000 Z-2.2500 F1080.00
G2 X28.7071 Y430.7071 Z-2.2500 I-0.0000 J-1.0000 F1080.00
G1 X28.7071 Y430.7071 Z-3.0000 F1080.00
G2 X29.0000 Y430.0000 Z-3.0000 I-0.7071 J-0.7071 F1080.00
G1 X29.0000 Y0.0000 Z-3.0000 F1080.00
G2 X28.0000 Y-1.0000 Z-3.0000 I-1.0000 J0.0000 F1080.00
G1 X0.0000 Y-1.0000 Z-3.0000 F1080.00
G2 X-1.0000 Y0.0000 Z-3.0000 I0.0000 J1.0000 F1080.00
G1 X-1.0000 Y430.0000 Z-3.0000 F1080.00
G2 X0.0000 Y431.0000 Z-3.0000 I1.0000 J-0.0000 F1080.00
G1 X28.0000 Y431.0000 Z-3.0000 F1080.00
G2 X28.7071 Y430.7071 Z-3.0000 I-0.0000 J-1.0000 F1080.00
G1 X28.7071 Y430.7071 Z-3.7500 F1080.00
G2 X29.0000 Y430.0000 Z-3.7500 I-0.7071 J-0.7071 F1080.00
G1 X29.0000 Y0.0000 Z-3.7500 F1080.00
G2 X28.0000 Y-1.0000 Z-3.7500 I-1.0000 J0.0000 F1080.00
G1 X0.0000 Y-1.0000 Z-3.7500 F1080.00
G2 X-1.0000 Y0.0000 Z-3.7500 I0.0000 J1.0000 F1080.00
G1 X-1.0000 Y430.0000 Z-3.7500 F1080.00
G2 X0.0000 Y431.0000 Z-3.7500 I1.0000 J-0.0000 F1080.00
G1 X28.0000 Y431.0000 Z-3.7500 F1080.00
G2 X28.7071 Y430.7071 Z-3.7500 I-0.0000 J-1.0000 F1080.00
G1 X28.7071 Y430.7071 Z-4.0000 F1080.00
G2 X29.0000 Y430.0000 Z-4.0000 I-0.7071 J-0.7071 F1080.00
G1 X29.0000 Y0.0000 Z-4.0000 F1080.00
G2 X28.0000 Y-1.0000 Z-4.0000 I-1.0000 J0.0000 F1080.00
G1 X0.0000 Y-1.0000 Z-4.0000 F1080.00
G2 X-1.0000 Y0.0000 Z-4.0000 I0.0000 J1.0000 F1080.00
G1 X-1.0000 Y430.0000 Z-4.0000 F1080.00
G2 X0.0000 Y431.0000 Z-4.0000 I1.0000 J-0.0000 F1080.00
G1 X28.0000 Y431.0000 Z-4.0000 F1080.00
G2 X28.7071 Y430.7071 Z-4.0000 I-0.0000 J-1.0000 F1080.00
G0 Z5.0000
(finish operation: Contour)
(begin postamble)
M5
G17 G90
; M2
