(Exported by FreeCAD)
(Post Processor: grbl_post)
(Output Time:2021-11-25 05:16:09.134578)
(begin preamble)
G17 G90
G21
(begin operation: T3: 1/8inMILL001)
(Path: T3: 1/8inMILL001)
(T3: 1/8inMILL001)
(begin toolchange)
; M6 T3
M3 S0.0000
(finish operation: T3: 1/8inMILL001)
(begin operation: MillFace)
(Path: MillFace)
(MillFace)
G0 Z5.0000
G0 X27.0000 Y429.0000
G0 Z3.0000
G1 X27.0000 Y429.0000 Z-0.0000 F1080.00
G1 X27.0000 Y1.0000 Z-0.0000 F1080.00
G1 X1.0000 Y1.0000 Z-0.0000 F1080.00
G1 X1.0000 Y429.0000 Z-0.0000 F1080.00
G1 X27.0000 Y429.0000 Z-0.0000 F1080.00
G1 X27.0000 Y429.0000 Z-0.0000 F1080.00
G1 X25.8686 Y429.0000 Z-0.0000 F1080.00
G1 X27.0000 Y427.8686 Z-0.0000 F1080.00
G1 X27.0000 Y426.7373 Z-0.0000 F1080.00
G1 X24.7373 Y429.0000 Z-0.0000 F1080.00
G1 X23.6059 Y429.0000 Z-0.0000 F1080.00
G1 X27.0000 Y425.6059 Z-0.0000 F1080.00
G1 X27.0000 Y424.4745 Z-0.0000 F1080.00
G1 X22.4745 Y429.0000 Z-0.0000 F1080.00
G1 X21.3431 Y429.0000 Z-0.0000 F1080.00
G1 X27.0000 Y423.3431 Z-0.0000 F1080.00
G1 X27.0000 Y422.2118 Z-0.0000 F1080.00
G1 X20.2118 Y429.0000 Z-0.0000 F1080.00
G1 X19.0804 Y429.0000 Z-0.0000 F1080.00
G1 X27.0000 Y421.0804 Z-0.0000 F1080.00
G1 X27.0000 Y419.9490 Z-0.0000 F1080.00
G1 X17.9490 Y429.0000 Z-0.0000 F1080.00
G1 X16.8177 Y429.0000 Z-0.0000 F1080.00
G1 X27.0000 Y418.8177 Z-0.0000 F1080.00
G1 X27.0000 Y417.6863 Z-0.0000 F1080.00
G1 X15.6863 Y429.0000 Z-0.0000 F1080.00
G1 X14.5549 Y429.0000 Z-0.0000 F1080.00
G1 X27.0000 Y416.5549 Z-0.0000 F1080.00
G1 X27.0000 Y415.4235 Z-0.0000 F1080.00
G1 X13.4235 Y429.0000 Z-0.0000 F1080.00
G1 X12.2922 Y429.0000 Z-0.0000 F1080.00
G1 X27.0000 Y414.2922 Z-0.0000 F1080.00
G1 X27.0000 Y413.1608 Z-0.0000 F1080.00
G1 X11.1608 Y429.0000 Z-0.0000 F1080.00
G1 X10.0294 Y429.0000 Z-0.0000 F1080.00
G1 X27.0000 Y412.0294 Z-0.0000 F1080.00
G1 X27.0000 Y410.8981 Z-0.0000 F1080.00
G1 X8.8981 Y429.0000 Z-0.0000 F1080.00
G1 X7.7667 Y429.0000 Z-0.0000 F1080.00
G1 X27.0000 Y409.7667 Z-0.0000 F1080.00
G1 X27.0000 Y408.6353 Z-0.0000 F1080.00
G1 X6.6353 Y429.0000 Z-0.0000 F1080.00
G1 X5.5040 Y429.0000 Z-0.0000 F1080.00
G1 X27.0000 Y407.5040 Z-0.0000 F1080.00
G1 X27.0000 Y406.3726 Z-0.0000 F1080.00
G1 X4.3726 Y429.0000 Z-0.0000 F1080.00
G1 X3.2412 Y429.0000 Z-0.0000 F1080.00
G1 X27.0000 Y405.2412 Z-0.0000 F1080.00
G1 X27.0000 Y404.1098 Z-0.0000 F1080.00
G1 X2.1098 Y429.0000 Z-0.0000 F1080.00
G1 X1.0000 Y429.0000 Z-0.0000 F1080.00
G1 X1.0000 Y428.9785 Z-0.0000 F1080.00
G1 X27.0000 Y402.9785 Z-0.0000 F1080.00
G1 X27.0000 Y401.8471 Z-0.0000 F1080.00
G1 X1.0000 Y427.8471 Z-0.0000 F1080.00
G1 X1.0000 Y426.7157 Z-0.0000 F1080.00
G1 X27.0000 Y400.7157 Z-0.0000 F1080.00
G1 X27.0000 Y399.5844 Z-0.0000 F1080.00
G1 X1.0000 Y425.5844 Z-0.0000 F1080.00
G1 X1.0000 Y424.4530 Z-0.0000 F1080.00
G1 X27.0000 Y398.4530 Z-0.0000 F1080.00
G1 X27.0000 Y397.3216 Z-0.0000 F1080.00
G1 X1.0000 Y423.3216 Z-0.0000 F1080.00
G1 X1.0000 Y422.1902 Z-0.0000 F1080.00
G1 X27.0000 Y396.1902 Z-0.0000 F1080.00
G1 X27.0000 Y395.0589 Z-0.0000 F1080.00
G1 X1.0000 Y421.0589 Z-0.0000 F1080.00
G1 X1.0000 Y419.9275 Z-0.0000 F1080.00
G1 X27.0000 Y393.9275 Z-0.0000 F1080.00
G1 X27.0000 Y392.7961 Z-0.0000 F1080.00
G1 X1.0000 Y418.7961 Z-0.0000 F1080.00
G1 X1.0000 Y417.6648 Z-0.0000 F1080.00
G1 X27.0000 Y391.6648 Z-0.0000 F1080.00
G1 X27.0000 Y390.5334 Z-0.0000 F1080.00
G1 X1.0000 Y416.5334 Z-0.0000 F1080.00
G1 X1.0000 Y415.4020 Z-0.0000 F1080.00
G1 X27.0000 Y389.4020 Z-0.0000 F1080.00
G1 X27.0000 Y388.2706 Z-0.0000 F1080.00
G1 X1.0000 Y414.2706 Z-0.0000 F1080.00
G1 X1.0000 Y413.1393 Z-0.0000 F1080.00
G1 X27.0000 Y387.1393 Z-0.0000 F1080.00
G1 X27.0000 Y386.0079 Z-0.0000 F1080.00
G1 X1.0000 Y412.0079 Z-0.0000 F1080.00
G1 X1.0000 Y410.8765 Z-0.0000 F1080.00
G1 X27.0000 Y384.8765 Z-0.0000 F1080.00
G1 X27.0000 Y383.7452 Z-0.0000 F1080.00
G1 X1.0000 Y409.7452 Z-0.0000 F1080.00
G1 X1.0000 Y408.6138 Z-0.0000 F1080.00
G1 X27.0000 Y382.6138 Z-0.0000 F1080.00
G1 X27.0000 Y381.4824 Z-0.0000 F1080.00
G1 X1.0000 Y407.4824 Z-0.0000 F1080.00
G1 X1.0000 Y406.3511 Z-0.0000 F1080.00
G1 X27.0000 Y380.3511 Z-0.0000 F1080.00
G1 X27.0000 Y379.2197 Z-0.0000 F1080.00
G1 X1.0000 Y405.2197 Z-0.0000 F1080.00
G1 X1.0000 Y404.0883 Z-0.0000 F1080.00
G1 X27.0000 Y378.0883 Z-0.0000 F1080.00
G1 X27.0000 Y376.9569 Z-0.0000 F1080.00
G1 X1.0000 Y402.9569 Z-0.0000 F1080.00
G1 X1.0000 Y401.8256 Z-0.0000 F1080.00
G1 X27.0000 Y375.8256 Z-0.0000 F1080.00
G1 X27.0000 Y374.6942 Z-0.0000 F1080.00
G1 X1.0000 Y400.6942 Z-0.0000 F1080.00
G1 X1.0000 Y399.5628 Z-0.0000 F1080.00
G1 X27.0000 Y373.5628 Z-0.0000 F1080.00
G1 X27.0000 Y372.4315 Z-0.0000 F1080.00
G1 X1.0000 Y398.4315 Z-0.0000 F1080.00
G1 X1.0000 Y397.3001 Z-0.0000 F1080.00
G1 X27.0000 Y371.3001 Z-0.0000 F1080.00
G1 X27.0000 Y370.1687 Z-0.0000 F1080.00
G1 X1.0000 Y396.1687 Z-0.0000 F1080.00
G1 X1.0000 Y395.0373 Z-0.0000 F1080.00
G1 X27.0000 Y369.0373 Z-0.0000 F1080.00
G1 X27.0000 Y367.9060 Z-0.0000 F1080.00
G1 X1.0000 Y393.9060 Z-0.0000 F1080.00
G1 X1.0000 Y392.7746 Z-0.0000 F1080.00
G1 X27.0000 Y366.7746 Z-0.0000 F1080.00
G1 X27.0000 Y365.6432 Z-0.0000 F1080.00
G1 X1.0000 Y391.6432 Z-0.0000 F1080.00
G1 X1.0000 Y390.5119 Z-0.0000 F1080.00
G1 X27.0000 Y364.5119 Z-0.0000 F1080.00
G1 X27.0000 Y363.3805 Z-0.0000 F1080.00
G1 X1.0000 Y389.3805 Z-0.0000 F1080.00
G1 X1.0000 Y388.2491 Z-0.0000 F1080.00
G1 X27.0000 Y362.2491 Z-0.0000 F1080.00
G1 X27.0000 Y361.1177 Z-0.0000 F1080.00
G1 X1.0000 Y387.1177 Z-0.0000 F1080.00
G1 X1.0000 Y385.9864 Z-0.0000 F1080.00
G1 X27.0000 Y359.9864 Z-0.0000 F1080.00
G1 X27.0000 Y358.8550 Z-0.0000 F1080.00
G1 X1.0000 Y384.8550 Z-0.0000 F1080.00
G1 X1.0000 Y383.7236 Z-0.0000 F1080.00
G1 X27.0000 Y357.7236 Z-0.0000 F1080.00
G1 X27.0000 Y356.5923 Z-0.0000 F1080.00
G1 X1.0000 Y382.5923 Z-0.0000 F1080.00
G1 X1.0000 Y381.4609 Z-0.0000 F1080.00
G1 X27.0000 Y355.4609 Z-0.0000 F1080.00
G1 X27.0000 Y354.3295 Z-0.0000 F1080.00
G1 X1.0000 Y380.3295 Z-0.0000 F1080.00
G1 X1.0000 Y379.1982 Z-0.0000 F1080.00
G1 X27.0000 Y353.1982 Z-0.0000 F1080.00
G1 X27.0000 Y352.0668 Z-0.0000 F1080.00
G1 X1.0000 Y378.0668 Z-0.0000 F1080.00
G1 X1.0000 Y376.9354 Z-0.0000 F1080.00
G1 X27.0000 Y350.9354 Z-0.0000 F1080.00
G1 X27.0000 Y349.8040 Z-0.0000 F1080.00
G1 X1.0000 Y375.8040 Z-0.0000 F1080.00
G1 X1.0000 Y374.6727 Z-0.0000 F1080.00
G1 X27.0000 Y348.6727 Z-0.0000 F1080.00
G1 X27.0000 Y347.5413 Z-0.0000 F1080.00
G1 X1.0000 Y373.5413 Z-0.0000 F1080.00
G1 X1.0000 Y372.4099 Z-0.0000 F1080.00
G1 X27.0000 Y346.4099 Z-0.0000 F1080.00
G1 X27.0000 Y345.2786 Z-0.0000 F1080.00
G1 X1.0000 Y371.2786 Z-0.0000 F1080.00
G1 X1.0000 Y370.1472 Z-0.0000 F1080.00
G1 X27.0000 Y344.1472 Z-0.0000 F1080.00
G1 X27.0000 Y343.0158 Z-0.0000 F1080.00
G1 X1.0000 Y369.0158 Z-0.0000 F1080.00
G1 X1.0000 Y367.8844 Z-0.0000 F1080.00
G1 X27.0000 Y341.8844 Z-0.0000 F1080.00
G1 X27.0000 Y340.7531 Z-0.0000 F1080.00
G1 X1.0000 Y366.7531 Z-0.0000 F1080.00
G1 X1.0000 Y365.6217 Z-0.0000 F1080.00
G1 X27.0000 Y339.6217 Z-0.0000 F1080.00
G1 X27.0000 Y338.4903 Z-0.0000 F1080.00
G1 X1.0000 Y364.4903 Z-0.0000 F1080.00
G1 X1.0000 Y363.3590 Z-0.0000 F1080.00
G1 X27.0000 Y337.3590 Z-0.0000 F1080.00
G1 X27.0000 Y336.2276 Z-0.0000 F1080.00
G1 X1.0000 Y362.2276 Z-0.0000 F1080.00
G1 X1.0000 Y361.0962 Z-0.0000 F1080.00
G1 X27.0000 Y335.0962 Z-0.0000 F1080.00
G1 X27.0000 Y333.9648 Z-0.0000 F1080.00
G1 X1.0000 Y359.9648 Z-0.0000 F1080.00
G1 X1.0000 Y358.8335 Z-0.0000 F1080.00
G1 X27.0000 Y332.8335 Z-0.0000 F1080.00
G1 X27.0000 Y331.7021 Z-0.0000 F1080.00
G1 X1.0000 Y357.7021 Z-0.0000 F1080.00
G1 X1.0000 Y356.5707 Z-0.0000 F1080.00
G1 X27.0000 Y330.5707 Z-0.0000 F1080.00
G1 X27.0000 Y329.4394 Z-0.0000 F1080.00
G1 X1.0000 Y355.4394 Z-0.0000 F1080.00
G1 X1.0000 Y354.3080 Z-0.0000 F1080.00
G1 X27.0000 Y328.3080 Z-0.0000 F1080.00
G1 X27.0000 Y327.1766 Z-0.0000 F1080.00
G1 X1.0000 Y353.1766 Z-0.0000 F1080.00
G1 X1.0000 Y352.0453 Z-0.0000 F1080.00
G1 X27.0000 Y326.0453 Z-0.0000 F1080.00
G1 X27.0000 Y324.9139 Z-0.0000 F1080.00
G1 X1.0000 Y350.9139 Z-0.0000 F1080.00
G1 X1.0000 Y349.7825 Z-0.0000 F1080.00
G1 X27.0000 Y323.7825 Z-0.0000 F1080.00
G1 X27.0000 Y322.6511 Z-0.0000 F1080.00
G1 X1.0000 Y348.6511 Z-0.0000 F1080.00
G1 X1.0000 Y347.5198 Z-0.0000 F1080.00
G1 X27.0000 Y321.5198 Z-0.0000 F1080.00
G1 X27.0000 Y320.3884 Z-0.0000 F1080.00
G1 X1.0000 Y346.3884 Z-0.0000 F1080.00
G1 X1.0000 Y345.2570 Z-0.0000 F1080.00
G1 X27.0000 Y319.2570 Z-0.0000 F1080.00
G1 X27.0000 Y318.1257 Z-0.0000 F1080.00
G1 X1.0000 Y344.1257 Z-0.0000 F1080.00
G1 X1.0000 Y342.9943 Z-0.0000 F1080.00
G1 X27.0000 Y316.9943 Z-0.0000 F1080.00
G1 X27.0000 Y315.8629 Z-0.0000 F1080.00
G1 X1.0000 Y341.8629 Z-0.0000 F1080.00
G1 X1.0000 Y340.7315 Z-0.0000 F1080.00
G1 X27.0000 Y314.7315 Z-0.0000 F1080.00
G1 X27.0000 Y313.6002 Z-0.0000 F1080.00
G1 X1.0000 Y339.6002 Z-0.0000 F1080.00
G1 X1.0000 Y338.4688 Z-0.0000 F1080.00
G1 X27.0000 Y312.4688 Z-0.0000 F1080.00
G1 X27.0000 Y311.3374 Z-0.0000 F1080.00
G1 X1.0000 Y337.3374 Z-0.0000 F1080.00
G1 X1.0000 Y336.2061 Z-0.0000 F1080.00
G1 X27.0000 Y310.2061 Z-0.0000 F1080.00
G1 X27.0000 Y309.0747 Z-0.0000 F1080.00
G1 X1.0000 Y335.0747 Z-0.0000 F1080.00
G1 X1.0000 Y333.9433 Z-0.0000 F1080.00
G1 X27.0000 Y307.9433 Z-0.0000 F1080.00
G1 X27.0000 Y306.8119 Z-0.0000 F1080.00
G1 X1.0000 Y332.8119 Z-0.0000 F1080.00
G1 X1.0000 Y331.6806 Z-0.0000 F1080.00
G1 X27.0000 Y305.6806 Z-0.0000 F1080.00
G1 X27.0000 Y304.5492 Z-0.0000 F1080.00
G1 X1.0000 Y330.5492 Z-0.0000 F1080.00
G1 X1.0000 Y329.4178 Z-0.0000 F1080.00
G1 X27.0000 Y303.4178 Z-0.0000 F1080.00
G1 X27.0000 Y302.2865 Z-0.0000 F1080.00
G1 X1.0000 Y328.2865 Z-0.0000 F1080.00
G1 X1.0000 Y327.1551 Z-0.0000 F1080.00
G1 X27.0000 Y301.1551 Z-0.0000 F1080.00
G1 X27.0000 Y300.0237 Z-0.0000 F1080.00
G1 X1.0000 Y326.0237 Z-0.0000 F1080.00
G1 X1.0000 Y324.8924 Z-0.0000 F1080.00
G1 X27.0000 Y298.8924 Z-0.0000 F1080.00
G1 X27.0000 Y297.7610 Z-0.0000 F1080.00
G1 X1.0000 Y323.7610 Z-0.0000 F1080.00
G1 X1.0000 Y322.6296 Z-0.0000 F1080.00
G1 X27.0000 Y296.6296 Z-0.0000 F1080.00
G1 X27.0000 Y295.4982 Z-0.0000 F1080.00
G1 X1.0000 Y321.4982 Z-0.0000 F1080.00
G1 X1.0000 Y320.3669 Z-0.0000 F1080.00
G1 X27.0000 Y294.3669 Z-0.0000 F1080.00
G1 X27.0000 Y293.2355 Z-0.0000 F1080.00
G1 X1.0000 Y319.2355 Z-0.0000 F1080.00
G1 X1.0000 Y318.1041 Z-0.0000 F1080.00
G1 X27.0000 Y292.1041 Z-0.0000 F1080.00
G1 X27.0000 Y290.9728 Z-0.0000 F1080.00
G1 X1.0000 Y316.9728 Z-0.0000 F1080.00
G1 X1.0000 Y315.8414 Z-0.0000 F1080.00
G1 X27.0000 Y289.8414 Z-0.0000 F1080.00
G1 X27.0000 Y288.7100 Z-0.0000 F1080.00
G1 X1.0000 Y314.7100 Z-0.0000 F1080.00
G1 X1.0000 Y313.5786 Z-0.0000 F1080.00
G1 X27.0000 Y287.5786 Z-0.0000 F1080.00
G1 X27.0000 Y286.4473 Z-0.0000 F1080.00
G1 X1.0000 Y312.4473 Z-0.0000 F1080.00
G1 X1.0000 Y311.3159 Z-0.0000 F1080.00
G1 X27.0000 Y285.3159 Z-0.0000 F1080.00
G1 X27.0000 Y284.1845 Z-0.0000 F1080.00
G1 X1.0000 Y310.1845 Z-0.0000 F1080.00
G1 X1.0000 Y309.0532 Z-0.0000 F1080.00
G1 X27.0000 Y283.0532 Z-0.0000 F1080.00
G1 X27.0000 Y281.9218 Z-0.0000 F1080.00
G1 X1.0000 Y307.9218 Z-0.0000 F1080.00
G1 X1.0000 Y306.7904 Z-0.0000 F1080.00
G1 X27.0000 Y280.7904 Z-0.0000 F1080.00
G1 X27.0000 Y279.6590 Z-0.0000 F1080.00
G1 X1.0000 Y305.6590 Z-0.0000 F1080.00
G1 X1.0000 Y304.5277 Z-0.0000 F1080.00
G1 X27.0000 Y278.5277 Z-0.0000 F1080.00
G1 X27.0000 Y277.3963 Z-0.0000 F1080.00
G1 X1.0000 Y303.3963 Z-0.0000 F1080.00
G1 X1.0000 Y302.2649 Z-0.0000 F1080.00
G1 X27.0000 Y276.2649 Z-0.0000 F1080.00
G1 X27.0000 Y275.1336 Z-0.0000 F1080.00
G1 X1.0000 Y301.1336 Z-0.0000 F1080.00
G1 X1.0000 Y300.0022 Z-0.0000 F1080.00
G1 X27.0000 Y274.0022 Z-0.0000 F1080.00
G1 X27.0000 Y272.8708 Z-0.0000 F1080.00
G1 X1.0000 Y298.8708 Z-0.0000 F1080.00
G1 X1.0000 Y297.7395 Z-0.0000 F1080.00
G1 X27.0000 Y271.7395 Z-0.0000 F1080.00
G1 X27.0000 Y270.6081 Z-0.0000 F1080.00
G1 X1.0000 Y296.6081 Z-0.0000 F1080.00
G1 X1.0000 Y295.4767 Z-0.0000 F1080.00
G1 X27.0000 Y269.4767 Z-0.0000 F1080.00
G1 X27.0000 Y268.3453 Z-0.0000 F1080.00
G1 X1.0000 Y294.3453 Z-0.0000 F1080.00
G1 X1.0000 Y293.2140 Z-0.0000 F1080.00
G1 X27.0000 Y267.2140 Z-0.0000 F1080.00
G1 X27.0000 Y266.0826 Z-0.0000 F1080.00
G1 X1.0000 Y292.0826 Z-0.0000 F1080.00
G1 X1.0000 Y290.9512 Z-0.0000 F1080.00
G1 X27.0000 Y264.9512 Z-0.0000 F1080.00
G1 X27.0000 Y263.8199 Z-0.0000 F1080.00
G1 X1.0000 Y289.8199 Z-0.0000 F1080.00
G1 X1.0000 Y288.6885 Z-0.0000 F1080.00
G1 X27.0000 Y262.6885 Z-0.0000 F1080.00
G1 X27.0000 Y261.5571 Z-0.0000 F1080.00
G1 X1.0000 Y287.5571 Z-0.0000 F1080.00
G1 X1.0000 Y286.4257 Z-0.0000 F1080.00
G1 X27.0000 Y260.4257 Z-0.0000 F1080.00
G1 X27.0000 Y259.2944 Z-0.0000 F1080.00
G1 X1.0000 Y285.2944 Z-0.0000 F1080.00
G1 X1.0000 Y284.1630 Z-0.0000 F1080.00
G1 X27.0000 Y258.1630 Z-0.0000 F1080.00
G1 X27.0000 Y257.0316 Z-0.0000 F1080.00
G1 X1.0000 Y283.0316 Z-0.0000 F1080.00
G1 X1.0000 Y281.9003 Z-0.0000 F1080.00
G1 X27.0000 Y255.9003 Z-0.0000 F1080.00
G1 X27.0000 Y254.7689 Z-0.0000 F1080.00
G1 X1.0000 Y280.7689 Z-0.0000 F1080.00
G1 X1.0000 Y279.6375 Z-0.0000 F1080.00
G1 X27.0000 Y253.6375 Z-0.0000 F1080.00
G1 X27.0000 Y252.5061 Z-0.0000 F1080.00
G1 X1.0000 Y278.5061 Z-0.0000 F1080.00
G1 X1.0000 Y277.3748 Z-0.0000 F1080.00
G1 X27.0000 Y251.3748 Z-0.0000 F1080.00
G1 X27.0000 Y250.2434 Z-0.0000 F1080.00
G1 X1.0000 Y276.2434 Z-0.0000 F1080.00
G1 X1.0000 Y275.1120 Z-0.0000 F1080.00
G1 X27.0000 Y249.1120 Z-0.0000 F1080.00
G1 X27.0000 Y247.9807 Z-0.0000 F1080.00
G1 X1.0000 Y273.9807 Z-0.0000 F1080.00
G1 X1.0000 Y272.8493 Z-0.0000 F1080.00
G1 X27.0000 Y246.8493 Z-0.0000 F1080.00
G1 X27.0000 Y245.7179 Z-0.0000 F1080.00
G1 X1.0000 Y271.7179 Z-0.0000 F1080.00
G1 X1.0000 Y270.5866 Z-0.0000 F1080.00
G1 X27.0000 Y244.5866 Z-0.0000 F1080.00
G1 X27.0000 Y243.4552 Z-0.0000 F1080.00
G1 X1.0000 Y269.4552 Z-0.0000 F1080.00
G1 X1.0000 Y268.3238 Z-0.0000 F1080.00
G1 X27.0000 Y242.3238 Z-0.0000 F1080.00
G1 X27.0000 Y241.1924 Z-0.0000 F1080.00
G1 X1.0000 Y267.1924 Z-0.0000 F1080.00
G1 X1.0000 Y266.0611 Z-0.0000 F1080.00
G1 X27.0000 Y240.0611 Z-0.0000 F1080.00
G1 X27.0000 Y238.9297 Z-0.0000 F1080.00
G1 X1.0000 Y264.9297 Z-0.0000 F1080.00
G1 X1.0000 Y263.7983 Z-0.0000 F1080.00
G1 X27.0000 Y237.7983 Z-0.0000 F1080.00
G1 X27.0000 Y236.6670 Z-0.0000 F1080.00
G1 X1.0000 Y262.6670 Z-0.0000 F1080.00
G1 X1.0000 Y261.5356 Z-0.0000 F1080.00
G1 X27.0000 Y235.5356 Z-0.0000 F1080.00
G1 X27.0000 Y234.4042 Z-0.0000 F1080.00
G1 X1.0000 Y260.4042 Z-0.0000 F1080.00
G1 X1.0000 Y259.2728 Z-0.0000 F1080.00
G1 X27.0000 Y233.2728 Z-0.0000 F1080.00
G1 X27.0000 Y232.1415 Z-0.0000 F1080.00
G1 X1.0000 Y258.1415 Z-0.0000 F1080.00
G1 X1.0000 Y257.0101 Z-0.0000 F1080.00
G1 X27.0000 Y231.0101 Z-0.0000 F1080.00
G1 X27.0000 Y229.8787 Z-0.0000 F1080.00
G1 X1.0000 Y255.8787 Z-0.0000 F1080.00
G1 X1.0000 Y254.7474 Z-0.0000 F1080.00
G1 X27.0000 Y228.7474 Z-0.0000 F1080.00
G1 X27.0000 Y227.6160 Z-0.0000 F1080.00
G1 X1.0000 Y253.6160 Z-0.0000 F1080.00
G1 X1.0000 Y252.4846 Z-0.0000 F1080.00
G1 X27.0000 Y226.4846 Z-0.0000 F1080.00
G1 X27.0000 Y225.3532 Z-0.0000 F1080.00
G1 X1.0000 Y251.3532 Z-0.0000 F1080.00
G1 X1.0000 Y250.2219 Z-0.0000 F1080.00
G1 X27.0000 Y224.2219 Z-0.0000 F1080.00
G1 X27.0000 Y223.0905 Z-0.0000 F1080.00
G1 X1.0000 Y249.0905 Z-0.0000 F1080.00
G1 X1.0000 Y247.9591 Z-0.0000 F1080.00
G1 X27.0000 Y221.9591 Z-0.0000 F1080.00
G1 X27.0000 Y220.8278 Z-0.0000 F1080.00
G1 X1.0000 Y246.8278 Z-0.0000 F1080.00
G1 X1.0000 Y245.6964 Z-0.0000 F1080.00
G1 X27.0000 Y219.6964 Z-0.0000 F1080.00
G1 X27.0000 Y218.5650 Z-0.0000 F1080.00
G1 X1.0000 Y244.5650 Z-0.0000 F1080.00
G1 X1.0000 Y243.4337 Z-0.0000 F1080.00
G1 X27.0000 Y217.4337 Z-0.0000 F1080.00
G1 X27.0000 Y216.3023 Z-0.0000 F1080.00
G1 X1.0000 Y242.3023 Z-0.0000 F1080.00
G1 X1.0000 Y241.1709 Z-0.0000 F1080.00
G1 X27.0000 Y215.1709 Z-0.0000 F1080.00
G1 X27.0000 Y214.0395 Z-0.0000 F1080.00
G1 X1.0000 Y240.0395 Z-0.0000 F1080.00
G1 X1.0000 Y238.9082 Z-0.0000 F1080.00
G1 X27.0000 Y212.9082 Z-0.0000 F1080.00
G1 X27.0000 Y211.7768 Z-0.0000 F1080.00
G1 X1.0000 Y237.7768 Z-0.0000 F1080.00
G1 X1.0000 Y236.6454 Z-0.0000 F1080.00
G1 X27.0000 Y210.6454 Z-0.0000 F1080.00
G1 X27.0000 Y209.5141 Z-0.0000 F1080.00
G1 X1.0000 Y235.5141 Z-0.0000 F1080.00
G1 X1.0000 Y234.3827 Z-0.0000 F1080.00
G1 X27.0000 Y208.3827 Z-0.0000 F1080.00
G1 X27.0000 Y207.2513 Z-0.0000 F1080.00
G1 X1.0000 Y233.2513 Z-0.0000 F1080.00
G1 X1.0000 Y232.1199 Z-0.0000 F1080.00
G1 X27.0000 Y206.1199 Z-0.0000 F1080.00
G1 X27.0000 Y204.9886 Z-0.0000 F1080.00
G1 X1.0000 Y230.9886 Z-0.0000 F1080.00
G1 X1.0000 Y229.8572 Z-0.0000 F1080.00
G1 X27.0000 Y203.8572 Z-0.0000 F1080.00
G1 X27.0000 Y202.7258 Z-0.0000 F1080.00
G1 X1.0000 Y228.7258 Z-0.0000 F1080.00
G1 X1.0000 Y227.5945 Z-0.0000 F1080.00
G1 X27.0000 Y201.5945 Z-0.0000 F1080.00
G1 X27.0000 Y200.4631 Z-0.0000 F1080.00
G1 X1.0000 Y226.4631 Z-0.0000 F1080.00
G1 X1.0000 Y225.3317 Z-0.0000 F1080.00
G1 X27.0000 Y199.3317 Z-0.0000 F1080.00
G1 X27.0000 Y198.2003 Z-0.0000 F1080.00
G1 X1.0000 Y224.2003 Z-0.0000 F1080.00
G1 X1.0000 Y223.0690 Z-0.0000 F1080.00
G1 X27.0000 Y197.0690 Z-0.0000 F1080.00
G1 X27.0000 Y195.9376 Z-0.0000 F1080.00
G1 X1.0000 Y221.9376 Z-0.0000 F1080.00
G1 X1.0000 Y220.8062 Z-0.0000 F1080.00
G1 X27.0000 Y194.8062 Z-0.0000 F1080.00
G1 X27.0000 Y193.6749 Z-0.0000 F1080.00
G1 X1.0000 Y219.6749 Z-0.0000 F1080.00
G1 X1.0000 Y218.5435 Z-0.0000 F1080.00
G1 X27.0000 Y192.5435 Z-0.0000 F1080.00
G1 X27.0000 Y191.4121 Z-0.0000 F1080.00
G1 X1.0000 Y217.4121 Z-0.0000 F1080.00
G1 X1.0000 Y216.2808 Z-0.0000 F1080.00
G1 X27.0000 Y190.2808 Z-0.0000 F1080.00
G1 X27.0000 Y189.1494 Z-0.0000 F1080.00
G1 X1.0000 Y215.1494 Z-0.0000 F1080.00
G1 X1.0000 Y214.0180 Z-0.0000 F1080.00
G1 X27.0000 Y188.0180 Z-0.0000 F1080.00
G1 X27.0000 Y186.8866 Z-0.0000 F1080.00
G1 X1.0000 Y212.8866 Z-0.0000 F1080.00
G1 X1.0000 Y211.7553 Z-0.0000 F1080.00
G1 X27.0000 Y185.7553 Z-0.0000 F1080.00
G1 X27.0000 Y184.6239 Z-0.0000 F1080.00
G1 X1.0000 Y210.6239 Z-0.0000 F1080.00
G1 X1.0000 Y209.4925 Z-0.0000 F1080.00
G1 X27.0000 Y183.4925 Z-0.0000 F1080.00
G1 X27.0000 Y182.3612 Z-0.0000 F1080.00
G1 X1.0000 Y208.3612 Z-0.0000 F1080.00
G1 X1.0000 Y207.2298 Z-0.0000 F1080.00
G1 X27.0000 Y181.2298 Z-0.0000 F1080.00
G1 X27.0000 Y180.0984 Z-0.0000 F1080.00
G1 X1.0000 Y206.0984 Z-0.0000 F1080.00
G1 X1.0000 Y204.9670 Z-0.0000 F1080.00
G1 X27.0000 Y178.9670 Z-0.0000 F1080.00
G1 X27.0000 Y177.8357 Z-0.0000 F1080.00
G1 X1.0000 Y203.8357 Z-0.0000 F1080.00
G1 X1.0000 Y202.7043 Z-0.0000 F1080.00
G1 X27.0000 Y176.7043 Z-0.0000 F1080.00
G1 X27.0000 Y175.5729 Z-0.0000 F1080.00
G1 X1.0000 Y201.5729 Z-0.0000 F1080.00
G1 X1.0000 Y200.4416 Z-0.0000 F1080.00
G1 X27.0000 Y174.4416 Z-0.0000 F1080.00
G1 X27.0000 Y173.3102 Z-0.0000 F1080.00
G1 X1.0000 Y199.3102 Z-0.0000 F1080.00
G1 X1.0000 Y198.1788 Z-0.0000 F1080.00
G1 X27.0000 Y172.1788 Z-0.0000 F1080.00
G1 X27.0000 Y171.0474 Z-0.0000 F1080.00
G1 X1.0000 Y197.0474 Z-0.0000 F1080.00
G1 X1.0000 Y195.9161 Z-0.0000 F1080.00
G1 X27.0000 Y169.9161 Z-0.0000 F1080.00
G1 X27.0000 Y168.7847 Z-0.0000 F1080.00
G1 X1.0000 Y194.7847 Z-0.0000 F1080.00
G1 X1.0000 Y193.6533 Z-0.0000 F1080.00
G1 X27.0000 Y167.6533 Z-0.0000 F1080.00
G1 X27.0000 Y166.5220 Z-0.0000 F1080.00
G1 X1.0000 Y192.5220 Z-0.0000 F1080.00
G1 X1.0000 Y191.3906 Z-0.0000 F1080.00
G1 X27.0000 Y165.3906 Z-0.0000 F1080.00
G1 X27.0000 Y164.2592 Z-0.0000 F1080.00
G1 X1.0000 Y190.2592 Z-0.0000 F1080.00
G1 X1.0000 Y189.1279 Z-0.0000 F1080.00
G1 X27.0000 Y163.1279 Z-0.0000 F1080.00
G1 X27.0000 Y161.9965 Z-0.0000 F1080.00
G1 X1.0000 Y187.9965 Z-0.0000 F1080.00
G1 X1.0000 Y186.8651 Z-0.0000 F1080.00
G1 X27.0000 Y160.8651 Z-0.0000 F1080.00
G1 X27.0000 Y159.7337 Z-0.0000 F1080.00
G1 X1.0000 Y185.7337 Z-0.0000 F1080.00
G1 X1.0000 Y184.6024 Z-0.0000 F1080.00
G1 X27.0000 Y158.6024 Z-0.0000 F1080.00
G1 X27.0000 Y157.4710 Z-0.0000 F1080.00
G1 X1.0000 Y183.4710 Z-0.0000 F1080.00
G1 X1.0000 Y182.3396 Z-0.0000 F1080.00
G1 X27.0000 Y156.3396 Z-0.0000 F1080.00
G1 X27.0000 Y155.2083 Z-0.0000 F1080.00
G1 X1.0000 Y181.2083 Z-0.0000 F1080.00
G1 X1.0000 Y180.0769 Z-0.0000 F1080.00
G1 X27.0000 Y154.0769 Z-0.0000 F1080.00
G1 X27.0000 Y152.9455 Z-0.0000 F1080.00
G1 X1.0000 Y178.9455 Z-0.0000 F1080.00
G1 X1.0000 Y177.8141 Z-0.0000 F1080.00
G1 X27.0000 Y151.8141 Z-0.0000 F1080.00
G1 X27.0000 Y150.6828 Z-0.0000 F1080.00
G1 X1.0000 Y176.6828 Z-0.0000 F1080.00
G1 X1.0000 Y175.5514 Z-0.0000 F1080.00
G1 X27.0000 Y149.5514 Z-0.0000 F1080.00
G1 X27.0000 Y148.4200 Z-0.0000 F1080.00
G1 X1.0000 Y174.4200 Z-0.0000 F1080.00
G1 X1.0000 Y173.2887 Z-0.0000 F1080.00
G1 X27.0000 Y147.2887 Z-0.0000 F1080.00
G1 X27.0000 Y146.1573 Z-0.0000 F1080.00
G1 X1.0000 Y172.1573 Z-0.0000 F1080.00
G1 X1.0000 Y171.0259 Z-0.0000 F1080.00
G1 X27.0000 Y145.0259 Z-0.0000 F1080.00
G1 X27.0000 Y143.8945 Z-0.0000 F1080.00
G1 X1.0000 Y169.8945 Z-0.0000 F1080.00
G1 X1.0000 Y168.7632 Z-0.0000 F1080.00
G1 X27.0000 Y142.7632 Z-0.0000 F1080.00
G1 X27.0000 Y141.6318 Z-0.0000 F1080.00
G1 X1.0000 Y167.6318 Z-0.0000 F1080.00
G1 X1.0000 Y166.5004 Z-0.0000 F1080.00
G1 X27.0000 Y140.5004 Z-0.0000 F1080.00
G1 X27.0000 Y139.3691 Z-0.0000 F1080.00
G1 X1.0000 Y165.3691 Z-0.0000 F1080.00
G1 X1.0000 Y164.2377 Z-0.0000 F1080.00
G1 X27.0000 Y138.2377 Z-0.0000 F1080.00
G1 X27.0000 Y137.1063 Z-0.0000 F1080.00
G1 X1.0000 Y163.1063 Z-0.0000 F1080.00
G1 X1.0000 Y161.9749 Z-0.0000 F1080.00
G1 X27.0000 Y135.9749 Z-0.0000 F1080.00
G1 X27.0000 Y134.8436 Z-0.0000 F1080.00
G1 X1.0000 Y160.8436 Z-0.0000 F1080.00
G1 X1.0000 Y159.7122 Z-0.0000 F1080.00
G1 X27.0000 Y133.7122 Z-0.0000 F1080.00
G1 X27.0000 Y132.5808 Z-0.0000 F1080.00
G1 X1.0000 Y158.5808 Z-0.0000 F1080.00
G1 X1.0000 Y157.4495 Z-0.0000 F1080.00
G1 X27.0000 Y131.4495 Z-0.0000 F1080.00
G1 X27.0000 Y130.3181 Z-0.0000 F1080.00
G1 X1.0000 Y156.3181 Z-0.0000 F1080.00
G1 X1.0000 Y155.1867 Z-0.0000 F1080.00
G1 X27.0000 Y129.1867 Z-0.0000 F1080.00
G1 X27.0000 Y128.0554 Z-0.0000 F1080.00
G1 X1.0000 Y154.0554 Z-0.0000 F1080.00
G1 X1.0000 Y152.9240 Z-0.0000 F1080.00
G1 X27.0000 Y126.9240 Z-0.0000 F1080.00
G1 X27.0000 Y125.7926 Z-0.0000 F1080.00
G1 X1.0000 Y151.7926 Z-0.0000 F1080.00
G1 X1.0000 Y150.6612 Z-0.0000 F1080.00
G1 X27.0000 Y124.6612 Z-0.0000 F1080.00
G1 X27.0000 Y123.5299 Z-0.0000 F1080.00
G1 X1.0000 Y149.5299 Z-0.0000 F1080.00
G1 X1.0000 Y148.3985 Z-0.0000 F1080.00
G1 X27.0000 Y122.3985 Z-0.0000 F1080.00
G1 X27.0000 Y121.2671 Z-0.0000 F1080.00
G1 X1.0000 Y147.2671 Z-0.0000 F1080.00
G1 X1.0000 Y146.1358 Z-0.0000 F1080.00
G1 X27.0000 Y120.1358 Z-0.0000 F1080.00
G1 X27.0000 Y119.0044 Z-0.0000 F1080.00
G1 X1.0000 Y145.0044 Z-0.0000 F1080.00
G1 X1.0000 Y143.8730 Z-0.0000 F1080.00
G1 X27.0000 Y117.8730 Z-0.0000 F1080.00
G1 X27.0000 Y116.7416 Z-0.0000 F1080.00
G1 X1.0000 Y142.7416 Z-0.0000 F1080.00
G1 X1.0000 Y141.6103 Z-0.0000 F1080.00
G1 X27.0000 Y115.6103 Z-0.0000 F1080.00
G1 X27.0000 Y114.4789 Z-0.0000 F1080.00
G1 X1.0000 Y140.4789 Z-0.0000 F1080.00
G1 X1.0000 Y139.3475 Z-0.0000 F1080.00
G1 X27.0000 Y113.3475 Z-0.0000 F1080.00
G1 X27.0000 Y112.2162 Z-0.0000 F1080.00
G1 X1.0000 Y138.2162 Z-0.0000 F1080.00
G1 X1.0000 Y137.0848 Z-0.0000 F1080.00
G1 X27.0000 Y111.0848 Z-0.0000 F1080.00
G1 X27.0000 Y109.9534 Z-0.0000 F1080.00
G1 X1.0000 Y135.9534 Z-0.0000 F1080.00
G1 X1.0000 Y134.8220 Z-0.0000 F1080.00
G1 X27.0000 Y108.8220 Z-0.0000 F1080.00
G1 X27.0000 Y107.6907 Z-0.0000 F1080.00
G1 X1.0000 Y133.6907 Z-0.0000 F1080.00
G1 X1.0000 Y132.5593 Z-0.0000 F1080.00
G1 X27.0000 Y106.5593 Z-0.0000 F1080.00
G1 X27.0000 Y105.4279 Z-0.0000 F1080.00
G1 X1.0000 Y131.4279 Z-0.0000 F1080.00
G1 X1.0000 Y130.2966 Z-0.0000 F1080.00
G1 X27.0000 Y104.2966 Z-0.0000 F1080.00
G1 X27.0000 Y103.1652 Z-0.0000 F1080.00
G1 X1.0000 Y129.1652 Z-0.0000 F1080.00
G1 X1.0000 Y128.0338 Z-0.0000 F1080.00
G1 X27.0000 Y102.0338 Z-0.0000 F1080.00
G1 X27.0000 Y100.9025 Z-0.0000 F1080.00
G1 X1.0000 Y126.9025 Z-0.0000 F1080.00
G1 X1.0000 Y125.7711 Z-0.0000 F1080.00
G1 X27.0000 Y99.7711 Z-0.0000 F1080.00
G1 X27.0000 Y98.6397 Z-0.0000 F1080.00
G1 X1.0000 Y124.6397 Z-0.0000 F1080.00
G1 X1.0000 Y123.5083 Z-0.0000 F1080.00
G1 X27.0000 Y97.5083 Z-0.0000 F1080.00
G1 X27.0000 Y96.3770 Z-0.0000 F1080.00
G1 X1.0000 Y122.3770 Z-0.0000 F1080.00
G1 X1.0000 Y121.2456 Z-0.0000 F1080.00
G1 X27.0000 Y95.2456 Z-0.0000 F1080.00
G1 X27.0000 Y94.1142 Z-0.0000 F1080.00
G1 X1.0000 Y120.1142 Z-0.0000 F1080.00
G1 X1.0000 Y118.9829 Z-0.0000 F1080.00
G1 X27.0000 Y92.9829 Z-0.0000 F1080.00
G1 X27.0000 Y91.8515 Z-0.0000 F1080.00
G1 X1.0000 Y117.8515 Z-0.0000 F1080.00
G1 X1.0000 Y116.7201 Z-0.0000 F1080.00
G1 X27.0000 Y90.7201 Z-0.0000 F1080.00
G1 X27.0000 Y89.5887 Z-0.0000 F1080.00
G1 X1.0000 Y115.5887 Z-0.0000 F1080.00
G1 X1.0000 Y114.4574 Z-0.0000 F1080.00
G1 X27.0000 Y88.4574 Z-0.0000 F1080.00
G1 X27.0000 Y87.3260 Z-0.0000 F1080.00
G1 X1.0000 Y113.3260 Z-0.0000 F1080.00
G1 X1.0000 Y112.1946 Z-0.0000 F1080.00
G1 X27.0000 Y86.1946 Z-0.0000 F1080.00
G1 X27.0000 Y85.0633 Z-0.0000 F1080.00
G1 X1.0000 Y111.0633 Z-0.0000 F1080.00
G1 X1.0000 Y109.9319 Z-0.0000 F1080.00
G1 X27.0000 Y83.9319 Z-0.0000 F1080.00
G1 X27.0000 Y82.8005 Z-0.0000 F1080.00
G1 X1.0000 Y108.8005 Z-0.0000 F1080.00
G1 X1.0000 Y107.6691 Z-0.0000 F1080.00
G1 X27.0000 Y81.6691 Z-0.0000 F1080.00
G1 X27.0000 Y80.5378 Z-0.0000 F1080.00
G1 X1.0000 Y106.5378 Z-0.0000 F1080.00
G1 X1.0000 Y105.4064 Z-0.0000 F1080.00
G1 X27.0000 Y79.4064 Z-0.0000 F1080.00
G1 X27.0000 Y78.2750 Z-0.0000 F1080.00
G1 X1.0000 Y104.2750 Z-0.0000 F1080.00
G1 X1.0000 Y103.1437 Z-0.0000 F1080.00
G1 X27.0000 Y77.1437 Z-0.0000 F1080.00
G1 X27.0000 Y76.0123 Z-0.0000 F1080.00
G1 X1.0000 Y102.0123 Z-0.0000 F1080.00
G1 X1.0000 Y100.8809 Z-0.0000 F1080.00
G1 X27.0000 Y74.8809 Z-0.0000 F1080.00
G1 X27.0000 Y73.7496 Z-0.0000 F1080.00
G1 X1.0000 Y99.7496 Z-0.0000 F1080.00
G1 X1.0000 Y98.6182 Z-0.0000 F1080.00
G1 X27.0000 Y72.6182 Z-0.0000 F1080.00
G1 X27.0000 Y71.4868 Z-0.0000 F1080.00
G1 X1.0000 Y97.4868 Z-0.0000 F1080.00
G1 X1.0000 Y96.3554 Z-0.0000 F1080.00
G1 X27.0000 Y70.3554 Z-0.0000 F1080.00
G1 X27.0000 Y69.2241 Z-0.0000 F1080.00
G1 X1.0000 Y95.2241 Z-0.0000 F1080.00
G1 X1.0000 Y94.0927 Z-0.0000 F1080.00
G1 X27.0000 Y68.0927 Z-0.0000 F1080.00
G1 X27.0000 Y66.9613 Z-0.0000 F1080.00
G1 X1.0000 Y92.9613 Z-0.0000 F1080.00
G1 X1.0000 Y91.8300 Z-0.0000 F1080.00
G1 X27.0000 Y65.8300 Z-0.0000 F1080.00
G1 X27.0000 Y64.6986 Z-0.0000 F1080.00
G1 X1.0000 Y90.6986 Z-0.0000 F1080.00
G1 X1.0000 Y89.5672 Z-0.0000 F1080.00
G1 X27.0000 Y63.5672 Z-0.0000 F1080.00
G1 X27.0000 Y62.4358 Z-0.0000 F1080.00
G1 X1.0000 Y88.4358 Z-0.0000 F1080.00
G1 X1.0000 Y87.3045 Z-0.0000 F1080.00
G1 X27.0000 Y61.3045 Z-0.0000 F1080.00
G1 X27.0000 Y60.1731 Z-0.0000 F1080.00
G1 X1.0000 Y86.1731 Z-0.0000 F1080.00
G1 X1.0000 Y85.0417 Z-0.0000 F1080.00
G1 X27.0000 Y59.0417 Z-0.0000 F1080.00
G1 X27.0000 Y57.9104 Z-0.0000 F1080.00
G1 X1.0000 Y83.9104 Z-0.0000 F1080.00
G1 X1.0000 Y82.7790 Z-0.0000 F1080.00
G1 X27.0000 Y56.7790 Z-0.0000 F1080.00
G1 X27.0000 Y55.6476 Z-0.0000 F1080.00
G1 X1.0000 Y81.6476 Z-0.0000 F1080.00
G1 X1.0000 Y80.5162 Z-0.0000 F1080.00
G1 X27.0000 Y54.5162 Z-0.0000 F1080.00
G1 X27.0000 Y53.3849 Z-0.0000 F1080.00
G1 X1.0000 Y79.3849 Z-0.0000 F1080.00
G1 X1.0000 Y78.2535 Z-0.0000 F1080.00
G1 X27.0000 Y52.2535 Z-0.0000 F1080.00
G1 X27.0000 Y51.1221 Z-0.0000 F1080.00
G1 X1.0000 Y77.1221 Z-0.0000 F1080.00
G1 X1.0000 Y75.9908 Z-0.0000 F1080.00
G1 X27.0000 Y49.9908 Z-0.0000 F1080.00
G1 X27.0000 Y48.8594 Z-0.0000 F1080.00
G1 X1.0000 Y74.8594 Z-0.0000 F1080.00
G1 X1.0000 Y73.7280 Z-0.0000 F1080.00
G1 X27.0000 Y47.7280 Z-0.0000 F1080.00
G1 X27.0000 Y46.5967 Z-0.0000 F1080.00
G1 X1.0000 Y72.5967 Z-0.0000 F1080.00
G1 X1.0000 Y71.4653 Z-0.0000 F1080.00
G1 X27.0000 Y45.4653 Z-0.0000 F1080.00
G1 X27.0000 Y44.3339 Z-0.0000 F1080.00
G1 X1.0000 Y70.3339 Z-0.0000 F1080.00
G1 X1.0000 Y69.2025 Z-0.0000 F1080.00
G1 X27.0000 Y43.2025 Z-0.0000 F1080.00
G1 X27.0000 Y42.0712 Z-0.0000 F1080.00
G1 X1.0000 Y68.0712 Z-0.0000 F1080.00
G1 X1.0000 Y66.9398 Z-0.0000 F1080.00
G1 X27.0000 Y40.9398 Z-0.0000 F1080.00
G1 X27.0000 Y39.8084 Z-0.0000 F1080.00
G1 X1.0000 Y65.8084 Z-0.0000 F1080.00
G1 X1.0000 Y64.6771 Z-0.0000 F1080.00
G1 X27.0000 Y38.6771 Z-0.0000 F1080.00
G1 X27.0000 Y37.5457 Z-0.0000 F1080.00
G1 X1.0000 Y63.5457 Z-0.0000 F1080.00
G1 X1.0000 Y62.4143 Z-0.0000 F1080.00
G1 X27.0000 Y36.4143 Z-0.0000 F1080.00
G1 X27.0000 Y35.2829 Z-0.0000 F1080.00
G1 X1.0000 Y61.2829 Z-0.0000 F1080.00
G1 X1.0000 Y60.1516 Z-0.0000 F1080.00
G1 X27.0000 Y34.1516 Z-0.0000 F1080.00
G1 X27.0000 Y33.0202 Z-0.0000 F1080.00
G1 X1.0000 Y59.0202 Z-0.0000 F1080.00
G1 X1.0000 Y57.8888 Z-0.0000 F1080.00
G1 X27.0000 Y31.8888 Z-0.0000 F1080.00
G1 X27.0000 Y30.7575 Z-0.0000 F1080.00
G1 X1.0000 Y56.7575 Z-0.0000 F1080.00
G1 X1.0000 Y55.6261 Z-0.0000 F1080.00
G1 X27.0000 Y29.6261 Z-0.0000 F1080.00
G1 X27.0000 Y28.4947 Z-0.0000 F1080.00
G1 X1.0000 Y54.4947 Z-0.0000 F1080.00
G1 X1.0000 Y53.3633 Z-0.0000 F1080.00
G1 X27.0000 Y27.3633 Z-0.0000 F1080.00
G1 X27.0000 Y26.2320 Z-0.0000 F1080.00
G1 X1.0000 Y52.2320 Z-0.0000 F1080.00
G1 X1.0000 Y51.1006 Z-0.0000 F1080.00
G1 X27.0000 Y25.1006 Z-0.0000 F1080.00
G1 X27.0000 Y23.9692 Z-0.0000 F1080.00
G1 X1.0000 Y49.9692 Z-0.0000 F1080.00
G1 X1.0000 Y48.8379 Z-0.0000 F1080.00
G1 X27.0000 Y22.8379 Z-0.0000 F1080.00
G1 X27.0000 Y21.7065 Z-0.0000 F1080.00
G1 X1.0000 Y47.7065 Z-0.0000 F1080.00
G1 X1.0000 Y46.5751 Z-0.0000 F1080.00
G1 X27.0000 Y20.5751 Z-0.0000 F1080.00
G1 X27.0000 Y19.4438 Z-0.0000 F1080.00
G1 X1.0000 Y45.4438 Z-0.0000 F1080.00
G1 X1.0000 Y44.3124 Z-0.0000 F1080.00
G1 X27.0000 Y18.3124 Z-0.0000 F1080.00
G1 X27.0000 Y17.1810 Z-0.0000 F1080.00
G1 X1.0000 Y43.1810 Z-0.0000 F1080.00
G1 X1.0000 Y42.0496 Z-0.0000 F1080.00
G1 X27.0000 Y16.0496 Z-0.0000 F1080.00
G1 X27.0000 Y14.9183 Z-0.0000 F1080.00
G1 X1.0000 Y40.9183 Z-0.0000 F1080.00
G1 X1.0000 Y39.7869 Z-0.0000 F1080.00
G1 X27.0000 Y13.7869 Z-0.0000 F1080.00
G1 X27.0000 Y12.6555 Z-0.0000 F1080.00
G1 X1.0000 Y38.6555 Z-0.0000 F1080.00
G1 X1.0000 Y37.5242 Z-0.0000 F1080.00
G1 X27.0000 Y11.5242 Z-0.0000 F1080.00
G1 X27.0000 Y10.3928 Z-0.0000 F1080.00
G1 X1.0000 Y36.3928 Z-0.0000 F1080.00
G1 X1.0000 Y35.2614 Z-0.0000 F1080.00
G1 X27.0000 Y9.2614 Z-0.0000 F1080.00
G1 X27.0000 Y8.1300 Z-0.0000 F1080.00
G1 X1.0000 Y34.1300 Z-0.0000 F1080.00
G1 X1.0000 Y32.9987 Z-0.0000 F1080.00
G1 X27.0000 Y6.9987 Z-0.0000 F1080.00
G1 X27.0000 Y5.8673 Z-0.0000 F1080.00
G1 X1.0000 Y31.8673 Z-0.0000 F1080.00
G1 X1.0000 Y30.7359 Z-0.0000 F1080.00
G1 X27.0000 Y4.7359 Z-0.0000 F1080.00
G1 X27.0000 Y3.6046 Z-0.0000 F1080.00
G1 X1.0000 Y29.6046 Z-0.0000 F1080.00
G1 X1.0000 Y28.4732 Z-0.0000 F1080.00
G1 X27.0000 Y2.4732 Z-0.0000 F1080.00
G1 X27.0000 Y1.3418 Z-0.0000 F1080.00
G1 X1.0000 Y27.3418 Z-0.0000 F1080.00
G1 X1.0000 Y26.2104 Z-0.0000 F1080.00
G1 X26.2104 Y1.0000 Z-0.0000 F1080.00
G1 X25.0791 Y1.0000 Z-0.0000 F1080.00
G1 X1.0000 Y25.0791 Z-0.0000 F1080.00
G1 X1.0000 Y23.9477 Z-0.0000 F1080.00
G1 X23.9477 Y1.0000 Z-0.0000 F1080.00
G1 X22.8163 Y1.0000 Z-0.0000 F1080.00
G1 X1.0000 Y22.8163 Z-0.0000 F1080.00
G1 X1.0000 Y21.6850 Z-0.0000 F1080.00
G1 X21.6850 Y1.0000 Z-0.0000 F1080.00
G1 X20.5536 Y1.0000 Z-0.0000 F1080.00
G1 X1.0000 Y20.5536 Z-0.0000 F1080.00
G1 X1.0000 Y19.4222 Z-0.0000 F1080.00
G1 X19.4222 Y1.0000 Z-0.0000 F1080.00
G1 X18.2909 Y1.0000 Z-0.0000 F1080.00
G1 X1.0000 Y18.2909 Z-0.0000 F1080.00
G1 X1.0000 Y17.1595 Z-0.0000 F1080.00
G1 X17.1595 Y1.0000 Z-0.0000 F1080.00
G1 X16.0281 Y1.0000 Z-0.0000 F1080.00
G1 X1.0000 Y16.0281 Z-0.0000 F1080.00
G1 X1.0000 Y14.8967 Z-0.0000 F1080.00
G1 X14.8967 Y1.0000 Z-0.0000 F1080.00
G1 X13.7654 Y1.0000 Z-0.0000 F1080.00
G1 X1.0000 Y13.7654 Z-0.0000 F1080.00
G1 X1.0000 Y12.6340 Z-0.0000 F1080.00
G1 X12.6340 Y1.0000 Z-0.0000 F1080.00
G1 X11.5026 Y1.0000 Z-0.0000 F1080.00
G1 X1.0000 Y11.5026 Z-0.0000 F1080.00
G1 X1.0000 Y10.3713 Z-0.0000 F1080.00
G1 X10.3713 Y1.0000 Z-0.0000 F1080.00
G1 X9.2399 Y1.0000 Z-0.0000 F1080.00
G1 X1.0000 Y9.2399 Z-0.0000 F1080.00
G1 X1.0000 Y8.1085 Z-0.0000 F1080.00
G1 X8.1085 Y1.0000 Z-0.0000 F1080.00
G1 X6.9771 Y1.0000 Z-0.0000 F1080.00
G1 X1.0000 Y6.9771 Z-0.0000 F1080.00
G1 X1.0000 Y5.8458 Z-0.0000 F1080.00
G1 X5.8458 Y1.0000 Z-0.0000 F1080.00
G1 X4.7144 Y1.0000 Z-0.0000 F1080.00
G1 X1.0000 Y4.7144 Z-0.0000 F1080.00
G1 X1.0000 Y3.5830 Z-0.0000 F1080.00
G1 X3.5830 Y1.0000 Z-0.0000 F1080.00
G1 X2.4517 Y1.0000 Z-0.0000 F1080.00
G1 X1.0000 Y2.4517 Z-0.0000 F1080.00
G1 X1.0000 Y1.3203 Z-0.0000 F1080.00
G1 X1.0000 Y1.0000 Z-0.0000 F1080.00
G1 X1.3203 Y1.0000 Z-0.0000 F1080.00
G1 X1.0000 Y1.3203 Z-0.0000 F1080.00
G0 Z5.0000
(finish operation: MillFace)
(begin postamble)
M5
G17 G90
; M2
